(.../pcb-gcode-3.6.0.4/pcb-gcode.ulp)
(Copyright 2005 - 2012 by John Johnson)
(See readme.txt for licensing terms.)
(This file generated from the board:)
(.../eagle/no_serial/satshakit-grbl.brd)
(Current profile is .../pcb-gcode-3.6.0.4/profiles/mach.pp  )
(This file generated 7/19/2019 1:02 AM)
(Settings from pcb-machine.h)
(  Tool Size)
(0.1000  )
(Z Axis Settings)
(  High     Up        Down     Drill)
(12.7000 	2.5400  	-0.0350 	-1.8000 )
(spindle on time = 1.0000)
(milling depth = -0.0140)
(text depth = -0.0350)
(tool change at 12.7000 15.2400 25.4000 )
(feed rate xy = F508   )
(feed rate z  = F254   )
(Settings from pcb-defaults.h)
(isolate min = 0.0150)
(isolate max = 0.5080)
(isolate step = 0.1000)
(Generated top outlines, top drill, )
(Unit of measure: mm)
(Metric Mode)
G21
(Absolute Coordinates)
G90
G00 X0.0000  Y0.0000  
M03
G04 P1.000000
G00 Z2.5400  
G00 X93.2093 Y9.6156  
G01 Z-0.0350 F254   
G01 X93.0407 Y9.6424  F508   
G01 X92.8784 Y9.6951  
G01 X92.7263 Y9.7726  
G01 X92.5882 Y9.8729  
G01 X92.4676 Y9.9936  
G01 X92.3672 Y10.1317 
G01 X92.2897 Y10.2838 
G01 X92.2370 Y10.4461 
G01 X92.2312 Y10.4826 
G01 X92.3587 Y10.4826 
G01 X92.3712 Y10.4199 
G01 X92.4436 Y10.2451 
G01 X92.5487 Y10.0878 
G01 X92.6825 Y9.9540  
G01 X92.8398 Y9.8490  
G01 X93.0145 Y9.7766  
G01 X93.2001 Y9.7397  
G01 X93.9726 Y9.7397  
G01 X93.9726 Y9.6156  
G01 X93.2093 Y9.6156  
G00 Z2.5400  
G00 X95.1707 Y11.7843 
G01 Z-0.0350 F254   
G01 X95.3393 Y11.7576 F508   
G01 X95.5016 Y11.7049 
G01 X95.6537 Y11.6274 
G01 X95.7918 Y11.5271 
G01 X95.9124 Y11.4064 
G01 X96.0128 Y11.2683 
G01 X96.0903 Y11.1162 
G01 X96.1430 Y10.9539 
G01 X96.1488 Y10.9174 
G01 X96.0213 Y10.9174 
G01 X96.0088 Y10.9801 
G01 X95.9364 Y11.1549 
G01 X95.8313 Y11.3122 
G01 X95.6975 Y11.4459 
G01 X95.5402 Y11.5510 
G01 X95.3655 Y11.6234 
G01 X95.1799 Y11.6603 
G01 X94.4074 Y11.6603 
G01 X94.4074 Y11.7843 
G01 X95.1707 Y11.7843 
G00 Z2.5400  
G00 X92.3672 Y11.2683 
G01 Z-0.0350 F254   
G01 X92.4676 Y11.4064 F508   
G01 X92.5882 Y11.5271 
G01 X92.7263 Y11.6274 
G01 X92.8784 Y11.7049 
G01 X93.0407 Y11.7576 
G01 X93.2093 Y11.7843 
G01 X93.9726 Y11.7843 
G01 X93.9726 Y11.6603 
G01 X93.2001 Y11.6603 
G01 X93.0145 Y11.6234 
G01 X92.8398 Y11.5510 
G01 X92.6825 Y11.4459 
G01 X92.5487 Y11.3122 
G01 X92.4436 Y11.1549 
G01 X92.3712 Y10.9801 
G01 X92.3587 Y10.9174 
G01 X92.2312 Y10.9174 
G01 X92.2370 Y10.9539 
G01 X92.2897 Y11.1162 
G01 X92.3672 Y11.2683 
G00 Z2.5400  
G00 X96.1430 Y10.4461 
G01 Z-0.0350 F254   
G01 X96.0903 Y10.2838 F508   
G01 X96.0128 Y10.1317 
G01 X95.9124 Y9.9936  
G01 X95.7918 Y9.8729  
G01 X95.6537 Y9.7726  
G01 X95.5016 Y9.6951  
G01 X95.3393 Y9.6424  
G01 X95.1707 Y9.6156  
G01 X94.4074 Y9.6156  
G01 X94.4074 Y9.7397  
G01 X95.1799 Y9.7397  
G01 X95.3655 Y9.7766  
G01 X95.5402 Y9.8490  
G01 X95.6975 Y9.9540  
G01 X95.8313 Y10.0878 
G01 X95.9364 Y10.2451 
G01 X96.0088 Y10.4199 
G01 X96.0213 Y10.4826 
G01 X96.1488 Y10.4826 
G01 X96.1430 Y10.4461 
G00 Z2.5400  
G00 X93.2093 Y23.0576 
G01 Z-0.0350 F254   
G01 X93.0407 Y23.0844 F508   
G01 X92.8784 Y23.1371 
G01 X92.7263 Y23.2146 
G01 X92.5882 Y23.3149 
G01 X92.4676 Y23.4356 
G01 X92.3672 Y23.5737 
G01 X92.2897 Y23.7258 
G01 X92.2370 Y23.8881 
G01 X92.2312 Y23.9246 
G01 X92.3587 Y23.9246 
G01 X92.3712 Y23.8619 
G01 X92.4436 Y23.6871 
G01 X92.5487 Y23.5298 
G01 X92.6825 Y23.3960 
G01 X92.8398 Y23.2910 
G01 X93.0145 Y23.2186 
G01 X93.2001 Y23.1817 
G01 X93.9726 Y23.1817 
G01 X93.9726 Y23.0576 
G01 X93.2093 Y23.0576 
G00 Z2.5400  
G00 X95.1707 Y25.2263 
G01 Z-0.0350 F254   
G01 X95.3393 Y25.1996 F508   
G01 X95.5016 Y25.1469 
G01 X95.6537 Y25.0694 
G01 X95.7918 Y24.9691 
G01 X95.9124 Y24.8484 
G01 X96.0128 Y24.7103 
G01 X96.0903 Y24.5582 
G01 X96.1430 Y24.3959 
G01 X96.1488 Y24.3594 
G01 X96.0213 Y24.3594 
G01 X96.0088 Y24.4221 
G01 X95.9364 Y24.5969 
G01 X95.8313 Y24.7542 
G01 X95.6975 Y24.8880 
G01 X95.5402 Y24.9930 
G01 X95.3655 Y25.0654 
G01 X95.1799 Y25.1023 
G01 X94.4074 Y25.1023 
G01 X94.4074 Y25.2263 
G01 X95.1707 Y25.2263 
G00 Z2.5400  
G00 X92.3672 Y24.7103 
G01 Z-0.0350 F254   
G01 X92.4676 Y24.8484 F508   
G01 X92.5882 Y24.9691 
G01 X92.7263 Y25.0694 
G01 X92.8784 Y25.1469 
G01 X93.0407 Y25.1996 
G01 X93.2093 Y25.2263 
G01 X93.9726 Y25.2263 
G01 X93.9726 Y25.1023 
G01 X93.2001 Y25.1023 
G01 X93.0145 Y25.0654 
G01 X92.8398 Y24.9930 
G01 X92.6825 Y24.8880 
G01 X92.5487 Y24.7542 
G01 X92.4436 Y24.5969 
G01 X92.3712 Y24.4221 
G01 X92.3587 Y24.3594 
G01 X92.2312 Y24.3594 
G01 X92.2370 Y24.3959 
G01 X92.2897 Y24.5582 
G01 X92.3672 Y24.7103 
G00 Z2.5400  
G00 X96.1430 Y23.8881 
G01 Z-0.0350 F254   
G01 X96.0903 Y23.7258 F508   
G01 X96.0128 Y23.5737 
G01 X95.9124 Y23.4356 
G01 X95.7918 Y23.3149 
G01 X95.6537 Y23.2146 
G01 X95.5016 Y23.1371 
G01 X95.3393 Y23.0844 
G01 X95.1707 Y23.0576 
G01 X94.4074 Y23.0576 
G01 X94.4074 Y23.1817 
G01 X95.1799 Y23.1817 
G01 X95.3655 Y23.2186 
G01 X95.5402 Y23.2910 
G01 X95.6975 Y23.3960 
G01 X95.8313 Y23.5298 
G01 X95.9364 Y23.6871 
G01 X96.0088 Y23.8619 
G01 X96.0213 Y23.9246 
G01 X96.1488 Y23.9246 
G01 X96.1430 Y23.8881 
G00 Z2.5400  
G00 X76.6843 Y49.9093 
G01 Z-0.0350 F254   
G01 X76.6576 Y49.7407 F508   
G01 X76.6049 Y49.5784 
G01 X76.5274 Y49.4263 
G01 X76.4271 Y49.2882 
G01 X76.3064 Y49.1676 
G01 X76.1683 Y49.0672 
G01 X76.0162 Y48.9897 
G01 X75.8539 Y48.9370 
G01 X75.8174 Y48.9312 
G01 X75.8174 Y49.0587 
G01 X75.8801 Y49.0712 
G01 X76.0549 Y49.1436 
G01 X76.2122 Y49.2487 
G01 X76.3460 Y49.3825 
G01 X76.4510 Y49.5398 
G01 X76.5234 Y49.7145 
G01 X76.5603 Y49.9001 
G01 X76.5603 Y50.6726 
G01 X76.6843 Y50.6726 
G01 X76.6843 Y49.9093 
G00 Z2.5400  
G00 X74.5156 Y51.8707 
G01 Z-0.0350 F254   
G01 X74.5423 Y52.0393 F508   
G01 X74.5951 Y52.2016 
G01 X74.6726 Y52.3537 
G01 X74.7729 Y52.4918 
G01 X74.8936 Y52.6124 
G01 X75.0317 Y52.7128 
G01 X75.1838 Y52.7903 
G01 X75.3461 Y52.8430 
G01 X75.3826 Y52.8488 
G01 X75.3826 Y52.7213 
G01 X75.3199 Y52.7088 
G01 X75.1451 Y52.6364 
G01 X74.9878 Y52.5313 
G01 X74.8540 Y52.3975 
G01 X74.7490 Y52.2402 
G01 X74.6766 Y52.0655 
G01 X74.6397 Y51.8799 
G01 X74.6397 Y51.1074 
G01 X74.5156 Y51.1074 
G01 X74.5156 Y51.8707 
G00 Z2.5400  
G00 X75.0317 Y49.0672 
G01 Z-0.0350 F254   
G01 X74.8936 Y49.1676 F508   
G01 X74.7729 Y49.2882 
G01 X74.6726 Y49.4263 
G01 X74.5951 Y49.5784 
G01 X74.5423 Y49.7407 
G01 X74.5156 Y49.9093 
G01 X74.5156 Y50.6726 
G01 X74.6397 Y50.6726 
G01 X74.6397 Y49.9001 
G01 X74.6766 Y49.7145 
G01 X74.7490 Y49.5398 
G01 X74.8540 Y49.3825 
G01 X74.9878 Y49.2487 
G01 X75.1451 Y49.1436 
G01 X75.3199 Y49.0712 
G01 X75.3826 Y49.0587 
G01 X75.3826 Y48.9312 
G01 X75.3461 Y48.9370 
G01 X75.1838 Y48.9897 
G01 X75.0317 Y49.0672 
G00 Z2.5400  
G00 X75.8539 Y52.8430 
G01 Z-0.0350 F254   
G01 X76.0162 Y52.7903 F508   
G01 X76.1683 Y52.7128 
G01 X76.3064 Y52.6124 
G01 X76.4271 Y52.4918 
G01 X76.5274 Y52.3537 
G01 X76.6049 Y52.2016 
G01 X76.6576 Y52.0393 
G01 X76.6843 Y51.8707 
G01 X76.6843 Y51.1074 
G01 X76.5603 Y51.1074 
G01 X76.5603 Y51.8799 
G01 X76.5234 Y52.0655 
G01 X76.4510 Y52.2402 
G01 X76.3460 Y52.3975 
G01 X76.2122 Y52.5313 
G01 X76.0549 Y52.6364 
G01 X75.8801 Y52.7088 
G01 X75.8174 Y52.7213 
G01 X75.8174 Y52.8488 
G01 X75.8539 Y52.8430 
G00 Z2.5400  
G00 X22.4220 Y34.3253 
G01 Z-0.0350 F254   
G01 X22.1923 Y34.5550 F508   
G01 X22.1923 Y36.6830 
G01 X22.4220 Y36.9127 
G01 X24.3470 Y36.9127 
G01 X24.5767 Y36.6830 
G01 X24.5767 Y36.3023 
G01 X24.5982 Y36.2504 
G01 X24.6379 Y36.2107 
G01 X24.6898 Y36.1892 
G01 X24.9712 Y36.1892 
G01 X25.0231 Y36.2107 
G01 X25.0628 Y36.2504 
G01 X25.0843 Y36.3023 
G01 X25.0843 Y36.6530 
G01 X25.3140 Y36.8827 
G01 X27.2390 Y36.8827 
G01 X27.4687 Y36.6530 
G01 X27.4687 Y34.5280 
G01 X27.2390 Y34.2983 
G01 X25.3140 Y34.2983 
G01 X25.0843 Y34.5280 
G01 X25.0843 Y34.9357 
G01 X25.0628 Y34.9876 
G01 X25.0231 Y35.0273 
G01 X24.9712 Y35.0488 
G01 X24.6898 Y35.0488 
G01 X24.6379 Y35.0273 
G01 X24.5982 Y34.9876 
G01 X24.5767 Y34.9357 
G01 X24.5767 Y34.5550 
G01 X24.3470 Y34.3253 
G01 X22.4220 Y34.3253 
G00 Z2.5400  
G00 X24.2495 Y34.7046 
G01 Z-0.0350 F254   
G01 X24.2495 Y35.3760 F508   
G01 X25.4115 Y35.3760 
G01 X25.4115 Y34.6776 
G01 X25.4214 Y34.6537 
G01 X25.4397 Y34.6354 
G01 X25.4636 Y34.6255 
G01 X27.0894 Y34.6255 
G01 X27.1133 Y34.6354 
G01 X27.1316 Y34.6537 
G01 X27.1415 Y34.6776 
G01 X27.1415 Y36.5034 
G01 X27.1316 Y36.5273 
G01 X27.1133 Y36.5456 
G01 X27.0894 Y36.5555 
G01 X25.4636 Y36.5555 
G01 X25.4397 Y36.5456 
G01 X25.4214 Y36.5273 
G01 X25.4115 Y36.5034 
G01 X25.4115 Y35.8620 
G01 X24.2495 Y35.8620 
G01 X24.2495 Y36.5334 
G01 X24.2396 Y36.5573 
G01 X24.2213 Y36.5756 
G01 X24.1974 Y36.5855 
G01 X22.5716 Y36.5855 
G01 X22.5477 Y36.5756 
G01 X22.5294 Y36.5573 
G01 X22.5195 Y36.5334 
G01 X22.5195 Y34.7046 
G01 X22.5294 Y34.6807 
G01 X22.5477 Y34.6624 
G01 X22.5716 Y34.6525 
G01 X24.1974 Y34.6525 
G01 X24.2213 Y34.6624 
G01 X24.2396 Y34.6807 
G01 X24.2495 Y34.7046 
G00 Z2.5400  
G00 X82.0328 Y36.9217 
G01 Z-0.0350 F254   
G01 X82.5632 Y36.9217 F508   
G01 X82.7253 Y36.7596 
G01 X82.7253 Y36.3913 
G01 X82.5632 Y36.2292 
G01 X82.0328 Y36.2292 
G01 X82.0328 Y36.9217 
G00 Z2.5400  
G00 X80.6056 Y36.5222 
G01 Z-0.0350 F254   
G01 X80.9518 Y36.8685 F508   
G01 X81.2981 Y36.5222 
G01 X81.2981 Y36.4666 
G01 X80.6056 Y36.4666 
G01 X80.6056 Y36.5222 
G00 Z2.5400  
G00 X76.4218 Y38.0795 
G01 Z-0.0350 F254   
G01 X75.8914 Y38.0795 F508   
G01 X75.7825 Y38.1884 
G01 X75.8914 Y38.2972 
G01 X76.4218 Y38.2972 
G01 X76.4218 Y38.0795 
G00 Z2.5400  
G00 X81.6549 Y38.0795 
G01 Z-0.0350 F254   
G01 X81.1245 Y38.0795 F508   
G01 X81.0156 Y38.1884 
G01 X81.1245 Y38.2972 
G01 X81.6549 Y38.2972 
G01 X81.6549 Y38.0795 
G00 Z2.5400  
G00 X76.3239 Y36.5222 
G01 Z-0.0350 F254   
G01 X76.6702 Y36.8685 F508   
G01 X77.0164 Y36.5222 
G01 X77.0164 Y36.4666 
G01 X76.3239 Y36.4666 
G01 X76.3239 Y36.5222 
G00 Z2.5400  
G00 X78.4436 Y36.0475 
G01 Z-0.0350 F254   
G01 X78.4436 Y35.9166 F508   
G01 X78.2816 Y35.7545 
G01 X77.7512 Y35.7545 
G01 X77.7512 Y36.2096 
G01 X78.2816 Y36.2096 
G01 X78.4436 Y36.0475 
G00 Z2.5400  
G00 X77.7512 Y36.9217 
G01 Z-0.0350 F254   
G01 X78.2816 Y36.9217 F508   
G01 X78.4436 Y36.7596 
G01 X78.4436 Y36.6287 
G01 X78.2815 Y36.4666 
G01 X77.7512 Y36.4666 
G01 X77.7512 Y36.9217 
G00 Z2.5400  
G00 X73.7179 Y38.6886 
G01 Z-0.0350 F254   
G01 X73.7178 Y38.6886 F508   
G01 X73.7178 Y38.8519 
G01 X73.8940 Y39.0280 
G01 X73.9295 Y39.0635 
G01 X73.9337 Y39.0677 
G01 X74.2222 Y39.3562 
G01 X74.4415 Y39.3562 
G01 X74.6301 Y39.3562 
G01 X75.3118 Y39.3562 
G01 X75.3609 Y39.3071 
G01 X75.3983 Y39.2697 
G01 X75.4304 Y39.2550 
G01 X75.4525 Y39.2459 
G01 X75.5087 Y39.2459 
G01 X75.5296 Y39.2545 
G01 X75.5606 Y39.2674 
G01 X75.6003 Y39.3071 
G01 X75.6494 Y39.3562 
G01 X76.5016 Y39.3562 
G01 X76.5904 Y39.2674 
G01 X76.6423 Y39.2459 
G01 X76.6985 Y39.2459 
G01 X76.7504 Y39.2674 
G01 X76.7901 Y39.3071 
G01 X76.8607 Y39.3777 
G01 X77.0766 Y39.5935 
G01 X77.4541 Y39.5935 
G01 X77.6303 Y39.4174 
G01 X77.7401 Y39.3076 
G01 X77.7775 Y39.2702 
G01 X77.8096 Y39.2555 
G01 X77.8317 Y39.2464 
G01 X77.8879 Y39.2464 
G01 X77.9088 Y39.2550 
G01 X77.9398 Y39.2679 
G01 X77.9795 Y39.3076 
G01 X78.0281 Y39.3562 
G01 X78.2475 Y39.3562 
G01 X78.4360 Y39.3562 
G01 X78.8379 Y39.3562 
G01 X78.8898 Y39.3777 
G01 X78.9295 Y39.4174 
G01 X78.9510 Y39.4693 
G01 X78.9510 Y39.5640 
G01 X79.2179 Y39.8309 
G01 X79.5954 Y39.8309 
G01 X79.8624 Y39.5640 
G01 X79.8624 Y39.4693 
G01 X79.8839 Y39.4174 
G01 X79.9236 Y39.3777 
G01 X79.9755 Y39.3562 
G01 X80.3076 Y39.3562 
G01 X80.4753 Y39.1884 
G01 X80.5109 Y39.1528 
G01 X80.5151 Y39.1487 
G01 X80.5669 Y39.1272 
G01 X80.6231 Y39.1272 
G01 X80.6750 Y39.1487 
G01 X80.7147 Y39.1884 
G01 X80.8825 Y39.3562 
G01 X81.6923 Y39.3562 
G01 X81.7442 Y39.3777 
G01 X81.7839 Y39.4174 
G01 X81.8054 Y39.4693 
G01 X81.8054 Y39.5640 
G01 X82.0724 Y39.8309 
G01 X82.4499 Y39.8309 
G01 X82.7168 Y39.5640 
G01 X82.7168 Y39.5462 
G01 X82.7141 Y39.5324 
G01 X82.7168 Y39.5184 
G01 X82.7168 Y39.5041 
G01 X82.7222 Y39.4911 
G01 X82.7250 Y39.4773 
G01 X82.7329 Y39.4654 
G01 X82.7383 Y39.4522 
G01 X82.7483 Y39.4423 
G01 X82.7561 Y39.4305 
G01 X82.7680 Y39.4226 
G01 X82.7780 Y39.4125 
G01 X82.7911 Y39.4071 
G01 X82.8028 Y39.3993 
G01 X82.8168 Y39.3965 
G01 X82.8299 Y39.3910 
G01 X82.8440 Y39.3910 
G01 X83.0497 Y39.3499 
G01 X83.0629 Y39.3445 
G01 X83.0770 Y39.3445 
G01 X83.0908 Y39.3417 
G01 X83.1048 Y39.3445 
G01 X83.1190 Y39.3445 
G01 X83.1321 Y39.3499 
G01 X83.1459 Y39.3526 
G01 X83.1578 Y39.3605 
G01 X83.1709 Y39.3660 
G01 X83.1809 Y39.3759 
G01 X83.1926 Y39.3837 
G01 X83.2006 Y39.3956 
G01 X83.2106 Y39.4057 
G01 X83.2160 Y39.4187 
G01 X83.2239 Y39.4304 
G01 X83.2267 Y39.4444 
G01 X83.2321 Y39.4576 
G01 X83.2321 Y39.4717 
G01 X83.2349 Y39.4855 
G01 X83.2321 Y39.4995 
G01 X83.2321 Y39.8013 
G01 X83.4991 Y40.0683 
G01 X83.8766 Y40.0683 
G01 X84.1435 Y39.8013 
G01 X84.1435 Y39.5993 
G01 X84.1650 Y39.5474 
G01 X84.2048 Y39.5077 
G01 X84.2560 Y39.4865 
G01 X84.3128 Y39.4862 
G01 X84.3647 Y39.5077 
G01 X84.4506 Y39.5935 
G01 X84.8281 Y39.5935 
G01 X85.0440 Y39.3777 
G01 X85.3324 Y39.0892 
G01 X85.3324 Y38.7117 
G01 X85.1661 Y38.5454 
G01 X85.1305 Y38.5098 
G01 X85.1264 Y38.5057 
G01 X85.1049 Y38.4538 
G01 X85.1049 Y38.3976 
G01 X85.1258 Y38.3472 
G01 X85.1661 Y38.3060 
G01 X85.3324 Y38.1398 
G01 X85.3324 Y37.7622 
G01 X85.0654 Y37.4953 
G01 X84.7932 Y37.4953 
G01 X84.7413 Y37.4738 
G01 X84.7022 Y37.4347 
G01 X84.6892 Y37.4043 
G01 X84.6801 Y37.3822 
G01 X84.6801 Y37.3260 
G01 X84.7016 Y37.2741 
G01 X84.7367 Y37.2390 
G01 X84.7367 Y35.4372 
G01 X84.4698 Y35.1703 
G01 X84.0923 Y35.1703 
G01 X83.9260 Y35.3366 
G01 X83.8904 Y35.3722 
G01 X83.8863 Y35.3763 
G01 X83.8344 Y35.3978 
G01 X83.7782 Y35.3978 
G01 X83.7278 Y35.3769 
G01 X83.6866 Y35.3366 
G01 X83.5203 Y35.1703 
G01 X82.6650 Y35.1703 
G01 X82.4590 Y35.3763 
G01 X82.4071 Y35.3978 
G01 X82.3510 Y35.3978 
G01 X82.3006 Y35.3769 
G01 X82.2594 Y35.3366 
G01 X82.0931 Y35.1703 
G01 X81.2378 Y35.1703 
G01 X81.0715 Y35.3366 
G01 X81.0359 Y35.3722 
G01 X81.0318 Y35.3763 
G01 X80.9799 Y35.3978 
G01 X80.9238 Y35.3978 
G01 X80.8733 Y35.3769 
G01 X80.8321 Y35.3366 
G01 X80.6659 Y35.1703 
G01 X80.2883 Y35.1703 
G01 X80.0214 Y35.4372 
G01 X80.0214 Y35.8776 
G01 X79.9999 Y35.9295 
G01 X79.9602 Y35.9693 
G01 X79.9089 Y35.9905 
G01 X79.8521 Y35.9907 
G01 X79.8002 Y35.9692 
G01 X79.7134 Y35.8824 
G01 X79.6187 Y35.8824 
G01 X79.5668 Y35.8609 
G01 X79.5271 Y35.8212 
G01 X79.5056 Y35.7693 
G01 X79.5056 Y35.4372 
G01 X79.2386 Y35.1703 
G01 X78.8611 Y35.1703 
G01 X78.8120 Y35.2194 
G01 X78.7723 Y35.2591 
G01 X78.7210 Y35.2804 
G01 X78.6642 Y35.2806 
G01 X78.6123 Y35.2591 
G01 X78.5235 Y35.1703 
G01 X78.3654 Y35.1703 
G01 X76.9562 Y35.1703 
G01 X76.7899 Y35.3366 
G01 X76.7543 Y35.3722 
G01 X76.7502 Y35.3763 
G01 X76.6983 Y35.3978 
G01 X76.6421 Y35.3978 
G01 X76.5917 Y35.3769 
G01 X76.5505 Y35.3366 
G01 X76.3842 Y35.1703 
G01 X76.0067 Y35.1703 
G01 X75.7397 Y35.4372 
G01 X75.7397 Y35.8776 
G01 X75.7182 Y35.9295 
G01 X75.6785 Y35.9693 
G01 X75.6272 Y35.9905 
G01 X75.5705 Y35.9907 
G01 X75.5186 Y35.9692 
G01 X75.4317 Y35.8824 
G01 X75.3370 Y35.8824 
G01 X75.2851 Y35.8609 
G01 X75.2454 Y35.8212 
G01 X75.2239 Y35.7693 
G01 X75.2239 Y35.4372 
G01 X74.9570 Y35.1703 
G01 X74.5795 Y35.1703 
G01 X74.3125 Y35.4372 
G01 X74.3125 Y37.2390 
G01 X74.3477 Y37.2741 
G01 X74.3692 Y37.3260 
G01 X74.3692 Y37.3822 
G01 X74.3605 Y37.4031 
G01 X74.3477 Y37.4341 
G01 X74.3080 Y37.4738 
G01 X74.2561 Y37.4953 
G01 X73.9848 Y37.4953 
G01 X73.7179 Y37.7622 
G01 X73.7179 Y38.1398 
G01 X73.7654 Y38.1873 
G01 X73.8029 Y38.2248 
G01 X73.8267 Y38.2790 
G01 X73.8267 Y38.3351 
G01 X73.8052 Y38.3870 
G01 X73.7179 Y38.4743 
G01 X73.7179 Y38.6886 
G00 Z2.5400  
G00 X78.6449 Y35.7544 
G01 Z-0.0350 F254   
G01 X78.6449 Y35.7544 F508   
G01 X78.6769 Y35.7864 
G01 X78.6811 Y35.7906 
G01 X78.7006 Y35.8378 
G01 X78.7006 Y36.1263 
G01 X78.6811 Y36.1735 
G01 X78.6449 Y36.2097 
G01 X78.5165 Y36.3381 
G01 X78.6811 Y36.5027 
G01 X78.7006 Y36.5499 
G01 X78.7006 Y36.8384 
G01 X78.6811 Y36.8856 
G01 X78.6449 Y36.9218 
G01 X78.4076 Y37.1592 
G01 X78.3603 Y37.1787 
G01 X77.5971 Y37.1787 
G01 X77.5499 Y37.1592 
G01 X77.5137 Y37.1230 
G01 X77.4942 Y37.0758 
G01 X77.4942 Y35.6004 
G01 X77.5137 Y35.5532 
G01 X77.5499 Y35.5171 
G01 X77.5971 Y35.4975 
G01 X78.3603 Y35.4975 
G01 X78.4076 Y35.5171 
G01 X78.4118 Y35.5213 
G01 X78.6449 Y35.7544 
G00 Z2.5400  
G00 X76.0670 Y35.6004 
G01 Z-0.0350 F254   
G01 X76.0865 Y35.5532 F508   
G01 X76.1227 Y35.5171 
G01 X76.1699 Y35.4975 
G01 X76.2210 Y35.4975 
G01 X76.2682 Y35.5171 
G01 X76.3044 Y35.5532 
G01 X76.3239 Y35.6004 
G01 X76.3239 Y36.2096 
G01 X77.0164 Y36.2096 
G01 X77.0164 Y35.6004 
G01 X77.0360 Y35.5532 
G01 X77.0721 Y35.5171 
G01 X77.1194 Y35.4975 
G01 X77.1705 Y35.4975 
G01 X77.2177 Y35.5171 
G01 X77.2539 Y35.5532 
G01 X77.2734 Y35.6004 
G01 X77.2734 Y36.6010 
G01 X77.2539 Y36.6483 
G01 X77.2177 Y36.6844 
G01 X76.7430 Y37.1592 
G01 X76.6957 Y37.1787 
G01 X76.6446 Y37.1787 
G01 X76.5974 Y37.1592 
G01 X76.5613 Y37.1230 
G01 X76.0865 Y36.6483 
G01 X76.0670 Y36.6010 
G01 X76.0670 Y36.3125 
G01 X76.0670 Y35.6004 
G00 Z2.5400  
G00 X74.6397 Y35.6004 
G01 Z-0.0350 F254   
G01 X74.6593 Y35.5532 F508   
G01 X74.6954 Y35.5171 
G01 X74.7427 Y35.4975 
G01 X74.7938 Y35.4975 
G01 X74.8410 Y35.5171 
G01 X74.8772 Y35.5532 
G01 X74.8967 Y35.6004 
G01 X74.8967 Y36.2096 
G01 X75.2685 Y36.2096 
G01 X75.3158 Y36.2292 
G01 X75.3519 Y36.2653 
G01 X75.3715 Y36.3125 
G01 X75.3715 Y36.3637 
G01 X75.3519 Y36.4109 
G01 X75.3158 Y36.4470 
G01 X75.2685 Y36.4666 
G01 X74.8967 Y36.4666 
G01 X74.8967 Y36.9217 
G01 X75.7433 Y36.9217 
G01 X75.7905 Y36.9413 
G01 X75.8266 Y36.9774 
G01 X75.8462 Y37.0247 
G01 X75.8462 Y37.0758 
G01 X75.8266 Y37.1230 
G01 X75.7905 Y37.1592 
G01 X75.7433 Y37.1787 
G01 X74.7427 Y37.1787 
G01 X74.6954 Y37.1592 
G01 X74.6593 Y37.1230 
G01 X74.6397 Y37.0758 
G01 X74.6397 Y36.3125 
G01 X74.6397 Y35.6004 
G00 Z2.5400  
G00 X84.7678 Y39.1634 
G01 Z-0.0350 F254   
G01 X84.7483 Y39.2106 F508   
G01 X84.7121 Y39.2468 
G01 X84.6649 Y39.2663 
G01 X84.6138 Y39.2663 
G01 X84.5665 Y39.2468 
G01 X84.5304 Y39.2106 
G01 X84.5108 Y39.1634 
G01 X84.5108 Y39.0290 
G01 X84.3764 Y39.0290 
G01 X84.3292 Y39.0094 
G01 X84.2930 Y38.9733 
G01 X84.2735 Y38.9260 
G01 X84.2735 Y38.8749 
G01 X84.2930 Y38.8277 
G01 X84.3292 Y38.7915 
G01 X84.3764 Y38.7720 
G01 X84.5108 Y38.7720 
G01 X84.5108 Y38.1628 
G01 X84.5304 Y38.1156 
G01 X84.8039 Y37.8421 
G01 X84.8511 Y37.8225 
G01 X84.9023 Y37.8225 
G01 X84.9495 Y37.8421 
G01 X84.9856 Y37.8782 
G01 X85.0052 Y37.9254 
G01 X85.0052 Y37.9766 
G01 X84.9856 Y38.0238 
G01 X84.7678 Y38.2416 
G01 X84.7678 Y38.7720 
G01 X84.9023 Y38.7720 
G01 X84.9495 Y38.7915 
G01 X84.9856 Y38.8277 
G01 X85.0052 Y38.8749 
G01 X85.0052 Y38.9260 
G01 X84.9856 Y38.9733 
G01 X84.9495 Y39.0094 
G01 X84.9023 Y39.0290 
G01 X84.7678 Y39.0290 
G01 X84.7678 Y39.1634 
G00 Z2.5400  
G00 X83.8163 Y39.3497 
G01 Z-0.0350 F254   
G01 X83.8163 Y39.6381 F508   
G01 X83.7968 Y39.6854 
G01 X83.7606 Y39.7215 
G01 X83.7134 Y39.7411 
G01 X83.6623 Y39.7411 
G01 X83.6151 Y39.7215 
G01 X83.5789 Y39.6854 
G01 X83.5593 Y39.6381 
G01 X83.5593 Y39.3497 
G01 X83.5789 Y39.3024 
G01 X83.6151 Y39.2663 
G01 X83.6623 Y39.2467 
G01 X83.7134 Y39.2467 
G01 X83.7606 Y39.2663 
G01 X83.7968 Y39.3024 
G01 X83.8163 Y39.3497 
G00 Z2.5400  
G00 X83.4249 Y39.0290 
G01 Z-0.0350 F254   
G01 X83.3777 Y39.0094 F508   
G01 X83.3415 Y38.9733 
G01 X83.3220 Y38.9260 
G01 X83.3220 Y38.8749 
G01 X83.3415 Y38.8277 
G01 X83.3777 Y38.7915 
G01 X83.4249 Y38.7720 
G01 X83.5593 Y38.7720 
G01 X83.5593 Y38.0795 
G01 X83.4249 Y38.0795 
G01 X83.3777 Y38.0599 
G01 X83.3415 Y38.0238 
G01 X83.3220 Y37.9766 
G01 X83.3220 Y37.9254 
G01 X83.3415 Y37.8782 
G01 X83.3777 Y37.8421 
G01 X83.4249 Y37.8225 
G01 X83.9508 Y37.8225 
G01 X83.9980 Y37.8421 
G01 X84.0341 Y37.8782 
G01 X84.0537 Y37.9254 
G01 X84.0537 Y37.9766 
G01 X84.0341 Y38.0238 
G01 X83.9980 Y38.0599 
G01 X83.9508 Y38.0795 
G01 X83.8163 Y38.0795 
G01 X83.8163 Y38.9260 
G01 X83.7968 Y38.9733 
G01 X83.7606 Y39.0094 
G01 X83.7134 Y39.0290 
G01 X83.6623 Y39.0290 
G01 X83.4249 Y39.0290 
G00 Z2.5400  
G00 X82.1326 Y39.4008 
G01 Z-0.0350 F254   
G01 X82.1326 Y38.4385 F508   
G01 X82.1301 Y38.4259 
G01 X82.1326 Y38.4130 
G01 X82.1326 Y37.9254 
G01 X82.1522 Y37.8782 
G01 X82.1883 Y37.8421 
G01 X82.2356 Y37.8225 
G01 X82.2867 Y37.8225 
G01 X82.3339 Y37.8421 
G01 X82.3701 Y37.8782 
G01 X82.3896 Y37.9254 
G01 X82.3896 Y38.1856 
G01 X82.9232 Y37.8299 
G01 X82.9734 Y37.8200 
G01 X83.0235 Y37.8300 
G01 X83.0660 Y37.8585 
G01 X83.0943 Y37.9010 
G01 X83.1043 Y37.9511 
G01 X83.0942 Y38.0013 
G01 X83.0658 Y38.0437 
G01 X82.4928 Y38.4257 
G01 X83.0658 Y38.8077 
G01 X83.0942 Y38.8502 
G01 X83.1043 Y38.9003 
G01 X83.0943 Y38.9505 
G01 X83.0660 Y38.9930 
G01 X83.0235 Y39.0215 
G01 X82.9734 Y39.0315 
G01 X82.9232 Y39.0216 
G01 X82.3896 Y38.6658 
G01 X82.3896 Y39.4008 
G01 X82.3701 Y39.4480 
G01 X82.3339 Y39.4841 
G01 X82.2867 Y39.5037 
G01 X82.2356 Y39.5037 
G01 X82.1883 Y39.4841 
G01 X82.1522 Y39.4480 
G01 X82.1326 Y39.4008 
G00 Z2.5400  
G00 X81.0457 Y39.0290 
G01 Z-0.0350 F254   
G01 X80.9985 Y39.0094 F508   
G01 X80.9623 Y38.9733 
G01 X80.9428 Y38.9260 
G01 X80.9428 Y38.8749 
G01 X80.9623 Y38.8277 
G01 X80.9985 Y38.7915 
G01 X81.0457 Y38.7720 
G01 X81.4928 Y38.7720 
G01 X81.6549 Y38.6099 
G01 X81.6549 Y38.5542 
G01 X81.0457 Y38.5542 
G01 X80.9985 Y38.5347 
G01 X80.9623 Y38.4985 
G01 X80.7250 Y38.2612 
G01 X80.7054 Y38.2139 
G01 X80.7054 Y38.1628 
G01 X80.7250 Y38.1156 
G01 X80.7611 Y38.0794 
G01 X80.9985 Y37.8421 
G01 X81.0457 Y37.8225 
G01 X81.8089 Y37.8225 
G01 X81.8562 Y37.8421 
G01 X81.8923 Y37.8782 
G01 X81.9119 Y37.9254 
G01 X81.9119 Y38.6887 
G01 X81.8923 Y38.7359 
G01 X81.8562 Y38.7720 
G01 X81.6188 Y39.0094 
G01 X81.5716 Y39.0290 
G01 X81.5205 Y39.0290 
G01 X81.0457 Y39.0290 
G00 Z2.5400  
G00 X79.5352 Y37.9254 
G01 Z-0.0350 F254   
G01 X79.5352 Y38.6099 F508   
G01 X79.6973 Y38.7720 
G01 X80.0656 Y38.7720 
G01 X80.2277 Y38.6099 
G01 X80.2277 Y37.9254 
G01 X80.2472 Y37.8782 
G01 X80.2834 Y37.8421 
G01 X80.3306 Y37.8225 
G01 X80.3817 Y37.8225 
G01 X80.4290 Y37.8421 
G01 X80.4651 Y37.8782 
G01 X80.4847 Y37.9254 
G01 X80.4847 Y38.6887 
G01 X80.4651 Y38.7359 
G01 X80.4290 Y38.7720 
G01 X80.1916 Y39.0094 
G01 X80.1444 Y39.0290 
G01 X79.6185 Y39.0290 
G01 X79.5713 Y39.0094 
G01 X79.5352 Y38.9733 
G01 X79.5352 Y39.4008 
G01 X79.5156 Y39.4480 
G01 X79.4795 Y39.4841 
G01 X79.4323 Y39.5037 
G01 X79.3811 Y39.5037 
G01 X79.3339 Y39.4841 
G01 X79.2978 Y39.4480 
G01 X79.2782 Y39.4008 
G01 X79.2782 Y37.9254 
G01 X79.2978 Y37.8782 
G01 X79.3339 Y37.8421 
G01 X79.3811 Y37.8225 
G01 X79.4323 Y37.8225 
G01 X79.4795 Y37.8421 
G01 X79.5156 Y37.8782 
G01 X79.5352 Y37.9254 
G00 Z2.5400  
G00 X77.9539 Y38.0795 
G01 Z-0.0350 F254   
G01 X77.9067 Y38.0599 F508   
G01 X77.8705 Y38.0238 
G01 X77.8510 Y37.9766 
G01 X77.8510 Y37.9254 
G01 X77.8705 Y37.8782 
G01 X77.9067 Y37.8421 
G01 X77.9539 Y37.8225 
G01 X78.7171 Y37.8225 
G01 X78.7644 Y37.8421 
G01 X79.0017 Y38.0794 
G01 X79.0379 Y38.1156 
G01 X79.0574 Y38.1628 
G01 X79.0574 Y38.2139 
G01 X79.0379 Y38.2612 
G01 X79.0337 Y38.2654 
G01 X79.0017 Y38.2973 
G01 X78.7686 Y38.5305 
G01 X78.7644 Y38.5347 
G01 X78.7171 Y38.5542 
G01 X78.2701 Y38.5542 
G01 X78.1612 Y38.6631 
G01 X78.2701 Y38.7720 
G01 X78.9545 Y38.7720 
G01 X79.0017 Y38.7915 
G01 X79.0379 Y38.8277 
G01 X79.0574 Y38.8749 
G01 X79.0574 Y38.9260 
G01 X79.0379 Y38.9733 
G01 X79.0017 Y39.0094 
G01 X78.9545 Y39.0290 
G01 X78.1913 Y39.0290 
G01 X78.1441 Y39.0094 
G01 X78.1079 Y38.9733 
G01 X77.8705 Y38.7359 
G01 X77.8510 Y38.6887 
G01 X77.8510 Y38.6375 
G01 X77.8705 Y38.5903 
G01 X77.9067 Y38.5542 
G01 X78.1441 Y38.3168 
G01 X78.1913 Y38.2972 
G01 X78.6384 Y38.2972 
G01 X78.7472 Y38.1884 
G01 X78.6384 Y38.0795 
G01 X77.9539 Y38.0795 
G00 Z2.5400  
G00 X77.3939 Y39.1634 
G01 Z-0.0350 F254   
G01 X77.3743 Y39.2106 F508   
G01 X77.3381 Y39.2468 
G01 X77.2909 Y39.2663 
G01 X77.2398 Y39.2663 
G01 X77.1926 Y39.2468 
G01 X77.1564 Y39.2106 
G01 X77.1369 Y39.1634 
G01 X77.1369 Y39.0290 
G01 X77.0024 Y39.0290 
G01 X76.9552 Y39.0094 
G01 X76.9191 Y38.9733 
G01 X76.8995 Y38.9260 
G01 X76.8995 Y38.8749 
G01 X76.9191 Y38.8277 
G01 X76.9552 Y38.7915 
G01 X77.0024 Y38.7720 
G01 X77.1369 Y38.7720 
G01 X77.1369 Y38.1628 
G01 X77.1564 Y38.1156 
G01 X77.4299 Y37.8421 
G01 X77.4772 Y37.8225 
G01 X77.5283 Y37.8225 
G01 X77.5755 Y37.8421 
G01 X77.6117 Y37.8782 
G01 X77.6312 Y37.9254 
G01 X77.6312 Y37.9766 
G01 X77.6117 Y38.0238 
G01 X77.3939 Y38.2416 
G01 X77.3939 Y38.7720 
G01 X77.5283 Y38.7720 
G01 X77.5755 Y38.7915 
G01 X77.6117 Y38.8277 
G01 X77.6312 Y38.8749 
G01 X77.6312 Y38.9260 
G01 X77.6117 Y38.9733 
G01 X77.5755 Y39.0094 
G01 X77.5283 Y39.0290 
G01 X77.3939 Y39.0290 
G01 X77.3939 Y39.1634 
G00 Z2.5400  
G00 X75.8126 Y39.0290 
G01 Z-0.0350 F254   
G01 X75.7654 Y39.0094 F508   
G01 X75.7292 Y38.9733 
G01 X75.7096 Y38.9260 
G01 X75.7096 Y38.8749 
G01 X75.7292 Y38.8277 
G01 X75.7654 Y38.7915 
G01 X75.8126 Y38.7720 
G01 X76.2597 Y38.7720 
G01 X76.4218 Y38.6099 
G01 X76.4218 Y38.5542 
G01 X75.8126 Y38.5542 
G01 X75.7654 Y38.5347 
G01 X75.7292 Y38.4985 
G01 X75.4918 Y38.2612 
G01 X75.4723 Y38.2139 
G01 X75.4723 Y38.1628 
G01 X75.4918 Y38.1156 
G01 X75.5280 Y38.0794 
G01 X75.7654 Y37.8421 
G01 X75.8126 Y37.8225 
G01 X76.5758 Y37.8225 
G01 X76.6230 Y37.8421 
G01 X76.6592 Y37.8782 
G01 X76.6788 Y37.9254 
G01 X76.6788 Y38.6887 
G01 X76.6592 Y38.7359 
G01 X76.6230 Y38.7720 
G01 X76.3857 Y39.0094 
G01 X76.3384 Y39.0290 
G01 X76.2873 Y39.0290 
G01 X75.8126 Y39.0290 
G00 Z2.5400  
G00 X74.1480 Y38.0795 
G01 Z-0.0350 F254   
G01 X74.1008 Y38.0599 F508   
G01 X74.0646 Y38.0238 
G01 X74.0451 Y37.9766 
G01 X74.0451 Y37.9254 
G01 X74.0646 Y37.8782 
G01 X74.1008 Y37.8421 
G01 X74.1480 Y37.8225 
G01 X74.9112 Y37.8225 
G01 X74.9584 Y37.8421 
G01 X75.1958 Y38.0794 
G01 X75.2320 Y38.1156 
G01 X75.2515 Y38.1628 
G01 X75.2515 Y38.2139 
G01 X75.2320 Y38.2612 
G01 X75.2278 Y38.2654 
G01 X75.1958 Y38.2973 
G01 X74.9627 Y38.5305 
G01 X74.9584 Y38.5347 
G01 X74.9112 Y38.5542 
G01 X74.4642 Y38.5542 
G01 X74.3553 Y38.6631 
G01 X74.4642 Y38.7720 
G01 X75.1486 Y38.7720 
G01 X75.1958 Y38.7915 
G01 X75.2320 Y38.8277 
G01 X75.2515 Y38.8749 
G01 X75.2515 Y38.9260 
G01 X75.2320 Y38.9733 
G01 X75.1958 Y39.0094 
G01 X75.1486 Y39.0290 
G01 X74.3854 Y39.0290 
G01 X74.3381 Y39.0094 
G01 X74.3020 Y38.9733 
G01 X74.0646 Y38.7359 
G01 X74.0451 Y38.6887 
G01 X74.0451 Y38.6375 
G01 X74.0646 Y38.5903 
G01 X74.1008 Y38.5542 
G01 X74.3381 Y38.3168 
G01 X74.3854 Y38.2972 
G01 X74.8324 Y38.2972 
G01 X74.9413 Y38.1884 
G01 X74.8324 Y38.0795 
G01 X74.1480 Y38.0795 
G00 Z2.5400  
G00 X78.9214 Y35.6004 
G01 Z-0.0350 F254   
G01 X78.9410 Y35.5532 F508   
G01 X78.9771 Y35.5171 
G01 X79.0243 Y35.4975 
G01 X79.0754 Y35.4975 
G01 X79.1227 Y35.5171 
G01 X79.1588 Y35.5532 
G01 X79.1784 Y35.6004 
G01 X79.1784 Y36.2096 
G01 X79.5502 Y36.2096 
G01 X79.5974 Y36.2292 
G01 X79.6336 Y36.2653 
G01 X79.6531 Y36.3125 
G01 X79.6531 Y36.3637 
G01 X79.6336 Y36.4109 
G01 X79.5974 Y36.4470 
G01 X79.5502 Y36.4666 
G01 X79.1784 Y36.4666 
G01 X79.1784 Y36.9217 
G01 X80.0249 Y36.9217 
G01 X80.0722 Y36.9413 
G01 X80.1083 Y36.9774 
G01 X80.1279 Y37.0247 
G01 X80.1279 Y37.0758 
G01 X80.1083 Y37.1230 
G01 X80.0722 Y37.1592 
G01 X80.0249 Y37.1787 
G01 X79.0243 Y37.1787 
G01 X78.9771 Y37.1592 
G01 X78.9410 Y37.1230 
G01 X78.9214 Y37.0758 
G01 X78.9214 Y36.3125 
G01 X78.9214 Y35.6004 
G00 Z2.5400  
G00 X80.3486 Y35.6004 
G01 Z-0.0350 F254   
G01 X80.3682 Y35.5532 F508   
G01 X80.4043 Y35.5171 
G01 X80.4515 Y35.4975 
G01 X80.5027 Y35.4975 
G01 X80.5499 Y35.5171 
G01 X80.5860 Y35.5532 
G01 X80.6056 Y35.6004 
G01 X80.6056 Y36.2096 
G01 X81.2981 Y36.2096 
G01 X81.2981 Y35.6004 
G01 X81.3176 Y35.5532 
G01 X81.3538 Y35.5171 
G01 X81.4010 Y35.4975 
G01 X81.4521 Y35.4975 
G01 X81.4994 Y35.5171 
G01 X81.5355 Y35.5532 
G01 X81.5551 Y35.6004 
G01 X81.5551 Y36.6010 
G01 X81.5355 Y36.6483 
G01 X81.4994 Y36.6844 
G01 X81.0246 Y37.1592 
G01 X80.9774 Y37.1787 
G01 X80.9263 Y37.1787 
G01 X80.8791 Y37.1592 
G01 X80.8429 Y37.1230 
G01 X80.3682 Y36.6483 
G01 X80.3486 Y36.6010 
G01 X80.3486 Y36.3125 
G01 X80.3486 Y35.6004 
G00 Z2.5400  
G00 X81.7758 Y37.0758 
G01 Z-0.0350 F254   
G01 X81.7758 Y35.6004 F508   
G01 X81.7954 Y35.5532 
G01 X81.8315 Y35.5171 
G01 X81.8788 Y35.4975 
G01 X81.9299 Y35.4975 
G01 X81.9771 Y35.5171 
G01 X82.0133 Y35.5532 
G01 X82.0328 Y35.6004 
G01 X82.0328 Y35.9722 
G01 X82.3258 Y35.9722 
G01 X82.7810 Y35.5171 
G01 X82.8282 Y35.4975 
G01 X82.8794 Y35.4975 
G01 X82.9266 Y35.5171 
G01 X82.9627 Y35.5532 
G01 X82.9823 Y35.6004 
G01 X82.9823 Y35.6516 
G01 X82.9627 Y35.6988 
G01 X82.6754 Y35.9861 
G01 X82.6892 Y35.9918 
G01 X82.6934 Y35.9960 
G01 X82.9266 Y36.2292 
G01 X82.9585 Y36.2611 
G01 X82.9627 Y36.2653 
G01 X82.9823 Y36.3125 
G01 X82.9823 Y36.8384 
G01 X82.9627 Y36.8856 
G01 X82.9266 Y36.9218 
G01 X82.6892 Y37.1592 
G01 X82.6420 Y37.1787 
G01 X81.8788 Y37.1787 
G01 X81.8315 Y37.1592 
G01 X81.7954 Y37.1230 
G01 X81.7758 Y37.0758 
G00 Z2.5400  
G00 X83.2030 Y35.6004 
G01 Z-0.0350 F254   
G01 X83.2226 Y35.5532 F508   
G01 X83.2588 Y35.5171 
G01 X83.3060 Y35.4975 
G01 X83.3571 Y35.4975 
G01 X83.4043 Y35.5171 
G01 X83.4405 Y35.5532 
G01 X83.4600 Y35.6004 
G01 X83.4600 Y36.7400 
G01 X83.6973 Y36.5027 
G01 X83.7335 Y36.4665 
G01 X83.7807 Y36.4470 
G01 X83.8318 Y36.4470 
G01 X83.8791 Y36.4665 
G01 X84.1525 Y36.7400 
G01 X84.1525 Y35.6004 
G01 X84.1721 Y35.5532 
G01 X84.2082 Y35.5171 
G01 X84.2555 Y35.4975 
G01 X84.3066 Y35.4975 
G01 X84.3538 Y35.5171 
G01 X84.3900 Y35.5532 
G01 X84.4095 Y35.6004 
G01 X84.4095 Y37.0758 
G01 X84.3900 Y37.1230 
G01 X84.3538 Y37.1592 
G01 X84.3066 Y37.1787 
G01 X84.2555 Y37.1787 
G01 X84.2082 Y37.1592 
G01 X84.2004 Y37.1513 
G01 X83.8063 Y36.7572 
G01 X83.4043 Y37.1592 
G01 X83.3571 Y37.1787 
G01 X83.3060 Y37.1787 
G01 X83.2588 Y37.1592 
G01 X83.2226 Y37.1230 
G01 X83.2030 Y37.0758 
G01 X83.2030 Y37.0247 
G01 X83.2030 Y35.6004 
G00 Z2.5400  
G00 X93.2093 Y41.4996 
G01 Z-0.0350 F254   
G01 X93.0407 Y41.5264 F508   
G01 X92.8784 Y41.5791 
G01 X92.7263 Y41.6566 
G01 X92.5882 Y41.7569 
G01 X92.4676 Y41.8776 
G01 X92.3672 Y42.0157 
G01 X92.2897 Y42.1678 
G01 X92.2370 Y42.3301 
G01 X92.2312 Y42.3666 
G01 X92.3587 Y42.3666 
G01 X92.3712 Y42.3039 
G01 X92.4436 Y42.1291 
G01 X92.5487 Y41.9718 
G01 X92.6825 Y41.8380 
G01 X92.8398 Y41.7330 
G01 X93.0145 Y41.6606 
G01 X93.2001 Y41.6237 
G01 X93.9726 Y41.6237 
G01 X93.9726 Y41.4996 
G01 X93.2093 Y41.4996 
G00 Z2.5400  
G00 X95.1707 Y43.6683 
G01 Z-0.0350 F254   
G01 X95.3393 Y43.6416 F508   
G01 X95.5016 Y43.5889 
G01 X95.6537 Y43.5114 
G01 X95.7918 Y43.4111 
G01 X95.9124 Y43.2904 
G01 X96.0128 Y43.1523 
G01 X96.0903 Y43.0002 
G01 X96.1430 Y42.8379 
G01 X96.1488 Y42.8014 
G01 X96.0213 Y42.8014 
G01 X96.0088 Y42.8641 
G01 X95.9364 Y43.0389 
G01 X95.8313 Y43.1962 
G01 X95.6975 Y43.3300 
G01 X95.5402 Y43.4350 
G01 X95.3655 Y43.5074 
G01 X95.1799 Y43.5443 
G01 X94.4074 Y43.5443 
G01 X94.4074 Y43.6683 
G01 X95.1707 Y43.6683 
G00 Z2.5400  
G00 X92.3672 Y43.1523 
G01 Z-0.0350 F254   
G01 X92.4676 Y43.2904 F508   
G01 X92.5882 Y43.4111 
G01 X92.7263 Y43.5114 
G01 X92.8784 Y43.5889 
G01 X93.0407 Y43.6416 
G01 X93.2093 Y43.6683 
G01 X93.9726 Y43.6683 
G01 X93.9726 Y43.5443 
G01 X93.2001 Y43.5443 
G01 X93.0145 Y43.5074 
G01 X92.8398 Y43.4350 
G01 X92.6825 Y43.3300 
G01 X92.5487 Y43.1962 
G01 X92.4436 Y43.0389 
G01 X92.3712 Y42.8641 
G01 X92.3587 Y42.8014 
G01 X92.2312 Y42.8014 
G01 X92.2370 Y42.8379 
G01 X92.2897 Y43.0002 
G01 X92.3672 Y43.1523 
G00 Z2.5400  
G00 X96.1430 Y42.3301 
G01 Z-0.0350 F254   
G01 X96.0903 Y42.1678 F508   
G01 X96.0128 Y42.0157 
G01 X95.9124 Y41.8776 
G01 X95.7918 Y41.7569 
G01 X95.6537 Y41.6566 
G01 X95.5016 Y41.5791 
G01 X95.3393 Y41.5264 
G01 X95.1707 Y41.4996 
G01 X94.4074 Y41.4996 
G01 X94.4074 Y41.6237 
G01 X95.1799 Y41.6237 
G01 X95.3655 Y41.6606 
G01 X95.5402 Y41.7330 
G01 X95.6975 Y41.8380 
G01 X95.8313 Y41.9718 
G01 X95.9364 Y42.1291 
G01 X96.0088 Y42.3039 
G01 X96.0213 Y42.3666 
G01 X96.1488 Y42.3666 
G01 X96.1430 Y42.3301 
G00 Z2.5400  
G00 X93.2093 Y28.0576 
G01 Z-0.0350 F254   
G01 X93.0407 Y28.0844 F508   
G01 X92.8784 Y28.1371 
G01 X92.7263 Y28.2146 
G01 X92.5882 Y28.3149 
G01 X92.4676 Y28.4356 
G01 X92.3672 Y28.5737 
G01 X92.2897 Y28.7258 
G01 X92.2370 Y28.8881 
G01 X92.2312 Y28.9246 
G01 X92.3587 Y28.9246 
G01 X92.3712 Y28.8619 
G01 X92.4436 Y28.6871 
G01 X92.5487 Y28.5298 
G01 X92.6825 Y28.3960 
G01 X92.8398 Y28.2910 
G01 X93.0145 Y28.2186 
G01 X93.2001 Y28.1817 
G01 X93.9726 Y28.1817 
G01 X93.9726 Y28.0576 
G01 X93.2093 Y28.0576 
G00 Z2.5400  
G00 X95.1707 Y30.2263 
G01 Z-0.0350 F254   
G01 X95.3393 Y30.1996 F508   
G01 X95.5016 Y30.1469 
G01 X95.6537 Y30.0694 
G01 X95.7918 Y29.9691 
G01 X95.9124 Y29.8484 
G01 X96.0128 Y29.7103 
G01 X96.0903 Y29.5582 
G01 X96.1430 Y29.3959 
G01 X96.1488 Y29.3594 
G01 X96.0213 Y29.3594 
G01 X96.0088 Y29.4221 
G01 X95.9364 Y29.5969 
G01 X95.8313 Y29.7542 
G01 X95.6975 Y29.8880 
G01 X95.5402 Y29.9930 
G01 X95.3655 Y30.0654 
G01 X95.1799 Y30.1023 
G01 X94.4074 Y30.1023 
G01 X94.4074 Y30.2263 
G01 X95.1707 Y30.2263 
G00 Z2.5400  
G00 X92.3672 Y29.7103 
G01 Z-0.0350 F254   
G01 X92.4676 Y29.8484 F508   
G01 X92.5882 Y29.9691 
G01 X92.7263 Y30.0694 
G01 X92.8784 Y30.1469 
G01 X93.0407 Y30.1996 
G01 X93.2093 Y30.2263 
G01 X93.9726 Y30.2263 
G01 X93.9726 Y30.1023 
G01 X93.2001 Y30.1023 
G01 X93.0145 Y30.0654 
G01 X92.8398 Y29.9930 
G01 X92.6825 Y29.8880 
G01 X92.5487 Y29.7542 
G01 X92.4436 Y29.5969 
G01 X92.3712 Y29.4221 
G01 X92.3587 Y29.3594 
G01 X92.2312 Y29.3594 
G01 X92.2370 Y29.3959 
G01 X92.2897 Y29.5582 
G01 X92.3672 Y29.7103 
G00 Z2.5400  
G00 X96.1430 Y28.8881 
G01 Z-0.0350 F254   
G01 X96.0903 Y28.7258 F508   
G01 X96.0128 Y28.5737 
G01 X95.9124 Y28.4356 
G01 X95.7918 Y28.3149 
G01 X95.6537 Y28.2146 
G01 X95.5016 Y28.1371 
G01 X95.3393 Y28.0844 
G01 X95.1707 Y28.0576 
G01 X94.4074 Y28.0576 
G01 X94.4074 Y28.1817 
G01 X95.1799 Y28.1817 
G01 X95.3655 Y28.2186 
G01 X95.5402 Y28.2910 
G01 X95.6975 Y28.3960 
G01 X95.8313 Y28.5298 
G01 X95.9364 Y28.6871 
G01 X96.0088 Y28.8619 
G01 X96.0213 Y28.9246 
G01 X96.1488 Y28.9246 
G01 X96.1430 Y28.8881 
G00 Z2.5400  
G00 X93.2093 Y14.6156 
G01 Z-0.0350 F254   
G01 X93.0407 Y14.6424 F508   
G01 X92.8784 Y14.6951 
G01 X92.7263 Y14.7726 
G01 X92.5882 Y14.8729 
G01 X92.4676 Y14.9936 
G01 X92.3672 Y15.1317 
G01 X92.2897 Y15.2838 
G01 X92.2370 Y15.4461 
G01 X92.2312 Y15.4826 
G01 X92.3587 Y15.4826 
G01 X92.3712 Y15.4199 
G01 X92.4436 Y15.2451 
G01 X92.5487 Y15.0878 
G01 X92.6825 Y14.9540 
G01 X92.8398 Y14.8490 
G01 X93.0145 Y14.7766 
G01 X93.2001 Y14.7397 
G01 X93.9726 Y14.7397 
G01 X93.9726 Y14.6156 
G01 X93.2093 Y14.6156 
G00 Z2.5400  
G00 X95.1707 Y16.7843 
G01 Z-0.0350 F254   
G01 X95.3393 Y16.7576 F508   
G01 X95.5016 Y16.7049 
G01 X95.6537 Y16.6274 
G01 X95.7918 Y16.5271 
G01 X95.9124 Y16.4064 
G01 X96.0128 Y16.2683 
G01 X96.0903 Y16.1162 
G01 X96.1430 Y15.9539 
G01 X96.1488 Y15.9174 
G01 X96.0213 Y15.9174 
G01 X96.0088 Y15.9801 
G01 X95.9364 Y16.1549 
G01 X95.8313 Y16.3122 
G01 X95.6975 Y16.4459 
G01 X95.5402 Y16.5510 
G01 X95.3655 Y16.6234 
G01 X95.1799 Y16.6603 
G01 X94.4074 Y16.6603 
G01 X94.4074 Y16.7843 
G01 X95.1707 Y16.7843 
G00 Z2.5400  
G00 X92.3672 Y16.2683 
G01 Z-0.0350 F254   
G01 X92.4676 Y16.4064 F508   
G01 X92.5882 Y16.5271 
G01 X92.7263 Y16.6274 
G01 X92.8784 Y16.7049 
G01 X93.0407 Y16.7576 
G01 X93.2093 Y16.7843 
G01 X93.9726 Y16.7843 
G01 X93.9726 Y16.6603 
G01 X93.2001 Y16.6603 
G01 X93.0145 Y16.6234 
G01 X92.8398 Y16.5510 
G01 X92.6825 Y16.4459 
G01 X92.5487 Y16.3122 
G01 X92.4436 Y16.1549 
G01 X92.3712 Y15.9801 
G01 X92.3587 Y15.9174 
G01 X92.2312 Y15.9174 
G01 X92.2370 Y15.9539 
G01 X92.2897 Y16.1162 
G01 X92.3672 Y16.2683 
G00 Z2.5400  
G00 X96.1430 Y15.4461 
G01 Z-0.0350 F254   
G01 X96.0903 Y15.2838 F508   
G01 X96.0128 Y15.1317 
G01 X95.9124 Y14.9936 
G01 X95.7918 Y14.8729 
G01 X95.6537 Y14.7726 
G01 X95.5016 Y14.6951 
G01 X95.3393 Y14.6424 
G01 X95.1707 Y14.6156 
G01 X94.4074 Y14.6156 
G01 X94.4074 Y14.7397 
G01 X95.1799 Y14.7397 
G01 X95.3655 Y14.7766 
G01 X95.5402 Y14.8490 
G01 X95.6975 Y14.9540 
G01 X95.8313 Y15.0878 
G01 X95.9364 Y15.2451 
G01 X96.0088 Y15.4199 
G01 X96.0213 Y15.4826 
G01 X96.1488 Y15.4826 
G01 X96.1430 Y15.4461 
G00 Z2.5400  
G00 X18.4514 Y26.6494 
G01 Z-0.0350 F254   
G01 X18.4643 Y26.6975 F508   
G01 X18.4892 Y26.7406 
G01 X18.5243 Y26.7757 
G01 X18.5674 Y26.8006 
G01 X18.6155 Y26.8135 
G01 X18.9818 Y26.8135 
G01 X18.9818 Y26.6895 
G01 X18.6275 Y26.6895 
G01 X18.6036 Y26.6796 
G01 X18.5853 Y26.6613 
G01 X18.5754 Y26.6374 
G01 X18.5754 Y25.9402 
G01 X18.4514 Y25.9402 
G01 X18.4514 Y26.6494 
G00 Z2.5400  
G00 X19.8230 Y26.6374 
G01 Z-0.0350 F254   
G01 X19.8131 Y26.6613 F508   
G01 X19.7948 Y26.6796 
G01 X19.7709 Y26.6895 
G01 X19.4166 Y26.6895 
G01 X19.4166 Y26.8135 
G01 X19.7829 Y26.8135 
G01 X19.8310 Y26.8006 
G01 X19.8741 Y26.7757 
G01 X19.9092 Y26.7406 
G01 X19.9341 Y26.6975 
G01 X19.9470 Y26.6494 
G01 X19.9470 Y25.9402 
G01 X19.8230 Y25.9402 
G01 X19.8230 Y26.6374 
G00 Z2.5400  
G00 X19.8230 Y24.8082 
G01 Z-0.0350 F254   
G01 X19.8230 Y25.5054 F508   
G01 X19.9470 Y25.5054 
G01 X19.9470 Y24.7962 
G01 X19.9341 Y24.7481 
G01 X19.9092 Y24.7050 
G01 X19.8741 Y24.6699 
G01 X19.8310 Y24.6450 
G01 X19.7829 Y24.6321 
G01 X19.4166 Y24.6321 
G01 X19.4166 Y24.7561 
G01 X19.7709 Y24.7561 
G01 X19.7948 Y24.7660 
G01 X19.8131 Y24.7843 
G01 X19.8230 Y24.8082 
G00 Z2.5400  
G00 X18.6155 Y24.6321 
G01 Z-0.0350 F254   
G01 X18.5674 Y24.6450 F508   
G01 X18.5243 Y24.6699 
G01 X18.4892 Y24.7050 
G01 X18.4643 Y24.7481 
G01 X18.4514 Y24.7962 
G01 X18.4514 Y25.5054 
G01 X18.5754 Y25.5054 
G01 X18.5754 Y24.8082 
G01 X18.5853 Y24.7843 
G01 X18.6036 Y24.7660 
G01 X18.6275 Y24.7561 
G01 X18.9818 Y24.7561 
G01 X18.9818 Y24.6321 
G01 X18.6155 Y24.6321 
G00 Z2.5400  
G00 X18.4165 Y20.7225 
G01 Z-0.0350 F254   
G01 X18.4294 Y20.7706 F508   
G01 X18.4543 Y20.8137 
G01 X18.4894 Y20.8488 
G01 X18.5325 Y20.8737 
G01 X18.5806 Y20.8866 
G01 X18.9469 Y20.8866 
G01 X18.9469 Y20.7626 
G01 X18.5926 Y20.7626 
G01 X18.5687 Y20.7527 
G01 X18.5504 Y20.7344 
G01 X18.5405 Y20.7105 
G01 X18.5405 Y20.0133 
G01 X18.4165 Y20.0133 
G01 X18.4165 Y20.7225 
G00 Z2.5400  
G00 X19.7881 Y20.7105 
G01 Z-0.0350 F254   
G01 X19.7782 Y20.7344 F508   
G01 X19.7599 Y20.7527 
G01 X19.7360 Y20.7626 
G01 X19.3817 Y20.7626 
G01 X19.3817 Y20.8866 
G01 X19.7480 Y20.8866 
G01 X19.7961 Y20.8737 
G01 X19.8392 Y20.8488 
G01 X19.8743 Y20.8137 
G01 X19.8992 Y20.7706 
G01 X19.9121 Y20.7225 
G01 X19.9121 Y20.0133 
G01 X19.7881 Y20.0133 
G01 X19.7881 Y20.7105 
G00 Z2.5400  
G00 X19.7881 Y18.8813 
G01 Z-0.0350 F254   
G01 X19.7881 Y19.5785 F508   
G01 X19.9121 Y19.5785 
G01 X19.9121 Y18.8693 
G01 X19.8992 Y18.8212 
G01 X19.8743 Y18.7781 
G01 X19.8392 Y18.7430 
G01 X19.7961 Y18.7181 
G01 X19.7480 Y18.7052 
G01 X19.3817 Y18.7052 
G01 X19.3817 Y18.8292 
G01 X19.7360 Y18.8292 
G01 X19.7599 Y18.8391 
G01 X19.7782 Y18.8574 
G01 X19.7881 Y18.8813 
G00 Z2.5400  
G00 X18.5806 Y18.7052 
G01 Z-0.0350 F254   
G01 X18.5325 Y18.7181 F508   
G01 X18.4894 Y18.7430 
G01 X18.4543 Y18.7781 
G01 X18.4294 Y18.8212 
G01 X18.4165 Y18.8693 
G01 X18.4165 Y19.5785 
G01 X18.5405 Y19.5785 
G01 X18.5405 Y18.8813 
G01 X18.5504 Y18.8574 
G01 X18.5687 Y18.8391 
G01 X18.5926 Y18.8292 
G01 X18.9469 Y18.8292 
G01 X18.9469 Y18.7052 
G01 X18.5806 Y18.7052 
G00 Z2.5400  
G00 X52.8130 Y15.0456 
G01 Z-0.0350 F254   
G01 X52.8001 Y14.9975 F508   
G01 X52.7752 Y14.9544 
G01 X52.7401 Y14.9193 
G01 X52.6970 Y14.8944 
G01 X52.6489 Y14.8815 
G01 X52.0414 Y14.8815 
G01 X52.0414 Y15.0055 
G01 X52.6369 Y15.0055 
G01 X52.6608 Y15.0154 
G01 X52.6791 Y15.0337 
G01 X52.6890 Y15.0576 
G01 X52.6890 Y15.7531 
G01 X52.8130 Y15.7531 
G01 X52.8130 Y15.0456 
G00 Z2.5400  
G00 X52.6489 Y17.0595 
G01 Z-0.0350 F254   
G01 X52.6970 Y17.0466 F508   
G01 X52.7401 Y17.0217 
G01 X52.7752 Y16.9866 
G01 X52.8001 Y16.9435 
G01 X52.8130 Y16.8954 
G01 X52.8130 Y16.1879 
G01 X52.6890 Y16.1879 
G01 X52.6890 Y16.8834 
G01 X52.6791 Y16.9073 
G01 X52.6608 Y16.9256 
G01 X52.6369 Y16.9355 
G01 X52.0414 Y16.9355 
G01 X52.0414 Y17.0595 
G01 X52.6489 Y17.0595 
G00 Z2.5400  
G00 X28.2516 Y34.5015 
G01 Z-0.0350 F254   
G01 X28.2035 Y34.5144 F508   
G01 X28.1604 Y34.5393 
G01 X28.1253 Y34.5744 
G01 X28.1004 Y34.6175 
G01 X28.0875 Y34.6656 
G01 X28.0875 Y35.3731 
G01 X28.2115 Y35.3731 
G01 X28.2115 Y34.6776 
G01 X28.2214 Y34.6537 
G01 X28.2397 Y34.6354 
G01 X28.2636 Y34.6255 
G01 X28.8591 Y34.6255 
G01 X28.8591 Y34.5015 
G01 X28.2516 Y34.5015 
G00 Z2.5400  
G00 X29.9415 Y34.6776 
G01 Z-0.0350 F254   
G01 X29.9415 Y35.3731 F508   
G01 X30.0655 Y35.3731 
G01 X30.0655 Y34.6656 
G01 X30.0526 Y34.6175 
G01 X30.0277 Y34.5744 
G01 X29.9926 Y34.5393 
G01 X29.9495 Y34.5144 
G01 X29.9014 Y34.5015 
G01 X29.2939 Y34.5015 
G01 X29.2939 Y34.6255 
G01 X29.8894 Y34.6255 
G01 X29.9133 Y34.6354 
G01 X29.9316 Y34.6537 
G01 X29.9415 Y34.6776 
G00 Z2.5400  
G00 X29.9415 Y36.5034 
G01 Z-0.0350 F254   
G01 X29.9316 Y36.5273 F508   
G01 X29.9133 Y36.5456 
G01 X29.8894 Y36.5555 
G01 X29.2939 Y36.5555 
G01 X29.2939 Y36.6795 
G01 X29.9014 Y36.6795 
G01 X29.9495 Y36.6666 
G01 X29.9926 Y36.6417 
G01 X30.0277 Y36.6065 
G01 X30.0526 Y36.5635 
G01 X30.0655 Y36.5154 
G01 X30.0655 Y35.8079 
G01 X29.9415 Y35.8079 
G01 X29.9415 Y36.5034 
G00 Z2.5400  
G00 X28.0875 Y36.5154 
G01 Z-0.0350 F254   
G01 X28.1004 Y36.5635 F508   
G01 X28.1253 Y36.6065 
G01 X28.1604 Y36.6417 
G01 X28.2035 Y36.6666 
G01 X28.2516 Y36.6795 
G01 X28.8591 Y36.6795 
G01 X28.8591 Y36.5555 
G01 X28.2636 Y36.5555 
G01 X28.2397 Y36.5456 
G01 X28.2214 Y36.5273 
G01 X28.2115 Y36.5034 
G01 X28.2115 Y35.8079 
G01 X28.0875 Y35.8079 
G01 X28.0875 Y36.5154 
G00 Z2.5400  
G00 X72.9495 Y24.4684 
G01 Z-0.0350 F254   
G01 X72.9624 Y24.5165 F508   
G01 X72.9873 Y24.5596 
G01 X73.0224 Y24.5947 
G01 X73.0655 Y24.6196 
G01 X73.1136 Y24.6325 
G01 X73.7211 Y24.6325 
G01 X73.7211 Y24.5085 
G01 X73.1256 Y24.5085 
G01 X73.1017 Y24.4986 
G01 X73.0834 Y24.4803 
G01 X73.0735 Y24.4564 
G01 X73.0735 Y23.7609 
G01 X72.9495 Y23.7609 
G01 X72.9495 Y24.4684 
G00 Z2.5400  
G00 X74.8035 Y24.4564 
G01 Z-0.0350 F254   
G01 X74.7936 Y24.4803 F508   
G01 X74.7753 Y24.4986 
G01 X74.7514 Y24.5085 
G01 X74.1559 Y24.5085 
G01 X74.1559 Y24.6325 
G01 X74.7634 Y24.6325 
G01 X74.8115 Y24.6196 
G01 X74.8546 Y24.5947 
G01 X74.8897 Y24.5596 
G01 X74.9146 Y24.5165 
G01 X74.9275 Y24.4684 
G01 X74.9275 Y23.7609 
G01 X74.8035 Y23.7609 
G01 X74.8035 Y24.4564 
G00 Z2.5400  
G00 X74.8035 Y22.6306 
G01 Z-0.0350 F254   
G01 X74.8035 Y23.3261 F508   
G01 X74.9275 Y23.3261 
G01 X74.9275 Y22.6186 
G01 X74.9146 Y22.5705 
G01 X74.8897 Y22.5274 
G01 X74.8546 Y22.4923 
G01 X74.8115 Y22.4674 
G01 X74.7634 Y22.4545 
G01 X74.1559 Y22.4545 
G01 X74.1559 Y22.5785 
G01 X74.7514 Y22.5785 
G01 X74.7753 Y22.5884 
G01 X74.7936 Y22.6067 
G01 X74.8035 Y22.6306 
G00 Z2.5400  
G00 X73.1136 Y22.4545 
G01 Z-0.0350 F254   
G01 X73.0655 Y22.4674 F508   
G01 X73.0224 Y22.4923 
G01 X72.9873 Y22.5274 
G01 X72.9624 Y22.5705 
G01 X72.9495 Y22.6186 
G01 X72.9495 Y23.3261 
G01 X73.0735 Y23.3261 
G01 X73.0735 Y22.6306 
G01 X73.0834 Y22.6067 
G01 X73.1017 Y22.5884 
G01 X73.1256 Y22.5785 
G01 X73.7211 Y22.5785 
G01 X73.7211 Y22.4545 
G01 X73.1136 Y22.4545 
G00 Z2.5400  
G00 X74.7035 Y21.7734 
G01 Z-0.0350 F254   
G01 X74.6936 Y21.7973 F508   
G01 X74.6753 Y21.8156 
G01 X74.6514 Y21.8255 
G01 X74.0559 Y21.8255 
G01 X74.0559 Y21.9495 
G01 X74.6634 Y21.9495 
G01 X74.7115 Y21.9366 
G01 X74.7546 Y21.9117 
G01 X74.7897 Y21.8766 
G01 X74.8146 Y21.8335 
G01 X74.8275 Y21.7854 
G01 X74.8275 Y21.0779 
G01 X74.7035 Y21.0779 
G01 X74.7035 Y21.7734 
G00 Z2.5400  
G00 X73.0636 Y25.4815 
G01 Z-0.0350 F254   
G01 X73.0155 Y25.4944 F508   
G01 X72.9724 Y25.5193 
G01 X72.9373 Y25.5544 
G01 X72.9124 Y25.5975 
G01 X72.8995 Y25.6456 
G01 X72.8995 Y26.3531 
G01 X73.0235 Y26.3531 
G01 X73.0235 Y25.6576 
G01 X73.0334 Y25.6337 
G01 X73.0517 Y25.6154 
G01 X73.0756 Y25.6055 
G01 X73.6711 Y25.6055 
G01 X73.6711 Y25.4815 
G01 X73.0636 Y25.4815 
G00 Z2.5400  
G00 X72.9735 Y19.9476 
G01 Z-0.0350 F254   
G01 X72.9834 Y19.9237 F508   
G01 X73.0017 Y19.9054 
G01 X73.0256 Y19.8955 
G01 X73.6211 Y19.8955 
G01 X73.6211 Y19.7715 
G01 X73.0477 Y19.7715 
G01 X72.9973 Y19.7506 
G01 X72.9561 Y19.7103 
G01 X72.9346 Y19.6584 
G01 X72.9346 Y19.6022 
G01 X72.9554 Y19.5518 
G01 X72.9958 Y19.5106 
G01 X73.6147 Y18.8917 
G01 X73.6666 Y18.8702 
G01 X77.2134 Y18.8702 
G01 X77.4230 Y18.7834 
G01 X77.5834 Y18.6230 
G01 X77.6231 Y18.5833 
G01 X85.1647 Y11.0417 
G01 X85.2166 Y11.0202 
G01 X86.6634 Y11.0202 
G01 X86.8730 Y10.9334 
G01 X87.0334 Y10.7730 
G01 X87.0731 Y10.7333 
G01 X89.8230 Y7.9834  
G01 X89.9834 Y7.8230  
G01 X90.0702 Y7.6134  
G01 X90.0702 Y6.1666  
G01 X90.0917 Y6.1147  
G01 X91.6230 Y4.5834  
G01 X91.7834 Y4.4230  
G01 X91.8702 Y4.2134  
G01 X91.8702 Y3.9866  
G01 X91.7834 Y3.7770  
G01 X91.6230 Y3.6166  
G01 X91.4134 Y3.5298  
G01 X67.3866 Y3.5298  
G01 X67.1452 Y3.6298  
G01 X14.3866 Y3.6298  
G01 X14.1770 Y3.7166  
G01 X8.5027  Y9.3910  
G01 X8.4508  Y9.4124  
G01 X6.8385  Y9.4124  
G01 X6.3653  Y9.6085  
G01 X6.0031  Y9.9707  
G01 X5.8071  Y10.4439 
G01 X5.8071  Y10.9561 
G01 X6.0031  Y11.4293 
G01 X6.3653  Y11.7915 
G01 X6.8385  Y11.9875 
G01 X7.3067  Y11.9875 
G01 X7.3586  Y12.0090 
G01 X7.3983  Y12.0488 
G01 X7.4198  Y12.1007 
G01 X7.4198  Y15.1883 
G01 X7.3983  Y15.2402 
G01 X7.3586  Y15.2800 
G01 X7.3067  Y15.3014 
G01 X6.8385  Y15.3014 
G01 X6.3653  Y15.4975 
G01 X6.0031  Y15.8597 
G01 X5.8071  Y16.3329 
G01 X5.8071  Y16.8451 
G01 X6.0031  Y17.3183 
G01 X6.3653  Y17.6805 
G01 X6.8385  Y17.8765 
G01 X7.1167  Y17.8765 
G01 X7.1686  Y17.8980 
G01 X7.2083  Y17.9378 
G01 X7.2298  Y17.9897 
G01 X7.2298  Y20.1883 
G01 X7.2083  Y20.2402 
G01 X7.1686  Y20.2799 
G01 X7.1167  Y20.3014 
G01 X6.8385  Y20.3014 
G01 X6.3653  Y20.4975 
G01 X6.0031  Y20.8597 
G01 X5.8071  Y21.3329 
G01 X5.8071  Y21.8451 
G01 X6.0031  Y22.3183 
G01 X6.3653  Y22.6805 
G01 X6.8385  Y22.8765 
G01 X7.1167  Y22.8765 
G01 X7.1686  Y22.8980 
G01 X7.2083  Y22.9378 
G01 X7.2298  Y22.9897 
G01 X7.2298  Y25.1883 
G01 X7.2083  Y25.2402 
G01 X7.1686  Y25.2799 
G01 X7.1167  Y25.3014 
G01 X6.8385  Y25.3014 
G01 X6.3653  Y25.4975 
G01 X6.0031  Y25.8597 
G01 X5.8071  Y26.3329 
G01 X5.8071  Y26.8451 
G01 X6.0031  Y27.3183 
G01 X6.3653  Y27.6805 
G01 X6.8385  Y27.8765 
G01 X7.3067  Y27.8765 
G01 X7.3586  Y27.8980 
G01 X7.3983  Y27.9378 
G01 X7.4198  Y27.9897 
G01 X7.4198  Y31.0813 
G01 X7.3983  Y31.1332 
G01 X7.3586  Y31.1730 
G01 X7.3067  Y31.1944 
G01 X6.8385  Y31.1944 
G01 X6.3653  Y31.3905 
G01 X6.0031  Y31.7527 
G01 X5.8071  Y32.2259 
G01 X5.8071  Y32.7381 
G01 X6.0031  Y33.2113 
G01 X6.3653  Y33.5735 
G01 X6.8385  Y33.7695 
G01 X7.3067  Y33.7695 
G01 X7.3586  Y33.7910 
G01 X7.3983  Y33.8308 
G01 X7.4198  Y33.8827 
G01 X7.4198  Y36.0813 
G01 X7.3983  Y36.1332 
G01 X7.3586  Y36.1730 
G01 X7.3067  Y36.1944 
G01 X6.8385  Y36.1944 
G01 X6.3653  Y36.3905 
G01 X6.0031  Y36.7527 
G01 X5.8071  Y37.2259 
G01 X5.8071  Y37.7381 
G01 X6.0031  Y38.2113 
G01 X6.3653  Y38.5735 
G01 X6.8385  Y38.7695 
G01 X7.3067  Y38.7695 
G01 X7.3586  Y38.7910 
G01 X7.3983  Y38.8308 
G01 X7.4198  Y38.8827 
G01 X7.4198  Y41.0813 
G01 X7.3983  Y41.1332 
G01 X7.3586  Y41.1730 
G01 X7.3067  Y41.1944 
G01 X6.8385  Y41.1944 
G01 X6.3653  Y41.3905 
G01 X6.0031  Y41.7527 
G01 X5.8071  Y42.2259 
G01 X5.8071  Y42.7381 
G01 X6.0031  Y43.2113 
G01 X6.3653  Y43.5735 
G01 X6.8385  Y43.7695 
G01 X9.1415  Y43.7695 
G01 X9.6147  Y43.5735 
G01 X9.9769  Y43.2113 
G01 X10.1729 Y42.7381 
G01 X10.1729 Y42.2259 
G01 X9.9769  Y41.7527 
G01 X9.6147  Y41.3905 
G01 X9.1415  Y41.1944 
G01 X8.6733  Y41.1944 
G01 X8.6214  Y41.1730 
G01 X8.5817  Y41.1332 
G01 X8.5602  Y41.0813 
G01 X8.5602  Y38.8827 
G01 X8.5817  Y38.8308 
G01 X8.6214  Y38.7910 
G01 X8.6733  Y38.7695 
G01 X9.1415  Y38.7695 
G01 X9.6147  Y38.5735 
G01 X9.9769  Y38.2113 
G01 X10.1729 Y37.7381 
G01 X10.1729 Y37.2259 
G01 X9.9769  Y36.7527 
G01 X9.7053  Y36.4811 
G01 X9.6710  Y36.4468 
G01 X9.6656  Y36.4414 
G01 X9.6441  Y36.3895 
G01 X9.6441  Y36.3333 
G01 X9.6656  Y36.2814 
G01 X9.7053  Y36.2417 
G01 X9.7572  Y36.2202 
G01 X15.4757 Y36.2202 
G01 X15.5276 Y36.2417 
G01 X15.5673 Y36.2814 
G01 X15.5888 Y36.3333 
G01 X15.5888 Y36.5639 
G01 X15.8185 Y36.7936 
G01 X17.9435 Y36.7936 
G01 X18.1732 Y36.5639 
G01 X18.1732 Y36.2847 
G01 X18.1947 Y36.2328 
G01 X18.2344 Y36.1931 
G01 X18.2863 Y36.1716 
G01 X19.2352 Y36.1716 
G01 X19.2871 Y36.1931 
G01 X19.3268 Y36.2328 
G01 X19.3483 Y36.2847 
G01 X19.3483 Y36.6830 
G01 X19.5780 Y36.9127 
G01 X21.5030 Y36.9127 
G01 X21.7327 Y36.6830 
G01 X21.7327 Y34.5550 
G01 X21.5030 Y34.3253 
G01 X19.5780 Y34.3253 
G01 X19.3483 Y34.5550 
G01 X19.3483 Y34.9181 
G01 X19.3268 Y34.9700 
G01 X19.2871 Y35.0097 
G01 X19.2352 Y35.0312 
G01 X18.2863 Y35.0312 
G01 X18.2344 Y35.0097 
G01 X18.1947 Y34.9700 
G01 X18.1732 Y34.9181 
G01 X18.1732 Y34.6389 
G01 X17.9435 Y34.4092 
G01 X15.8185 Y34.4092 
G01 X15.5888 Y34.6389 
G01 X15.5888 Y34.9667 
G01 X15.5673 Y35.0186 
G01 X15.5276 Y35.0583 
G01 X15.4757 Y35.0798 
G01 X8.6733  Y35.0798 
G01 X8.6214  Y35.0583 
G01 X8.5817  Y35.0186 
G01 X8.5602  Y34.9667 
G01 X8.5602  Y33.8827 
G01 X8.5817  Y33.8308 
G01 X8.6214  Y33.7910 
G01 X8.6733  Y33.7695 
G01 X9.1415  Y33.7695 
G01 X9.6147  Y33.5735 
G01 X9.9769  Y33.2113 
G01 X10.1729 Y32.7381 
G01 X10.1729 Y32.2259 
G01 X9.9769  Y31.7527 
G01 X9.6147  Y31.3905 
G01 X9.1415  Y31.1944 
G01 X8.6733  Y31.1944 
G01 X8.6214  Y31.1730 
G01 X8.5817  Y31.1332 
G01 X8.5602  Y31.0813 
G01 X8.5602  Y27.9897 
G01 X8.5817  Y27.9378 
G01 X8.6214  Y27.8980 
G01 X8.6733  Y27.8765 
G01 X9.1415  Y27.8765 
G01 X9.6147  Y27.6805 
G01 X9.9769  Y27.3183 
G01 X10.1729 Y26.8451 
G01 X10.1729 Y26.3329 
G01 X9.9769  Y25.8597 
G01 X9.6147  Y25.4975 
G01 X9.1415  Y25.3014 
G01 X8.6733  Y25.3014 
G01 X8.6214  Y25.2799 
G01 X8.5817  Y25.2402 
G01 X8.5602  Y25.1883 
G01 X8.5602  Y22.9897 
G01 X8.5817  Y22.9378 
G01 X8.6214  Y22.8980 
G01 X8.6733  Y22.8765 
G01 X9.1415  Y22.8765 
G01 X9.6147  Y22.6805 
G01 X9.9769  Y22.3183 
G01 X10.1729 Y21.8451 
G01 X10.1729 Y21.3329 
G01 X9.9769  Y20.8597 
G01 X9.6147  Y20.4975 
G01 X9.1415  Y20.3014 
G01 X8.6733  Y20.3014 
G01 X8.6214  Y20.2799 
G01 X8.5817  Y20.2402 
G01 X8.5602  Y20.1883 
G01 X8.5602  Y17.9897 
G01 X8.5817  Y17.9378 
G01 X8.6214  Y17.8980 
G01 X8.6733  Y17.8765 
G01 X9.1415  Y17.8765 
G01 X9.6147  Y17.6805 
G01 X9.9769  Y17.3183 
G01 X10.1729 Y16.8451 
G01 X10.1729 Y16.3329 
G01 X9.9769  Y15.8597 
G01 X9.6147  Y15.4975 
G01 X9.1415  Y15.3014 
G01 X8.6733  Y15.3014 
G01 X8.6214  Y15.2800 
G01 X8.5817  Y15.2402 
G01 X8.5602  Y15.1883 
G01 X8.5602  Y12.1007 
G01 X8.5817  Y12.0488 
G01 X8.6214  Y12.0090 
G01 X8.6733  Y11.9875 
G01 X9.1415  Y11.9875 
G01 X9.6147  Y11.7915 
G01 X9.9769  Y11.4293 
G01 X10.1729 Y10.9561 
G01 X10.1729 Y10.4439 
G01 X9.9769  Y9.9707  
G01 X9.8363  Y9.8301  
G01 X9.8148  Y9.7782  
G01 X9.8148  Y9.7220  
G01 X9.8363  Y9.6701  
G01 X9.8760  Y9.6304  
G01 X14.7147 Y4.7917  
G01 X14.7666 Y4.7702  
G01 X66.8167 Y4.7702  
G01 X66.8686 Y4.7917  
G01 X66.9083 Y4.8314  
G01 X66.9298 Y4.8833  
G01 X66.9298 Y7.8860  
G01 X66.9083 Y7.9379  
G01 X66.8686 Y7.9776  
G01 X62.4921 Y12.3541 
G01 X62.4402 Y12.3756 
G01 X58.2872 Y12.3756 
G01 X58.2598 Y12.3759 
G01 X58.2556 Y12.3745 
G01 X58.1738 Y12.3753 
G01 X58.1458 Y12.3756 
G01 X58.1184 Y12.3759 
G01 X58.0359 Y12.3756 
G01 X58.0332 Y12.3768 
G01 X58.0288 Y12.3770 
G01 X57.9537 Y12.4091 
G01 X57.9275 Y12.4203 
G01 X57.9027 Y12.4308 
G01 X57.8263 Y12.4622 
G01 X57.8236 Y12.4646 
G01 X57.8203 Y12.4662 
G01 X57.7632 Y12.5245 
G01 X57.7435 Y12.5446 
G01 X57.7244 Y12.5641 
G01 X57.6658 Y12.6223 
G01 X57.6647 Y12.6251 
G01 X57.6446 Y12.6457 
G01 X56.1045 Y14.2179 
G01 X56.0847 Y14.2381 
G01 X56.0657 Y14.2575 
G01 X56.0071 Y14.3158 
G01 X56.0060 Y14.3185 
G01 X56.0030 Y14.3219 
G01 X55.9726 Y14.3977 
G01 X55.9621 Y14.4238 
G01 X55.9519 Y14.4491 
G01 X55.9200 Y14.5252 
G01 X55.9201 Y14.5282 
G01 X55.9187 Y14.5324 
G01 X55.9195 Y14.6142 
G01 X55.9198 Y14.6422 
G01 X55.9201 Y14.6696 
G01 X55.9198 Y14.7739 
G01 X55.8983 Y14.8258 
G01 X55.8586 Y14.8655 
G01 X55.8067 Y14.8870 
G01 X55.3029 Y14.8870 
G01 X55.3029 Y15.0110 
G01 X55.8984 Y15.0110 
G01 X55.9223 Y15.0209 
G01 X55.9406 Y15.0392 
G01 X55.9505 Y15.0631 
G01 X55.9505 Y16.8889 
G01 X55.9406 Y16.9128 
G01 X55.9223 Y16.9311 
G01 X55.8984 Y16.9410 
G01 X55.3029 Y16.9410 
G01 X55.3029 Y17.0650 
G01 X55.8067 Y17.0650 
G01 X55.8586 Y17.0865 
G01 X55.8983 Y17.1262 
G01 X55.9198 Y17.1781 
G01 X55.9198 Y24.2439 
G01 X55.9198 Y24.2720 
G01 X55.9198 Y24.2984 
G01 X55.9191 Y24.3017 
G01 X55.9084 Y24.3259 
G01 X55.8983 Y24.3503 
G01 X55.8964 Y24.3530 
G01 X55.8772 Y24.3714 
G01 X55.8586 Y24.3900 
G01 X55.8367 Y24.4100 
G01 X55.8180 Y24.4287 
G01 X55.8152 Y24.4305 
G01 X55.7905 Y24.4401 
G01 X55.7661 Y24.4502 
G01 X55.7629 Y24.4508 
G01 X55.7364 Y24.4502 
G01 X55.7100 Y24.4502 
G01 X55.7067 Y24.4495 
G01 X55.6825 Y24.4388 
G01 X55.6581 Y24.4287 
G01 X55.6553 Y24.4268 
G01 X55.6370 Y24.4076 
G01 X54.9067 Y23.6773 
G01 X54.8852 Y23.6254 
G01 X54.8852 Y22.2075 
G01 X54.6555 Y21.9778 
G01 X52.7305 Y21.9778 
G01 X52.5008 Y22.2075 
G01 X52.5008 Y24.3325 
G01 X52.7305 Y24.5622 
G01 X54.1484 Y24.5622 
G01 X54.2003 Y24.5837 
G01 X54.2108 Y24.5942 
G01 X54.8430 Y25.2264 
G01 X54.8722 Y25.2556 
G01 X54.8827 Y25.2661 
G01 X54.9042 Y25.3180 
G01 X54.9042 Y25.3742 
G01 X54.8827 Y25.4261 
G01 X54.8430 Y25.4658 
G01 X54.7911 Y25.4873 
G01 X54.6640 Y25.4873 
G01 X54.4343 Y25.7170 
G01 X54.4343 Y25.8987 
G01 X54.4128 Y25.9506 
G01 X54.3731 Y25.9903 
G01 X54.3212 Y26.0118 
G01 X53.1188 Y26.0118 
G01 X53.0669 Y25.9903 
G01 X53.0272 Y25.9506 
G01 X53.0057 Y25.8987 
G01 X53.0057 Y25.5195 
G01 X52.7760 Y25.2898 
G01 X51.0933 Y25.2898 
G01 X51.0414 Y25.2683 
G01 X51.0017 Y25.2286 
G01 X50.9802 Y25.1767 
G01 X50.9802 Y24.6753 
G01 X51.0017 Y24.6234 
G01 X51.0414 Y24.5837 
G01 X51.0933 Y24.5622 
G01 X51.8555 Y24.5622 
G01 X52.0852 Y24.3325 
G01 X52.0852 Y22.2075 
G01 X51.8555 Y21.9778 
G01 X51.5763 Y21.9778 
G01 X51.5244 Y21.9563 
G01 X51.4847 Y21.9166 
G01 X51.4632 Y21.8647 
G01 X51.4632 Y21.3178 
G01 X51.4847 Y21.2659 
G01 X51.5244 Y21.2262 
G01 X51.5763 Y21.2047 
G01 X51.8960 Y21.2047 
G01 X52.1257 Y20.9750 
G01 X52.1257 Y18.8500 
G01 X51.8960 Y18.6203 
G01 X51.1033 Y18.6203 
G01 X51.0514 Y18.5988 
G01 X51.0117 Y18.5591 
G01 X50.9902 Y18.5072 
G01 X50.9902 Y17.1726 
G01 X51.0117 Y17.1207 
G01 X51.0514 Y17.0810 
G01 X51.1033 Y17.0595 
G01 X51.6066 Y17.0595 
G01 X51.6066 Y16.9355 
G01 X51.0111 Y16.9355 
G01 X50.9872 Y16.9256 
G01 X50.9689 Y16.9073 
G01 X50.9590 Y16.8834 
G01 X50.9590 Y15.0576 
G01 X50.9689 Y15.0337 
G01 X50.9872 Y15.0154 
G01 X51.0111 Y15.0055 
G01 X51.6066 Y15.0055 
G01 X51.6066 Y14.8815 
G01 X51.5176 Y14.8815 
G01 X51.4895 Y14.8815 
G01 X51.4637 Y14.8709 
G01 X51.4376 Y14.8601 
G01 X51.4177 Y14.8403 
G01 X51.3978 Y14.8205 
G01 X51.3871 Y14.7948 
G01 X51.3762 Y14.7686 
G01 X51.3762 Y14.7405 
G01 X51.3761 Y14.7125 
G01 X51.3868 Y14.6866 
G01 X51.3975 Y14.6605 
G01 X51.4179 Y14.6401 
G01 X57.4464 Y8.5903  
G01 X57.4656 Y8.5710  
G01 X57.4860 Y8.5506  
G01 X57.5116 Y8.5399  
G01 X57.5378 Y8.5290  
G01 X57.5659 Y8.5289  
G01 X57.5940 Y8.5289  
G01 X57.6202 Y8.5397  
G01 X57.6459 Y8.5503  
G01 X57.6658 Y8.5701  
G01 X57.6857 Y8.5899  
G01 X57.6963 Y8.6155  
G01 X57.7073 Y8.6418  
G01 X57.8667 Y9.0267  
G01 X58.2289 Y9.3889  
G01 X58.7021 Y9.5849  
G01 X59.2143 Y9.5849  
G01 X59.6876 Y9.3889  
G01 X60.0498 Y9.0267  
G01 X60.2458 Y8.5535  
G01 X60.2458 Y8.0853  
G01 X60.2673 Y8.0334  
G01 X60.3070 Y7.9937  
G01 X60.3589 Y7.9722  
G01 X62.5576 Y7.9722  
G01 X62.6095 Y7.9937  
G01 X62.6492 Y8.0334  
G01 X62.6707 Y8.0853  
G01 X62.6707 Y8.5535  
G01 X62.8667 Y9.0267  
G01 X63.2289 Y9.3889  
G01 X63.7021 Y9.5849  
G01 X64.2143 Y9.5849  
G01 X64.6876 Y9.3889  
G01 X65.0498 Y9.0267  
G01 X65.2458 Y8.5535  
G01 X65.2458 Y6.2505  
G01 X65.0498 Y5.7773  
G01 X64.6876 Y5.4151  
G01 X64.2143 Y5.2191  
G01 X63.7021 Y5.2191  
G01 X63.2289 Y5.4151  
G01 X62.8667 Y5.7773  
G01 X62.6707 Y6.2505  
G01 X62.6707 Y6.7187  
G01 X62.6492 Y6.7706  
G01 X62.6095 Y6.8103  
G01 X62.5576 Y6.8318  
G01 X60.3589 Y6.8318  
G01 X60.3070 Y6.8103  
G01 X60.2673 Y6.7706  
G01 X60.2458 Y6.7187  
G01 X60.2458 Y6.2505  
G01 X60.0498 Y5.7773  
G01 X59.6876 Y5.4151  
G01 X59.2143 Y5.2191  
G01 X58.7021 Y5.2191  
G01 X58.2289 Y5.4151  
G01 X57.8667 Y5.7773  
G01 X57.6707 Y6.2505  
G01 X57.6707 Y6.7827  
G01 X57.6498 Y6.8331  
G01 X57.6095 Y6.8743  
G01 X57.5028 Y6.9185  
G01 X57.4423 Y6.9787  
G01 X57.4222 Y6.9989  
G01 X57.4028 Y7.0184  
G01 X57.3422 Y7.0789  
G01 X57.3151 Y7.1064  
G01 X50.0366 Y14.4106 
G01 X50.0166 Y14.4307 
G01 X49.9971 Y14.4503 
G01 X49.9367 Y14.5106 
G01 X49.9140 Y14.5651 
G01 X49.9032 Y14.5913 
G01 X49.8926 Y14.6169 
G01 X49.8728 Y14.6368 
G01 X49.8530 Y14.6567 
G01 X49.8273 Y14.6673 
G01 X49.8011 Y14.6782 
G01 X49.7731 Y14.6783 
G01 X49.7450 Y14.6783 
G01 X49.1833 Y14.6783 
G01 X49.1314 Y14.6568 
G01 X49.0917 Y14.6171 
G01 X49.0702 Y14.5652 
G01 X49.0702 Y9.2157  
G01 X49.0917 Y9.1638  
G01 X49.2289 Y9.0267  
G01 X49.4249 Y8.5535  
G01 X49.4249 Y8.0853  
G01 X49.4464 Y8.0334  
G01 X49.4861 Y7.9937  
G01 X49.5380 Y7.9722  
G01 X51.7367 Y7.9722  
G01 X51.7886 Y7.9937  
G01 X51.8283 Y8.0334  
G01 X51.8498 Y8.0853  
G01 X51.8498 Y8.5535  
G01 X52.0458 Y9.0267  
G01 X52.4080 Y9.3889  
G01 X52.8812 Y9.5849  
G01 X53.3934 Y9.5849  
G01 X53.8667 Y9.3889  
G01 X54.2289 Y9.0267  
G01 X54.4249 Y8.5535  
G01 X54.4249 Y6.2505  
G01 X54.2289 Y5.7773  
G01 X53.8667 Y5.4151  
G01 X53.3934 Y5.2191  
G01 X52.8812 Y5.2191  
G01 X52.4080 Y5.4151  
G01 X52.0458 Y5.7773  
G01 X51.8498 Y6.2505  
G01 X51.8498 Y6.7187  
G01 X51.8283 Y6.7706  
G01 X51.7886 Y6.8103  
G01 X51.7367 Y6.8318  
G01 X49.5380 Y6.8318  
G01 X49.4861 Y6.8103  
G01 X49.4464 Y6.7706  
G01 X49.4249 Y6.7187  
G01 X49.4249 Y6.2505  
G01 X49.2289 Y5.7773  
G01 X48.8667 Y5.4151  
G01 X48.3934 Y5.2191  
G01 X47.8812 Y5.2191  
G01 X47.4080 Y5.4151  
G01 X47.0458 Y5.7773  
G01 X46.8498 Y6.2505  
G01 X46.8498 Y8.5535  
G01 X47.0458 Y9.0267  
G01 X47.4080 Y9.3889  
G01 X47.8167 Y9.5582  
G01 X47.8660 Y9.5786  
G01 X47.8686 Y9.5797  
G01 X47.9083 Y9.6194  
G01 X47.9298 Y9.6713  
G01 X47.9298 Y14.7796 
G01 X47.9083 Y14.8315 
G01 X47.8686 Y14.8713 
G01 X47.8318 Y14.9080 
G01 X47.8318 Y17.0330 
G01 X48.0615 Y17.2627 
G01 X48.3302 Y17.2627 
G01 X48.3821 Y17.2842 
G01 X48.4218 Y17.3239 
G01 X48.4433 Y17.3758 
G01 X48.4433 Y25.1767 
G01 X48.4218 Y25.2286 
G01 X48.3821 Y25.2683 
G01 X48.3302 Y25.2898 
G01 X48.0510 Y25.2898 
G01 X47.8213 Y25.5195 
G01 X47.8213 Y27.1021 
G01 X47.7998 Y27.1540 
G01 X47.7601 Y27.1937 
G01 X47.7082 Y27.2152 
G01 X47.6520 Y27.2152 
G01 X47.6001 Y27.1937 
G01 X47.5604 Y27.1540 
G01 X42.1941 Y21.7877 
G01 X42.1726 Y21.7358 
G01 X42.1726 Y9.5211  
G01 X42.1941 Y9.4692  
G01 X42.2338 Y9.4294  
G01 X42.3317 Y9.3889  
G01 X42.6939 Y9.0267  
G01 X42.8899 Y8.5535  
G01 X42.8899 Y6.2505  
G01 X42.6939 Y5.7773  
G01 X42.3317 Y5.4151  
G01 X41.8585 Y5.2191  
G01 X41.3463 Y5.2191  
G01 X40.8731 Y5.4151  
G01 X40.5109 Y5.7773  
G01 X40.3148 Y6.2505  
G01 X40.3148 Y6.7187  
G01 X40.2934 Y6.7706  
G01 X40.2536 Y6.8103  
G01 X40.2017 Y6.8318  
G01 X38.0031 Y6.8318  
G01 X37.9512 Y6.8103  
G01 X37.9114 Y6.7706  
G01 X37.8899 Y6.7187  
G01 X37.8899 Y6.2505  
G01 X37.6939 Y5.7773  
G01 X37.3317 Y5.4151  
G01 X36.8585 Y5.2191  
G01 X36.3463 Y5.2191  
G01 X35.8731 Y5.4151  
G01 X35.5109 Y5.7773  
G01 X35.3148 Y6.2505  
G01 X35.3148 Y6.7187  
G01 X35.2934 Y6.7706  
G01 X35.2536 Y6.8103  
G01 X35.2017 Y6.8318  
G01 X33.0031 Y6.8318  
G01 X32.9512 Y6.8103  
G01 X32.9114 Y6.7706  
G01 X32.8899 Y6.7187  
G01 X32.8899 Y6.2505  
G01 X32.6939 Y5.7773  
G01 X32.3317 Y5.4151  
G01 X31.8585 Y5.2191  
G01 X31.3463 Y5.2191  
G01 X30.8731 Y5.4151  
G01 X30.5109 Y5.7773  
G01 X30.3148 Y6.2505  
G01 X30.3148 Y8.5535  
G01 X30.5109 Y9.0267  
G01 X30.8731 Y9.3889  
G01 X31.3463 Y9.5849  
G01 X31.8585 Y9.5849  
G01 X32.3317 Y9.3889  
G01 X32.6939 Y9.0267  
G01 X32.8899 Y8.5535  
G01 X32.8899 Y8.0853  
G01 X32.9114 Y8.0334  
G01 X32.9512 Y7.9937  
G01 X33.0031 Y7.9722  
G01 X35.2017 Y7.9722  
G01 X35.2536 Y7.9937  
G01 X35.2934 Y8.0334  
G01 X35.3148 Y8.0853  
G01 X35.3148 Y8.5535  
G01 X35.5109 Y9.0267  
G01 X35.8731 Y9.3889  
G01 X36.3463 Y9.5849  
G01 X36.8585 Y9.5849  
G01 X37.3317 Y9.3889  
G01 X37.6939 Y9.0267  
G01 X37.8899 Y8.5535  
G01 X37.8899 Y8.0853  
G01 X37.9114 Y8.0334  
G01 X37.9512 Y7.9937  
G01 X38.0031 Y7.9722  
G01 X40.2017 Y7.9722  
G01 X40.2536 Y7.9937  
G01 X40.2934 Y8.0334  
G01 X40.3148 Y8.0853  
G01 X40.3148 Y8.5535  
G01 X40.5109 Y9.0267  
G01 X40.8731 Y9.3889  
G01 X40.9710 Y9.4294  
G01 X41.0107 Y9.4692  
G01 X41.0322 Y9.5211  
G01 X41.0322 Y21.7150 
G01 X41.0107 Y21.7669 
G01 X40.9710 Y21.8066 
G01 X40.9191 Y21.8281 
G01 X40.8629 Y21.8281 
G01 X40.8110 Y21.8066 
G01 X40.7713 Y21.7669 
G01 X26.9090 Y7.9047  
G01 X26.8875 Y7.8528  
G01 X26.8875 Y6.2505  
G01 X26.6915 Y5.7773  
G01 X26.3293 Y5.4151  
G01 X25.8561 Y5.2191  
G01 X25.3439 Y5.2191  
G01 X24.8707 Y5.4151  
G01 X24.5085 Y5.7773  
G01 X24.3124 Y6.2505  
G01 X24.3124 Y8.5535  
G01 X24.5085 Y9.0267  
G01 X24.8707 Y9.3889  
G01 X25.3439 Y9.5849  
G01 X25.8561 Y9.5849  
G01 X26.3293 Y9.3889  
G01 X26.4749 Y9.2433  
G01 X26.5268 Y9.2218  
G01 X26.5830 Y9.2218  
G01 X26.6349 Y9.2433  
G01 X26.6746 Y9.2830  
G01 X27.1022 Y9.7106  
G01 X27.1237 Y9.7625  
G01 X27.1237 Y9.8187  
G01 X27.1022 Y9.8706  
G01 X27.0625 Y9.9103  
G01 X27.0106 Y9.9318  
G01 X23.9666 Y9.9318  
G01 X23.9147 Y9.9103  
G01 X23.8838 Y9.8794  
G01 X21.9488 Y7.9444  
G01 X21.9400 Y7.9356  
G01 X21.9090 Y7.9047  
G01 X21.8875 Y7.8528  
G01 X21.8875 Y6.2505  
G01 X21.6915 Y5.7773  
G01 X21.3293 Y5.4151  
G01 X20.8561 Y5.2191  
G01 X20.3439 Y5.2191  
G01 X19.8707 Y5.4151  
G01 X19.5085 Y5.7773  
G01 X19.3124 Y6.2505  
G01 X19.3124 Y8.5535  
G01 X19.5085 Y9.0267  
G01 X19.8707 Y9.3889  
G01 X20.3439 Y9.5849  
G01 X20.8561 Y9.5849  
G01 X21.3293 Y9.3889  
G01 X21.4749 Y9.2433  
G01 X21.5268 Y9.2218  
G01 X21.5830 Y9.2218  
G01 X21.6349 Y9.2433  
G01 X21.6746 Y9.2830  
G01 X23.3770 Y10.9854 
G01 X23.5866 Y11.0722 
G01 X26.8532 Y11.0722 
G01 X26.9051 Y11.0937 
G01 X27.0429 Y11.2315 
G01 X27.0644 Y11.2834 
G01 X27.0644 Y11.3396 
G01 X27.0429 Y11.3915 
G01 X27.0032 Y11.4312 
G01 X26.9513 Y11.4527 
G01 X20.3875 Y11.4527 
G01 X20.3356 Y11.4312 
G01 X20.2959 Y11.3915 
G01 X16.9488 Y8.0444  
G01 X16.9090 Y8.0047  
G01 X16.8875 Y7.9528  
G01 X16.8875 Y6.2505  
G01 X16.6915 Y5.7773  
G01 X16.3293 Y5.4151  
G01 X15.8561 Y5.2191  
G01 X15.3439 Y5.2191  
G01 X14.8707 Y5.4151  
G01 X14.5085 Y5.7773  
G01 X14.3124 Y6.2505  
G01 X14.3124 Y8.5535  
G01 X14.5085 Y9.0267  
G01 X14.8707 Y9.3889  
G01 X15.3439 Y9.5849  
G01 X15.8561 Y9.5849  
G01 X16.3293 Y9.3889  
G01 X16.4249 Y9.2933  
G01 X16.4768 Y9.2718  
G01 X16.5330 Y9.2718  
G01 X16.5849 Y9.2933  
G01 X16.6246 Y9.3330  
G01 X19.7979 Y12.5063 
G01 X20.0075 Y12.5931 
G01 X26.7959 Y12.5931 
G01 X26.8478 Y12.6146 
G01 X26.8875 Y12.6543 
G01 X45.7463 Y31.5131 
G01 X45.7678 Y31.5650 
G01 X45.7678 Y31.7162 
G01 X45.7678 Y31.7440 
G01 X45.7678 Y31.7723 
G01 X45.7558 Y31.8013 
G01 X45.7463 Y31.8242 
G01 X45.7426 Y31.8279 
G01 X45.7426 Y33.1689 
G01 X45.9723 Y33.3986 
G01 X46.4549 Y33.3986 
G01 X46.5068 Y33.4201 
G01 X46.5465 Y33.4598 
G01 X46.5680 Y33.5117 
G01 X46.5680 Y33.6769 
G01 X46.7977 Y33.9066 
G01 X47.5068 Y33.9066 
G01 X47.5097 Y33.9054 
G01 X47.5378 Y33.9053 
G01 X47.5659 Y33.9053 
G01 X47.5691 Y33.9066 
G01 X48.3068 Y33.9066 
G01 X48.3097 Y33.9054 
G01 X48.3378 Y33.9053 
G01 X48.3659 Y33.9053 
G01 X48.3691 Y33.9066 
G01 X49.1068 Y33.9066 
G01 X49.1097 Y33.9054 
G01 X49.1378 Y33.9053 
G01 X49.1659 Y33.9053 
G01 X49.1691 Y33.9066 
G01 X49.9068 Y33.9066 
G01 X49.9097 Y33.9054 
G01 X49.9378 Y33.9053 
G01 X49.9659 Y33.9053 
G01 X49.9691 Y33.9066 
G01 X50.5698 Y33.9066 
G01 X50.6217 Y33.9281 
G01 X50.6614 Y33.9678 
G01 X51.0770 Y34.3834 
G01 X51.2866 Y34.4702 
G01 X51.6078 Y34.4702 
G01 X51.6597 Y34.4917 
G01 X51.6994 Y34.5314 
G01 X51.7209 Y34.5833 
G01 X51.7209 Y34.6395 
G01 X51.6994 Y34.6914 
G01 X51.6597 Y34.7311 
G01 X51.2645 Y35.1263 
G01 X51.2126 Y35.1478 
G01 X46.2397 Y35.1478 
G01 X46.1878 Y35.1263 
G01 X46.1481 Y35.0866 
G01 X46.1266 Y35.0347 
G01 X46.1266 Y34.5777 
G01 X45.8969 Y34.3480 
G01 X45.7317 Y34.3480 
G01 X45.6798 Y34.3265 
G01 X45.6401 Y34.2868 
G01 X45.6186 Y34.2349 
G01 X45.6186 Y33.7523 
G01 X45.3889 Y33.5226 
G01 X44.0479 Y33.5226 
G01 X44.0440 Y33.5265 
G01 X44.0240 Y33.5348 
G01 X43.9922 Y33.5480 
G01 X43.9644 Y33.5480 
G01 X43.9360 Y33.5480 
G01 X43.2849 Y33.5480 
G01 X43.2330 Y33.5265 
G01 X43.1933 Y33.4868 
G01 X31.1016 Y21.3951 
G01 X30.9413 Y21.2348 
G01 X30.7318 Y21.1480 
G01 X29.4212 Y21.1480 
G01 X29.3693 Y21.1265 
G01 X29.3296 Y21.0868 
G01 X29.3081 Y21.0349 
G01 X29.3081 Y20.4917 
G01 X29.0784 Y20.2620 
G01 X26.3534 Y20.2620 
G01 X26.1237 Y20.4917 
G01 X26.1237 Y20.9711 
G01 X26.1022 Y21.0230 
G01 X26.0625 Y21.0627 
G01 X26.0106 Y21.0842 
G01 X24.2863 Y21.0842 
G01 X24.2344 Y21.0627 
G01 X24.1947 Y21.0230 
G01 X23.1340 Y19.9623 
G01 X23.1125 Y19.9104 
G01 X23.1125 Y18.7317 
G01 X22.8828 Y18.5020 
G01 X21.4402 Y18.5020 
G01 X21.2105 Y18.7317 
G01 X21.2105 Y20.8601 
G01 X21.4402 Y21.0898 
G01 X22.6189 Y21.0898 
G01 X22.6708 Y21.1113 
G01 X22.7105 Y21.1510 
G01 X23.5366 Y21.9771 
G01 X23.6969 Y22.1374 
G01 X23.9064 Y22.2242 
G01 X26.0106 Y22.2242 
G01 X26.0625 Y22.2457 
G01 X26.1022 Y22.2854 
G01 X26.1237 Y22.3373 
G01 X26.1237 Y22.8167 
G01 X26.3534 Y23.0464 
G01 X29.0784 Y23.0464 
G01 X29.3081 Y22.8167 
G01 X29.3081 Y22.4011 
G01 X29.3296 Y22.3492 
G01 X29.3693 Y22.3095 
G01 X29.4212 Y22.2880 
G01 X30.3519 Y22.2880 
G01 X30.4038 Y22.3095 
G01 X30.4435 Y22.3492 
G01 X42.2211 Y34.1268 
G01 X42.2426 Y34.1787 
G01 X42.2426 Y34.2349 
G01 X42.2211 Y34.2868 
G01 X42.1814 Y34.3265 
G01 X42.1295 Y34.3480 
G01 X37.0617 Y34.3480 
G01 X37.0098 Y34.3265 
G01 X36.9701 Y34.2868 
G01 X29.3296 Y26.6463 
G01 X29.3081 Y26.5944 
G01 X29.3081 Y24.4917 
G01 X29.0784 Y24.2620 
G01 X26.3534 Y24.2620 
G01 X26.1237 Y24.4917 
G01 X26.1237 Y25.0397 
G01 X26.1022 Y25.0916 
G01 X26.0625 Y25.1313 
G01 X26.0106 Y25.1528 
G01 X23.2605 Y25.1528 
G01 X23.2086 Y25.1313 
G01 X23.1689 Y25.0916 
G01 X23.1474 Y25.0397 
G01 X23.1474 Y24.6586 
G01 X22.9177 Y24.4289 
G01 X21.4751 Y24.4289 
G01 X21.2454 Y24.6586 
G01 X21.2454 Y26.7870 
G01 X21.4751 Y27.0167 
G01 X22.9177 Y27.0167 
G01 X23.1474 Y26.7870 
G01 X23.1474 Y26.4059 
G01 X23.1689 Y26.3540 
G01 X23.2086 Y26.3143 
G01 X23.2605 Y26.2928 
G01 X26.0106 Y26.2928 
G01 X26.0625 Y26.3143 
G01 X26.1022 Y26.3540 
G01 X26.1237 Y26.4059 
G01 X26.1237 Y26.8167 
G01 X26.3534 Y27.0464 
G01 X28.0871 Y27.0464 
G01 X28.1390 Y27.0679 
G01 X28.1787 Y27.1076 
G01 X36.4723 Y35.4012 
G01 X36.6818 Y35.4880 
G01 X42.8462 Y35.4880 
G01 X42.8966 Y35.5089 
G01 X42.9378 Y35.5492 
G01 X42.9593 Y35.6011 
G01 X42.9593 Y35.6573 
G01 X42.9384 Y35.7077 
G01 X42.8981 Y35.7489 
G01 X42.4201 Y36.2269 
G01 X42.4014 Y36.2463 
G01 X42.3952 Y36.2493 
G01 X42.3397 Y36.3066 
G01 X42.3202 Y36.3268 
G01 X42.3015 Y36.3461 
G01 X42.2440 Y36.4030 
G01 X42.2423 Y36.4073 
G01 X42.2377 Y36.4125 
G01 X42.2084 Y36.4867 
G01 X42.1981 Y36.5127 
G01 X42.1882 Y36.5378 
G01 X42.1569 Y36.6124 
G01 X42.1569 Y36.6170 
G01 X42.1547 Y36.6236 
G01 X42.1560 Y36.7033 
G01 X42.1565 Y36.7313 
G01 X42.1569 Y36.7582 
G01 X42.1565 Y36.8392 
G01 X42.1583 Y36.8434 
G01 X42.1588 Y36.8503 
G01 X42.1905 Y36.9234 
G01 X42.2017 Y36.9492 
G01 X42.2124 Y36.9739 
G01 X42.2429 Y37.0488 
G01 X42.2463 Y37.0520 
G01 X42.2493 Y37.0582 
G01 X42.3066 Y37.1137 
G01 X42.3267 Y37.1331 
G01 X42.3461 Y37.1519 
G01 X42.4030 Y37.2094 
G01 X42.4073 Y37.2111 
G01 X42.4283 Y37.2314 
G01 X42.9282 Y37.7152 
G01 X42.9483 Y37.7347 
G01 X42.9677 Y37.7534 
G01 X43.0245 Y37.8109 
G01 X43.0288 Y37.8126 
G01 X43.0340 Y37.8172 
G01 X43.1082 Y37.8465 
G01 X43.1344 Y37.8568 
G01 X43.1593 Y37.8667 
G01 X43.2339 Y37.8980 
G01 X43.2385 Y37.8980 
G01 X43.2451 Y37.9002 
G01 X43.3248 Y37.8989 
G01 X43.3528 Y37.8984 
G01 X43.3798 Y37.8980 
G01 X43.9083 Y37.8984 
G01 X43.9602 Y37.9199 
G01 X43.9999 Y37.9596 
G01 X44.0018 Y37.9641 
G01 X44.1454 Y37.9641 
G01 X44.1454 Y37.9273 
G01 X44.1553 Y37.9034 
G01 X44.1736 Y37.8851 
G01 X44.1975 Y37.8752 
G01 X44.9236 Y37.8752 
G01 X45.9304 Y37.8750 
G01 X45.9449 Y37.8400 
G01 X45.9846 Y37.8002 
G01 X46.1266 Y37.6583 
G01 X46.1266 Y36.9777 
G01 X45.9449 Y36.7960 
G01 X45.9234 Y36.7441 
G01 X45.9234 Y36.6719 
G01 X45.7994 Y36.6719 
G01 X45.7994 Y36.7087 
G01 X45.7895 Y36.7326 
G01 X45.7712 Y36.7509 
G01 X45.7473 Y36.7608 
G01 X44.1975 Y36.7608 
G01 X44.1736 Y36.7509 
G01 X44.1553 Y36.7326 
G01 X44.1454 Y36.7087 
G01 X44.1454 Y36.3273 
G01 X44.1553 Y36.3034 
G01 X44.1736 Y36.2851 
G01 X44.1975 Y36.2752 
G01 X45.7473 Y36.2752 
G01 X45.7712 Y36.2851 
G01 X45.7895 Y36.3034 
G01 X45.7994 Y36.3273 
G01 X45.7994 Y36.3641 
G01 X45.9388 Y36.3641 
G01 X45.9449 Y36.3494 
G01 X45.9846 Y36.3097 
G01 X46.0365 Y36.2882 
G01 X46.4763 Y36.2882 
G01 X46.5517 Y36.2570 
G01 X46.6483 Y36.2570 
G01 X46.7236 Y36.2882 
G01 X51.2240 Y36.2882 
G01 X51.2759 Y36.3097 
G01 X51.3156 Y36.3494 
G01 X51.4676 Y36.5014 
G01 X51.5073 Y36.5411 
G01 X51.7516 Y36.7854 
G01 X51.9120 Y36.9458 
G01 X52.1216 Y37.0326 
G01 X52.2395 Y37.0326 
G01 X52.2914 Y37.0541 
G01 X52.3123 Y37.0750 
G01 X53.3519 Y37.0750 
G01 X54.0785 Y37.0752 
G01 X54.1024 Y37.0851 
G01 X54.1207 Y37.1034 
G01 X54.1306 Y37.1273 
G01 X54.1306 Y37.1641 
G01 X54.2546 Y37.1641 
G01 X54.2546 Y37.0919 
G01 X54.2761 Y37.0400 
G01 X54.3158 Y37.0002 
G01 X54.4578 Y36.8583 
G01 X54.4578 Y36.3599 
G01 X54.4793 Y36.3080 
G01 X54.5190 Y36.2683 
G01 X54.5709 Y36.2468 
G01 X67.8886 Y36.2468 
G01 X67.9405 Y36.2683 
G01 X67.9802 Y36.3080 
G01 X68.0017 Y36.3599 
G01 X68.0017 Y36.4161 
G01 X67.9802 Y36.4680 
G01 X67.9405 Y36.5077 
G01 X65.7219 Y38.7263 
G01 X65.6700 Y38.7478 
G01 X58.0702 Y38.7478 
G01 X58.0183 Y38.7263 
G01 X57.0870 Y37.7950 
G01 X56.9266 Y37.6346 
G01 X56.7170 Y37.5478 
G01 X54.3677 Y37.5478 
G01 X54.3158 Y37.5263 
G01 X54.2761 Y37.4866 
G01 X54.2700 Y37.4719 
G01 X54.1306 Y37.4719 
G01 X54.1306 Y37.5087 
G01 X54.1207 Y37.5326 
G01 X54.1024 Y37.5509 
G01 X54.0785 Y37.5608 
G01 X53.3524 Y37.5608 
G01 X52.3456 Y37.5610 
G01 X52.3311 Y37.5960 
G01 X52.2914 Y37.6358 
G01 X52.1494 Y37.7777 
G01 X52.1494 Y38.4868 
G01 X52.1506 Y38.4897 
G01 X52.1507 Y38.5178 
G01 X52.1507 Y38.5459 
G01 X52.1494 Y38.5491 
G01 X52.1494 Y39.0081 
G01 X52.1279 Y39.0600 
G01 X52.0882 Y39.0997 
G01 X52.0363 Y39.1212 
G01 X50.4928 Y39.1212 
G01 X50.2832 Y39.2080 
G01 X50.1228 Y39.3684 
G01 X50.0831 Y39.4081 
G01 X49.8656 Y39.6256 
G01 X49.7866 Y39.8163 
G01 X49.7665 Y39.8649 
G01 X49.7651 Y39.8682 
G01 X49.7254 Y39.9079 
G01 X49.6735 Y39.9294 
G01 X49.1692 Y39.9294 
G01 X49.1663 Y39.9306 
G01 X49.1382 Y39.9307 
G01 X49.1101 Y39.9307 
G01 X49.1069 Y39.9294 
G01 X48.3692 Y39.9294 
G01 X48.3663 Y39.9306 
G01 X48.3382 Y39.9307 
G01 X48.3101 Y39.9307 
G01 X48.3069 Y39.9294 
G01 X47.5692 Y39.9294 
G01 X47.5663 Y39.9306 
G01 X47.5382 Y39.9307 
G01 X47.5101 Y39.9307 
G01 X47.5069 Y39.9294 
G01 X46.7977 Y39.9294 
G01 X46.5680 Y40.1591 
G01 X46.5680 Y40.3243 
G01 X46.5465 Y40.3762 
G01 X46.5068 Y40.4159 
G01 X46.4549 Y40.4374 
G01 X45.9723 Y40.4374 
G01 X45.7638 Y40.6459 
G01 X45.7119 Y40.6674 
G01 X37.1604 Y40.6674 
G01 X36.9509 Y40.7542 
G01 X27.7649 Y49.9401 
G01 X27.7252 Y49.9798 
G01 X27.6733 Y50.0013 
G01 X27.6172 Y50.0013 
G01 X27.5653 Y49.9798 
G01 X27.5255 Y49.9401 
G01 X27.5040 Y49.8882 
G01 X27.5040 Y49.7385 
G01 X27.3080 Y49.2653 
G01 X26.9458 Y48.9031 
G01 X26.4726 Y48.7071 
G01 X25.9604 Y48.7071 
G01 X25.5948 Y48.8585 
G01 X25.5386 Y48.8585 
G01 X25.4867 Y48.8370 
G01 X25.4470 Y48.7973 
G01 X25.4255 Y48.7454 
G01 X25.4255 Y48.6893 
G01 X25.4470 Y48.6374 
G01 X25.4867 Y48.5976 
G01 X33.7746 Y40.3097 
G01 X33.8265 Y40.2882 
G01 X43.9923 Y40.2882 
G01 X44.0442 Y40.3097 
G01 X44.0479 Y40.3134 
G01 X45.3889 Y40.3134 
G01 X45.6186 Y40.0837 
G01 X45.6186 Y39.6011 
G01 X45.6401 Y39.5492 
G01 X45.6798 Y39.5095 
G01 X45.7317 Y39.4880 
G01 X45.8969 Y39.4880 
G01 X46.1266 Y39.2583 
G01 X46.1266 Y38.5777 
G01 X45.9449 Y38.3960 
G01 X45.9304 Y38.3610 
G01 X44.9241 Y38.3610 
G01 X44.1975 Y38.3608 
G01 X44.1736 Y38.3509 
G01 X44.1553 Y38.3326 
G01 X44.1454 Y38.3087 
G01 X44.1454 Y38.2719 
G01 X44.0068 Y38.2719 
G01 X43.9999 Y38.2886 
G01 X43.9602 Y38.3283 
G01 X43.9519 Y38.3317 
G01 X43.9083 Y38.3498 
G01 X31.8024 Y38.3498 
G01 X31.7739 Y38.3498 
G01 X31.7463 Y38.3498 
G01 X31.6615 Y38.3496 
G01 X31.5816 Y38.3824 
G01 X31.5555 Y38.3932 
G01 X31.5298 Y38.4038 
G01 X31.4518 Y38.4359 
G01 X31.3901 Y38.4971 
G01 X31.3704 Y38.5168 
G01 X31.3505 Y38.5368 
G01 X23.0662 Y46.7865 
G01 X23.0469 Y46.8058 
G01 X23.0201 Y46.8169 
G01 X22.9950 Y46.8273 
G01 X22.9666 Y46.8273 
G01 X20.9670 Y46.8273 
G01 X20.7575 Y46.9141 
G01 X20.5573 Y47.1142 
G01 X17.7252 Y49.9463 
G01 X17.6733 Y49.9678 
G01 X17.6172 Y49.9678 
G01 X17.5653 Y49.9463 
G01 X17.5255 Y49.9066 
G01 X17.5040 Y49.8547 
G01 X17.5040 Y49.7385 
G01 X17.3080 Y49.2653 
G01 X16.9458 Y48.9031 
G01 X16.4726 Y48.7071 
G01 X15.9604 Y48.7071 
G01 X15.4872 Y48.9031 
G01 X15.1250 Y49.2653 
G01 X14.9289 Y49.7385 
G01 X14.9289 Y52.0415 
G01 X15.1250 Y52.5147 
G01 X15.4872 Y52.8769 
G01 X15.9604 Y53.0729 
G01 X16.4726 Y53.0729 
G01 X16.9458 Y52.8769 
G01 X17.3080 Y52.5147 
G01 X17.5040 Y52.0415 
G01 X17.5040 Y51.5733 
G01 X17.5255 Y51.5214 
G01 X17.5653 Y51.4817 
G01 X17.6172 Y51.4602 
G01 X17.7014 Y51.4602 
G01 X17.9109 Y51.3734 
G01 X19.6781 Y49.6063 
G01 X19.7172 Y49.5671 
G01 X19.7697 Y49.5450 
G01 X19.8259 Y49.5450 
G01 X19.8778 Y49.5665 
G01 X19.9169 Y49.6057 
G01 X19.9390 Y49.6582 
G01 X19.9390 Y49.7143 
G01 X19.9289 Y49.7385 
G01 X19.9289 Y52.0415 
G01 X20.1250 Y52.5147 
G01 X20.4872 Y52.8769 
G01 X20.9604 Y53.0729 
G01 X21.4726 Y53.0729 
G01 X21.9458 Y52.8769 
G01 X22.3080 Y52.5147 
G01 X22.5040 Y52.0415 
G01 X22.5040 Y51.5253 
G01 X22.5249 Y51.4749 
G01 X22.5653 Y51.4337 
G01 X22.6172 Y51.4122 
G01 X22.7110 Y51.3734 
G01 X24.8195 Y49.2648 
G01 X24.8255 Y49.2588 
G01 X24.8592 Y49.2251 
G01 X24.9111 Y49.2036 
G01 X24.9673 Y49.2036 
G01 X25.0192 Y49.2251 
G01 X25.0589 Y49.2648 
G01 X25.0804 Y49.3167 
G01 X25.0804 Y49.3729 
G01 X25.0785 Y49.3775 
G01 X24.9289 Y49.7385 
G01 X24.9289 Y52.0415 
G01 X25.1250 Y52.5147 
G01 X25.4872 Y52.8769 
G01 X25.9604 Y53.0729 
G01 X26.4726 Y53.0729 
G01 X26.9458 Y52.8769 
G01 X27.3080 Y52.5147 
G01 X27.5040 Y52.0415 
G01 X27.5040 Y51.5733 
G01 X27.5255 Y51.5214 
G01 X27.5653 Y51.4817 
G01 X27.6172 Y51.4602 
G01 X27.7349 Y51.4602 
G01 X27.9444 Y51.3734 
G01 X28.1446 Y51.1733 
G01 X37.4885 Y41.8293 
G01 X37.5404 Y41.8078 
G01 X45.6295 Y41.8078 
G01 X45.6814 Y41.8293 
G01 X45.7211 Y41.8690 
G01 X45.7426 Y41.9209 
G01 X45.7426 Y42.0081 
G01 X45.9723 Y42.2378 
G01 X46.1545 Y42.2378 
G01 X46.2049 Y42.2587 
G01 X46.2461 Y42.2990 
G01 X46.2676 Y42.3509 
G01 X46.2676 Y42.4071 
G01 X46.2467 Y42.4575 
G01 X46.2064 Y42.4987 
G01 X45.8068 Y42.8983 
G01 X45.7549 Y42.9198 
G01 X39.2366 Y42.9198 
G01 X39.0270 Y43.0066 
G01 X33.0246 Y49.0090 
G01 X32.9849 Y49.0487 
G01 X32.9336 Y49.0700 
G01 X32.8768 Y49.0702 
G01 X32.8249 Y49.0487 
G01 X32.6793 Y48.9031 
G01 X32.2061 Y48.7071 
G01 X31.6939 Y48.7071 
G01 X31.2207 Y48.9031 
G01 X30.8585 Y49.2653 
G01 X30.6624 Y49.7385 
G01 X30.6624 Y52.0415 
G01 X30.8585 Y52.5147 
G01 X31.2207 Y52.8769 
G01 X31.6939 Y53.0729 
G01 X32.2061 Y53.0729 
G01 X32.6793 Y52.8769 
G01 X33.0415 Y52.5147 
G01 X33.2375 Y52.0415 
G01 X33.2375 Y50.4392 
G01 X33.2590 Y50.3873 
G01 X33.2988 Y50.3476 
G01 X39.5647 Y44.0817 
G01 X39.6166 Y44.0602 
G01 X45.6490 Y44.0602 
G01 X45.7009 Y44.0817 
G01 X45.7406 Y44.1214 
G01 X45.7621 Y44.1733 
G01 X45.7621 Y44.2295 
G01 X45.7406 Y44.2814 
G01 X45.7009 Y44.3211 
G01 X39.7237 Y50.2983 
G01 X39.6718 Y50.3198 
G01 X38.3507 Y50.3198 
G01 X38.2988 Y50.2983 
G01 X38.2590 Y50.2586 
G01 X38.2375 Y50.2067 
G01 X38.2375 Y49.7385 
G01 X38.0415 Y49.2653 
G01 X37.6793 Y48.9031 
G01 X37.2061 Y48.7071 
G01 X36.6939 Y48.7071 
G01 X36.2207 Y48.9031 
G01 X35.8585 Y49.2653 
G01 X35.6624 Y49.7385 
G01 X35.6624 Y52.0415 
G01 X35.8585 Y52.5147 
G01 X36.2207 Y52.8769 
G01 X36.6939 Y53.0729 
G01 X37.2061 Y53.0729 
G01 X37.6793 Y52.8769 
G01 X38.0415 Y52.5147 
G01 X38.2375 Y52.0415 
G01 X38.2375 Y51.5733 
G01 X38.2590 Y51.5214 
G01 X38.2988 Y51.4817 
G01 X38.3507 Y51.4602 
G01 X40.0518 Y51.4602 
G01 X40.2614 Y51.3734 
G01 X40.4615 Y51.1733 
G01 X47.9546 Y43.6801 
G01 X48.0065 Y43.6586 
G01 X48.0627 Y43.6586 
G01 X48.1146 Y43.6801 
G01 X48.1543 Y43.7199 
G01 X48.1758 Y43.7718 
G01 X48.1758 Y44.2560 
G01 X48.1543 Y44.3079 
G01 X48.1146 Y44.3476 
G01 X38.6538 Y53.8083 
G01 X38.6020 Y53.8298 
G01 X14.4456 Y53.8298 
G01 X14.3937 Y53.8083 
G01 X11.7880 Y51.2027 
G01 X11.7665 Y51.1508 
G01 X11.7665 Y49.7385 
G01 X11.5705 Y49.2653 
G01 X11.2083 Y48.9031 
G01 X11.1104 Y48.8626 
G01 X11.0707 Y48.8228 
G01 X11.0492 Y48.7709 
G01 X11.0492 Y48.1266 
G01 X11.0707 Y48.0747 
G01 X11.1104 Y48.0350 
G01 X16.3957 Y42.7497 
G01 X16.4476 Y42.7282 
G01 X17.8655 Y42.7282 
G01 X18.0952 Y42.4985 
G01 X18.0952 Y40.3735 
G01 X17.8528 Y40.1312 
G01 X17.8314 Y40.1223 
G01 X17.7917 Y40.0826 
G01 X17.7702 Y40.0307 
G01 X17.7702 Y39.7067 
G01 X17.7917 Y39.6548 
G01 X17.8314 Y39.6151 
G01 X17.8833 Y39.5936 
G01 X17.9435 Y39.5936 
G01 X18.1732 Y39.3639 
G01 X18.1732 Y37.4389 
G01 X17.9435 Y37.2092 
G01 X15.8185 Y37.2092 
G01 X15.5888 Y37.4389 
G01 X15.5888 Y39.3639 
G01 X15.8185 Y39.5936 
G01 X16.5167 Y39.5936 
G01 X16.5686 Y39.6151 
G01 X16.6083 Y39.6548 
G01 X16.6298 Y39.7067 
G01 X16.6298 Y40.0307 
G01 X16.6083 Y40.0826 
G01 X16.5686 Y40.1223 
G01 X16.5167 Y40.1438 
G01 X15.9405 Y40.1438 
G01 X15.7108 Y40.3735 
G01 X15.7108 Y41.7914 
G01 X15.6893 Y41.8433 
G01 X15.5164 Y42.0162 
G01 X15.4645 Y42.0377 
G01 X15.4083 Y42.0377 
G01 X15.3564 Y42.0162 
G01 X15.3167 Y41.9765 
G01 X15.2952 Y41.9246 
G01 X15.2952 Y40.3735 
G01 X15.0655 Y40.1438 
G01 X13.1405 Y40.1438 
G01 X12.9108 Y40.3735 
G01 X12.9108 Y41.7914 
G01 X12.8893 Y41.8433 
G01 X12.8496 Y41.8830 
G01 X5.9873  Y48.7453 
G01 X5.9354  Y48.7668 
G01 X5.8792  Y48.7668 
G01 X5.7351  Y48.7071 
G01 X5.2229  Y48.7071 
G01 X4.7497  Y48.9031 
G01 X4.3875  Y49.2653 
G01 X4.1914  Y49.7385 
G01 X4.1914  Y52.0415 
G01 X4.3875  Y52.5147 
G01 X4.7497  Y52.8769 
G01 X5.2229  Y53.0729 
G01 X5.7351  Y53.0729 
G01 X6.2083  Y52.8769 
G01 X6.5705  Y52.5147 
G01 X6.7665  Y52.0415 
G01 X6.7665  Y49.7385 
G01 X6.7451  Y49.6868 
G01 X6.7451  Y49.6307 
G01 X6.7666  Y49.5788 
G01 X6.8063  Y49.5390 
G01 X13.5957 Y42.7497 
G01 X13.6476 Y42.7282 
G01 X14.4916 Y42.7282 
G01 X14.5435 Y42.7497 
G01 X14.5832 Y42.7894 
G01 X14.6047 Y42.8413 
G01 X14.6047 Y42.8975 
G01 X14.5832 Y42.9494 
G01 X14.5435 Y42.9891 
G01 X9.9956  Y47.5370 
G01 X9.9088  Y47.7466 
G01 X9.9088  Y48.7709 
G01 X9.8873  Y48.8228 
G01 X9.8476  Y48.8626 
G01 X9.7497  Y48.9031 
G01 X9.3875  Y49.2653 
G01 X9.1914  Y49.7385 
G01 X9.1914  Y52.0415 
G01 X9.3875  Y52.5147 
G01 X9.7497  Y52.8769 
G01 X10.2229 Y53.0729 
G01 X10.7351 Y53.0729 
G01 X11.2083 Y52.8769 
G01 X11.4092 Y52.6760 
G01 X11.4446 Y52.6406 
G01 X11.4489 Y52.6363 
G01 X11.5008 Y52.6148 
G01 X11.5570 Y52.6148 
G01 X11.6089 Y52.6363 
G01 X11.6486 Y52.6760 
G01 X13.6956 Y54.7230 
G01 X13.8560 Y54.8834 
G01 X14.0656 Y54.9702 
G01 X38.9820 Y54.9702 
G01 X39.1915 Y54.8834 
G01 X39.3917 Y54.6833 
G01 X44.5880 Y49.4869 
G01 X44.6277 Y49.4472 
G01 X44.6790 Y49.4260 
G01 X44.7358 Y49.4257 
G01 X44.7877 Y49.4472 
G01 X44.8274 Y49.4869 
G01 X44.8487 Y49.5382 
G01 X44.8489 Y49.5950 
G01 X44.7894 Y49.7385 
G01 X44.7894 Y52.0415 
G01 X44.9855 Y52.5147 
G01 X45.3477 Y52.8769 
G01 X45.8209 Y53.0729 
G01 X46.3331 Y53.0729 
G01 X46.8063 Y52.8769 
G01 X47.1685 Y52.5147 
G01 X47.3645 Y52.0415 
G01 X47.3645 Y50.4392 
G01 X47.3860 Y50.3873 
G01 X47.4258 Y50.3476 
G01 X50.0214 Y47.7520 
G01 X50.1082 Y47.5424 
G01 X50.1082 Y42.3509 
G01 X50.1297 Y42.2990 
G01 X50.1694 Y42.2593 
G01 X50.2213 Y42.2378 
G01 X50.4547 Y42.2378 
G01 X50.5066 Y42.2593 
G01 X50.5463 Y42.2990 
G01 X50.5678 Y42.3509 
G01 X50.5678 Y48.7457 
G01 X50.5463 Y48.7976 
G01 X50.5066 Y48.8373 
G01 X50.4835 Y48.8468 
G01 X50.3477 Y48.9031 
G01 X49.9855 Y49.2653 
G01 X49.7894 Y49.7385 
G01 X49.7894 Y52.0415 
G01 X49.9855 Y52.5147 
G01 X50.3477 Y52.8769 
G01 X50.8209 Y53.0729 
G01 X51.3331 Y53.0729 
G01 X51.8063 Y52.8769 
G01 X52.1685 Y52.5147 
G01 X52.3645 Y52.0415 
G01 X52.3645 Y49.7385 
G01 X52.1685 Y49.2653 
G01 X51.8063 Y48.9031 
G01 X51.7694 Y48.8878 
G01 X51.7297 Y48.8481 
G01 X51.7082 Y48.7962 
G01 X51.7082 Y47.6404 
G01 X51.7297 Y47.5885 
G01 X51.7694 Y47.5488 
G01 X51.8213 Y47.5273 
G01 X51.8775 Y47.5273 
G01 X51.9294 Y47.5488 
G01 X51.9691 Y47.5885 
G01 X54.7680 Y50.3873 
G01 X54.7894 Y50.4392 
G01 X54.7894 Y52.0415 
G01 X54.9855 Y52.5147 
G01 X55.3477 Y52.8769 
G01 X55.8209 Y53.0729 
G01 X56.3331 Y53.0729 
G01 X56.8063 Y52.8769 
G01 X57.1685 Y52.5147 
G01 X57.3645 Y52.0415 
G01 X57.3645 Y49.7385 
G01 X57.1685 Y49.2653 
G01 X56.8063 Y48.9031 
G01 X56.3331 Y48.7071 
G01 X55.8209 Y48.7071 
G01 X55.3477 Y48.9031 
G01 X55.2021 Y49.0487 
G01 X55.1502 Y49.0702 
G01 X55.0940 Y49.0702 
G01 X55.0421 Y49.0487 
G01 X55.0024 Y49.0090 
G01 X52.5297 Y46.5363 
G01 X52.5082 Y46.4844 
G01 X52.5082 Y42.0637 
G01 X52.5297 Y42.0118 
G01 X52.5334 Y42.0081 
G01 X52.5334 Y41.4234 
G01 X52.5549 Y41.3715 
G01 X52.5946 Y41.3318 
G01 X52.6465 Y41.3103 
G01 X52.7027 Y41.3103 
G01 X52.7546 Y41.3318 
G01 X52.7943 Y41.3715 
G01 X58.2157 Y46.7929 
G01 X58.2372 Y46.8448 
G01 X58.2372 Y51.6492 
G01 X58.3240 Y51.8588 
G01 X60.3384 Y53.8732 
G01 X60.4988 Y54.0336 
G01 X60.7084 Y54.1204 
G01 X70.0788 Y54.1204 
G01 X70.2884 Y54.0336 
G01 X71.3604 Y52.9616 
G01 X71.5208 Y52.8012 
G01 X71.6076 Y52.5916 
G01 X71.6076 Y36.5716 
G01 X71.6291 Y36.5197 
G01 X71.6688 Y36.4800 
G01 X82.1114 Y26.0374 
G01 X82.1633 Y26.0159 
G01 X82.2194 Y26.0159 
G01 X82.4084 Y26.0942 
G01 X84.3916 Y26.0942 
G01 X84.8158 Y25.9185 
G01 X85.1405 Y25.5938 
G01 X85.3162 Y25.1696 
G01 X85.3162 Y24.7104 
G01 X85.1405 Y24.2862 
G01 X84.8158 Y23.9615 
G01 X84.4529 Y23.8112 
G01 X84.4021 Y23.7902 
G01 X84.3613 Y23.7500 
G01 X84.3398 Y23.6981 
G01 X84.3398 Y23.6419 
G01 X84.3607 Y23.5915 
G01 X84.4010 Y23.5503 
G01 X84.4529 Y23.5288 
G01 X84.8158 Y23.3785 
G01 X85.1405 Y23.0538 
G01 X85.3162 Y22.6296 
G01 X85.3162 Y22.1704 
G01 X85.1405 Y21.7462 
G01 X84.8158 Y21.4215 
G01 X84.4529 Y21.2712 
G01 X84.4021 Y21.2502 
G01 X84.3613 Y21.2100 
G01 X84.3398 Y21.1581 
G01 X84.3398 Y21.1019 
G01 X84.3607 Y21.0515 
G01 X84.4010 Y21.0103 
G01 X84.4529 Y20.9888 
G01 X84.8158 Y20.8385 
G01 X85.1405 Y20.5138 
G01 X85.3162 Y20.0896 
G01 X85.3162 Y19.6304 
G01 X85.1405 Y19.2062 
G01 X84.8158 Y18.8815 
G01 X84.3916 Y18.7058 
G01 X82.4084 Y18.7058 
G01 X81.9842 Y18.8815 
G01 X81.6595 Y19.2062 
G01 X81.6502 Y19.2286 
G01 X81.6105 Y19.2683 
G01 X81.6047 Y19.2707 
G01 X81.5586 Y19.2898 
G01 X80.8866 Y19.2898 
G01 X80.6770 Y19.3766 
G01 X80.3770 Y19.6766 
G01 X80.2166 Y19.8370 
G01 X80.1298 Y20.0466 
G01 X80.1298 Y22.6182 
G01 X80.1083 Y22.6701 
G01 X80.0686 Y22.7098 
G01 X75.1082 Y27.6702 
G01 X75.0968 Y27.6851 
G01 X75.0885 Y27.6899 
G01 X75.0818 Y27.6966 
G01 X75.0644 Y27.7038 
G01 X75.0481 Y27.7132 
G01 X75.0387 Y27.7145 
G01 X75.0299 Y27.7181 
G01 X75.0111 Y27.7181 
G01 X74.9924 Y27.7205 
G01 X74.9832 Y27.7181 
G01 X74.9737 Y27.7181 
G01 X74.9563 Y27.7109 
G01 X74.9382 Y27.7060 
G01 X74.9306 Y27.7002 
G01 X74.9219 Y27.6966 
G01 X74.9085 Y27.6833 
G01 X74.8936 Y27.6718 
G01 X74.8888 Y27.6636 
G01 X74.8821 Y27.6569 
G01 X74.8749 Y27.6395 
G01 X74.8655 Y27.6232 
G01 X74.8643 Y27.6137 
G01 X74.8606 Y27.6050 
G01 X74.8606 Y27.5861 
G01 X74.8582 Y27.5675 
G01 X74.8606 Y27.5583 
G01 X74.8606 Y27.5488 
G01 X74.8678 Y27.5314 
G01 X74.8775 Y27.4954 
G01 X74.8775 Y26.7879 
G01 X74.7535 Y26.7879 
G01 X74.7535 Y27.4834 
G01 X74.7436 Y27.5073 
G01 X74.7253 Y27.5256 
G01 X74.7014 Y27.5355 
G01 X74.1059 Y27.5355 
G01 X74.1059 Y27.6595 
G01 X74.7134 Y27.6595 
G01 X74.7494 Y27.6498 
G01 X74.7668 Y27.6426 
G01 X74.7763 Y27.6426 
G01 X74.7855 Y27.6402 
G01 X74.8041 Y27.6426 
G01 X74.8230 Y27.6426 
G01 X74.8317 Y27.6463 
G01 X74.8412 Y27.6475 
G01 X74.8575 Y27.6569 
G01 X74.8749 Y27.6641 
G01 X74.8816 Y27.6708 
G01 X74.8898 Y27.6756 
G01 X74.9013 Y27.6905 
G01 X74.9146 Y27.7039 
G01 X74.9182 Y27.7126 
G01 X74.9240 Y27.7202 
G01 X74.9289 Y27.7383 
G01 X74.9361 Y27.7557 
G01 X74.9361 Y27.7652 
G01 X74.9385 Y27.7744 
G01 X74.9361 Y27.7931 
G01 X74.9361 Y27.8119 
G01 X74.9325 Y27.8207 
G01 X74.9312 Y27.8301 
G01 X74.9218 Y27.8464 
G01 X74.9146 Y27.8638 
G01 X74.9079 Y27.8705 
G01 X74.9031 Y27.8788 
G01 X74.8882 Y27.8902 
G01 X67.6935 Y35.0849 
G01 X67.6416 Y35.1064 
G01 X57.9108 Y35.1064 
G01 X57.8589 Y35.0849 
G01 X57.8192 Y35.0452 
G01 X57.7977 Y34.9933 
G01 X57.7977 Y34.9371 
G01 X57.8192 Y34.8852 
G01 X57.8589 Y34.8455 
G01 X65.2515 Y27.4529 
G01 X65.3034 Y27.4314 
G01 X69.7832 Y27.4314 
G01 X69.8351 Y27.4529 
G01 X69.8748 Y27.4926 
G01 X69.8963 Y27.5445 
G01 X69.8963 Y27.6330 
G01 X70.1260 Y27.8627 
G01 X72.0510 Y27.8627 
G01 X72.2807 Y27.6330 
G01 X72.2807 Y25.5080 
G01 X72.0510 Y25.2783 
G01 X71.9833 Y25.2783 
G01 X71.9314 Y25.2568 
G01 X71.8917 Y25.2171 
G01 X71.8702 Y25.1652 
G01 X71.8702 Y24.9488 
G01 X71.8917 Y24.8969 
G01 X71.9314 Y24.8572 
G01 X71.9833 Y24.8357 
G01 X72.1010 Y24.8357 
G01 X72.3307 Y24.6060 
G01 X72.3307 Y22.4810 
G01 X72.1214 Y22.2717 
G01 X72.0864 Y22.2368 
G01 X72.0816 Y22.2320 
G01 X72.0601 Y22.1801 
G01 X72.0601 Y22.1239 
G01 X72.0816 Y22.0720 
G01 X72.1214 Y22.0323 
G01 X72.2307 Y21.9230 
G01 X72.2307 Y20.3061 
G01 X72.2522 Y20.2542 
G01 X72.2919 Y20.2145 
G01 X72.6283 Y19.8781 
G01 X72.6802 Y19.8566 
G01 X72.7364 Y19.8566 
G01 X72.7868 Y19.8774 
G01 X72.8280 Y19.9178 
G01 X72.8495 Y19.9697 
G01 X72.8495 Y20.0259 
G01 X72.8495 Y20.6431 
G01 X72.9735 Y20.6431 
G01 X72.9735 Y19.9476 
G00 Z2.5400  
G00 X56.5029 Y38.3610 
G01 Z-0.0350 F254   
G01 X53.2553 Y38.3610 F508   
G01 X53.2548 Y38.3608 
G01 X52.5287 Y38.3608 
G01 X52.5048 Y38.3509 
G01 X52.4865 Y38.3326 
G01 X52.4766 Y38.3087 
G01 X52.4766 Y37.9273 
G01 X52.4865 Y37.9034 
G01 X52.5048 Y37.8851 
G01 X52.5287 Y37.8752 
G01 X53.2548 Y37.8752 
G01 X56.6519 Y37.8750 
G01 X56.7412 Y37.9120 
G01 X56.8096 Y37.9804 
G01 X57.9043 Y39.0750 
G01 X65.8359 Y39.0750 
G01 X81.9909 Y22.9201 
G01 X81.9051 Y22.7917 
G01 X81.8428 Y22.6412 
G01 X81.8110 Y22.4815 
G01 X81.8110 Y22.3185 
G01 X81.8428 Y22.1588 
G01 X81.9051 Y22.0083 
G01 X81.9956 Y21.8728 
G01 X82.1108 Y21.7576 
G01 X82.2463 Y21.6671 
G01 X82.3968 Y21.6048 
G01 X82.5565 Y21.5730 
G01 X84.2435 Y21.5730 
G01 X84.4032 Y21.6048 
G01 X84.5537 Y21.6671 
G01 X84.6892 Y21.7576 
G01 X84.8044 Y21.8728 
G01 X84.8949 Y22.0083 
G01 X84.9572 Y22.1588 
G01 X84.9890 Y22.3185 
G01 X84.9890 Y22.4815 
G01 X84.9572 Y22.6412 
G01 X84.8949 Y22.7917 
G01 X84.8044 Y22.9272 
G01 X84.6892 Y23.0424 
G01 X84.5537 Y23.1329 
G01 X84.4032 Y23.1952 
G01 X84.2435 Y23.2270 
G01 X82.5565 Y23.2270 
G01 X82.4020 Y23.1963 
G01 X66.0742 Y39.5240 
G01 X65.9849 Y39.5610 
G01 X57.7553 Y39.5610 
G01 X57.6660 Y39.5240 
G01 X57.5976 Y39.4556 
G01 X56.5029 Y38.3610 
G00 Z2.5400  
G00 X39.4507 Y43.7330 
G01 Z-0.0350 F254   
G01 X32.9103 Y50.2733 F508   
G01 X32.9103 Y51.8799 
G01 X32.8734 Y52.0655 
G01 X32.8010 Y52.2402 
G01 X32.6960 Y52.3975 
G01 X32.5622 Y52.5313 
G01 X32.4049 Y52.6364 
G01 X32.2301 Y52.7088 
G01 X32.0446 Y52.7457 
G01 X31.8554 Y52.7457 
G01 X31.6699 Y52.7088 
G01 X31.4951 Y52.6364 
G01 X31.3378 Y52.5313 
G01 X31.2040 Y52.3975 
G01 X31.0990 Y52.2402 
G01 X31.0266 Y52.0655 
G01 X30.9897 Y51.8799 
G01 X30.9897 Y49.9001 
G01 X31.0266 Y49.7145 
G01 X31.0990 Y49.5398 
G01 X31.2040 Y49.3825 
G01 X31.3378 Y49.2487 
G01 X31.4951 Y49.1436 
G01 X31.6699 Y49.0712 
G01 X31.8554 Y49.0343 
G01 X32.0446 Y49.0343 
G01 X32.2301 Y49.0712 
G01 X32.4049 Y49.1436 
G01 X32.5622 Y49.2487 
G01 X32.6960 Y49.3825 
G01 X32.8010 Y49.5398 
G01 X32.8466 Y49.6497 
G01 X39.2124 Y43.2840 
G01 X39.3017 Y43.2470 
G01 X45.9208 Y43.2470 
G01 X46.8950 Y42.2728 
G01 X46.8950 Y41.0353 
G01 X46.8952 Y40.3087 
G01 X46.9051 Y40.2848 
G01 X46.9234 Y40.2665 
G01 X46.9473 Y40.2566 
G01 X47.3287 Y40.2566 
G01 X47.3526 Y40.2665 
G01 X47.3709 Y40.2848 
G01 X47.3808 Y40.3087 
G01 X47.3808 Y41.0348 
G01 X47.3810 Y42.4218 
G01 X47.3440 Y42.5111 
G01 X46.1591 Y43.6960 
G01 X46.0698 Y43.7330 
G01 X45.9731 Y43.7330 
G01 X39.4507 Y43.7330 
G00 Z2.5400  
G00 X82.5565 Y24.1130 
G01 Z-0.0350 F254   
G01 X84.2435 Y24.1130 F508   
G01 X84.4032 Y24.1448 
G01 X84.5537 Y24.2071 
G01 X84.6892 Y24.2976 
G01 X84.8044 Y24.4128 
G01 X84.8949 Y24.5483 
G01 X84.9572 Y24.6988 
G01 X84.9890 Y24.8585 
G01 X84.9890 Y25.0215 
G01 X84.9572 Y25.1812 
G01 X84.8949 Y25.3317 
G01 X84.8044 Y25.4672 
G01 X84.6892 Y25.5824 
G01 X84.5537 Y25.6729 
G01 X84.4032 Y25.7352 
G01 X84.2435 Y25.7670 
G01 X82.5565 Y25.7670 
G01 X82.3968 Y25.7352 
G01 X82.2463 Y25.6729 
G01 X82.1108 Y25.5824 
G01 X82.1072 Y25.5788 
G01 X71.2804 Y36.4057 
G01 X71.2804 Y52.5265 
G01 X71.2434 Y52.6158 
G01 X71.1750 Y52.6842 
G01 X70.1030 Y53.7562 
G01 X70.0137 Y53.7932 
G01 X60.7735 Y53.7932 
G01 X60.6842 Y53.7562 
G01 X60.6158 Y53.6878 
G01 X58.6014 Y51.6734 
G01 X58.5644 Y51.5841 
G01 X58.5644 Y46.6789 
G01 X51.8199 Y39.9344 
G01 X50.7069 Y39.9344 
G01 X50.5920 Y40.0493 
G01 X50.5920 Y41.0758 
G01 X50.5931 Y41.1211 
G01 X50.5920 Y41.1240 
G01 X50.5920 Y41.1271 
G01 X50.5808 Y41.1541 
G01 X50.5808 Y41.8585 
G01 X50.5709 Y41.8824 
G01 X50.5526 Y41.9007 
G01 X50.5287 Y41.9106 
G01 X50.1473 Y41.9106 
G01 X50.1234 Y41.9007 
G01 X50.1051 Y41.8824 
G01 X50.0952 Y41.8585 
G01 X50.0952 Y41.0948 
G01 X50.0939 Y41.0412 
G01 X50.0952 Y41.0378 
G01 X50.0952 Y40.3087 
G01 X50.1051 Y40.2848 
G01 X50.1060 Y39.9003 
G01 X50.1430 Y39.8110 
G01 X50.4002 Y39.5538 
G01 X50.4686 Y39.4854 
G01 X50.5579 Y39.4484 
G01 X51.9689 Y39.4484 
G01 X52.0582 Y39.4854 
G01 X58.9450 Y46.3722 
G01 X59.0134 Y46.4406 
G01 X59.0504 Y46.5299 
G01 X59.0504 Y51.4351 
G01 X60.9225 Y53.3072 
G01 X69.8647 Y53.3072 
G01 X70.7944 Y52.3775 
G01 X70.7944 Y36.2567 
G01 X70.8314 Y36.1673 
G01 X81.8386 Y25.1602 
G01 X81.8110 Y25.0215 
G01 X81.8110 Y24.8585 
G01 X81.8428 Y24.6988 
G01 X81.9051 Y24.5483 
G01 X81.9956 Y24.4128 
G01 X82.1108 Y24.2976 
G01 X82.2463 Y24.2071 
G01 X82.3968 Y24.1448 
G01 X82.5565 Y24.1130 
G00 Z2.5400  
G00 X82.5565 Y19.0330 
G01 Z-0.0350 F254   
G01 X84.2435 Y19.0330 F508   
G01 X84.4032 Y19.0648 
G01 X84.5537 Y19.1271 
G01 X84.6892 Y19.2176 
G01 X84.8044 Y19.3328 
G01 X84.8949 Y19.4683 
G01 X84.9572 Y19.6188 
G01 X84.9890 Y19.7785 
G01 X84.9890 Y19.9415 
G01 X84.9572 Y20.1012 
G01 X84.8949 Y20.2517 
G01 X84.8044 Y20.3872 
G01 X84.6892 Y20.5024 
G01 X84.5537 Y20.5929 
G01 X84.4032 Y20.6552 
G01 X84.2435 Y20.6870 
G01 X82.5565 Y20.6870 
G01 X82.3968 Y20.6552 
G01 X82.2463 Y20.5929 
G01 X82.1108 Y20.5024 
G01 X81.9956 Y20.3872 
G01 X81.9051 Y20.2517 
G01 X81.8435 Y20.1030 
G01 X81.1007 Y20.1030 
G01 X80.9430 Y20.2607 
G01 X80.9430 Y22.9331 
G01 X80.9060 Y23.0224 
G01 X68.0458 Y35.8826 
G01 X67.9565 Y35.9196 
G01 X54.1261 Y35.9196 
G01 X54.1207 Y35.9326 
G01 X54.1024 Y35.9509 
G01 X54.0785 Y35.9608 
G01 X53.3524 Y35.9608 
G01 X53.2553 Y35.9610 
G01 X52.5287 Y35.9608 
G01 X52.5048 Y35.9509 
G01 X52.4865 Y35.9326 
G01 X52.4766 Y35.9087 
G01 X52.4766 Y35.5273 
G01 X52.4865 Y35.5034 
G01 X52.5048 Y35.4851 
G01 X52.5287 Y35.4752 
G01 X53.2027 Y35.4752 
G01 X53.2074 Y35.4706 
G01 X53.2967 Y35.4336 
G01 X67.8075 Y35.4336 
G01 X80.4570 Y22.7841 
G01 X80.4570 Y20.1117 
G01 X80.4940 Y20.0223 
G01 X80.5624 Y19.9540 
G01 X80.8624 Y19.6540 
G01 X80.9517 Y19.6170 
G01 X81.8435 Y19.6170 
G01 X81.9051 Y19.4683 
G01 X81.9956 Y19.3328 
G01 X82.1108 Y19.2176 
G01 X82.2463 Y19.1271 
G01 X82.3968 Y19.0648 
G01 X82.5565 Y19.0330 
G00 Z2.5400  
G00 X62.7603 Y49.9001 
G01 Z-0.0350 F254   
G01 X62.7603 Y51.8799 F508   
G01 X62.7234 Y52.0655 
G01 X62.6510 Y52.2402 
G01 X62.5460 Y52.3975 
G01 X62.4122 Y52.5313 
G01 X62.2549 Y52.6364 
G01 X62.0801 Y52.7088 
G01 X61.8946 Y52.7457 
G01 X61.7054 Y52.7457 
G01 X61.5199 Y52.7088 
G01 X61.3451 Y52.6364 
G01 X61.1878 Y52.5313 
G01 X61.0540 Y52.3975 
G01 X60.9490 Y52.2402 
G01 X60.8766 Y52.0655 
G01 X60.8397 Y51.8799 
G01 X60.8397 Y49.9001 
G01 X60.8766 Y49.7145 
G01 X60.9490 Y49.5398 
G01 X61.0540 Y49.3825 
G01 X61.1878 Y49.2487 
G01 X61.3451 Y49.1436 
G01 X61.5199 Y49.0712 
G01 X61.5570 Y49.0638 
G01 X61.5570 Y48.0611 
G01 X53.4821 Y39.9862 
G01 X53.0367 Y39.9862 
G01 X53.0128 Y39.9763 
G01 X52.9945 Y39.9580 
G01 X52.9846 Y39.9341 
G01 X52.9846 Y39.5019 
G01 X52.9945 Y39.4780 
G01 X53.0128 Y39.4597 
G01 X53.0367 Y39.4498 
G01 X54.0785 Y39.4498 
G01 X54.1024 Y39.4597 
G01 X54.1207 Y39.4780 
G01 X54.1306 Y39.5019 
G01 X54.1306 Y39.9341 
G01 X54.1267 Y39.9435 
G01 X61.9376 Y47.7544 
G01 X62.0060 Y47.8227 
G01 X62.0430 Y47.9121 
G01 X62.0430 Y49.0638 
G01 X62.0801 Y49.0712 
G01 X62.2549 Y49.1436 
G01 X62.4122 Y49.2487 
G01 X62.5460 Y49.3825 
G01 X62.6510 Y49.5398 
G01 X62.7234 Y49.7145 
G01 X62.7603 Y49.9001 
G00 Z2.5400  
G00 X67.7603 Y49.9001 
G01 Z-0.0350 F254   
G01 X67.7603 Y51.8799 F508   
G01 X67.7234 Y52.0655 
G01 X67.6510 Y52.2402 
G01 X67.5460 Y52.3975 
G01 X67.4122 Y52.5313 
G01 X67.2549 Y52.6364 
G01 X67.0801 Y52.7088 
G01 X66.8946 Y52.7457 
G01 X66.7054 Y52.7457 
G01 X66.5199 Y52.7088 
G01 X66.3451 Y52.6364 
G01 X66.1878 Y52.5313 
G01 X66.0540 Y52.3975 
G01 X65.9489 Y52.2402 
G01 X65.8766 Y52.0655 
G01 X65.8397 Y51.8799 
G01 X65.8397 Y50.2733 
G01 X54.7273 Y39.1610 
G01 X53.2553 Y39.1610 
G01 X52.5287 Y39.1608 
G01 X52.5048 Y39.1509 
G01 X52.4865 Y39.1326 
G01 X52.4766 Y39.1087 
G01 X52.4766 Y38.7273 
G01 X52.4865 Y38.7034 
G01 X52.5048 Y38.6851 
G01 X52.5287 Y38.6752 
G01 X53.2548 Y38.6752 
G01 X54.8763 Y38.6750 
G01 X54.9656 Y38.7120 
G01 X65.9034 Y49.6497 
G01 X65.9489 Y49.5398 
G01 X66.0540 Y49.3825 
G01 X66.1878 Y49.2487 
G01 X66.3451 Y49.1436 
G01 X66.5199 Y49.0712 
G01 X66.7054 Y49.0343 
G01 X66.8946 Y49.0343 
G01 X67.0801 Y49.0712 
G01 X67.2549 Y49.1436 
G01 X67.4122 Y49.2487 
G01 X67.5460 Y49.3825 
G01 X67.6510 Y49.5398 
G01 X67.7234 Y49.7145 
G01 X67.7603 Y49.9001 
G00 Z2.5400  
G00 X62.9979 Y8.3919  
G01 Z-0.0350 F254   
G01 X62.9979 Y7.6450  F508   
G01 X59.9186 Y7.6450  
G01 X59.9186 Y8.3919  
G01 X59.8817 Y8.5775  
G01 X59.8093 Y8.7522  
G01 X59.7042 Y8.9095  
G01 X59.5704 Y9.0433  
G01 X59.4131 Y9.1484  
G01 X59.2383 Y9.2208  
G01 X59.0528 Y9.2577  
G01 X58.8636 Y9.2577  
G01 X58.6781 Y9.2208  
G01 X58.5033 Y9.1484  
G01 X58.3460 Y9.0433  
G01 X58.2123 Y8.9095  
G01 X58.1072 Y8.7522  
G01 X58.0348 Y8.5775  
G01 X57.9979 Y8.3919  
G01 X57.9979 Y7.6450  
G01 X57.9264 Y7.6450  
G01 X50.6630 Y14.9341 
G01 X50.6630 Y18.9475 
G01 X51.7464 Y18.9475 
G01 X51.7703 Y18.9574 
G01 X51.7886 Y18.9757 
G01 X51.7985 Y18.9996 
G01 X51.7985 Y20.8254 
G01 X51.7886 Y20.8493 
G01 X51.7703 Y20.8676 
G01 X51.7464 Y20.8775 
G01 X51.1360 Y20.8775 
G01 X51.1360 Y22.3050 
G01 X51.7059 Y22.3050 
G01 X51.7298 Y22.3149 
G01 X51.7481 Y22.3332 
G01 X51.7580 Y22.3571 
G01 X51.7580 Y24.1829 
G01 X51.7481 Y24.2068 
G01 X51.7298 Y24.2251 
G01 X51.7059 Y24.2350 
G01 X50.6530 Y24.2350 
G01 X50.6530 Y31.6328 
G01 X50.6576 Y31.6611 
G01 X50.6530 Y31.6806 
G01 X50.6530 Y31.7007 
G01 X50.6420 Y31.7272 
G01 X50.6354 Y31.7552 
G01 X50.6237 Y31.7715 
G01 X50.6160 Y31.7900 
G01 X50.5957 Y31.8103 
G01 X50.5810 Y31.8308 
G01 X50.5810 Y32.8007 
G01 X50.5808 Y33.5273 
G01 X50.5709 Y33.5512 
G01 X50.5526 Y33.5695 
G01 X50.5287 Y33.5794 
G01 X50.1473 Y33.5794 
G01 X50.1234 Y33.5695 
G01 X50.1051 Y33.5512 
G01 X50.0952 Y33.5273 
G01 X50.0952 Y32.8012 
G01 X50.0950 Y31.7720 
G01 X50.0904 Y31.7437 
G01 X50.0950 Y31.7242 
G01 X50.0950 Y31.7041 
G01 X50.1060 Y31.6776 
G01 X50.1126 Y31.6496 
G01 X50.1243 Y31.6333 
G01 X50.1320 Y31.6148 
G01 X50.1523 Y31.5945 
G01 X50.1670 Y31.5740 
G01 X50.1670 Y24.2350 
G01 X50.0801 Y24.2350 
G01 X50.0562 Y24.2251 
G01 X50.0379 Y24.2068 
G01 X50.0280 Y24.1829 
G01 X50.0280 Y22.3571 
G01 X50.0379 Y22.3332 
G01 X50.0562 Y22.3149 
G01 X50.0801 Y22.3050 
G01 X50.6500 Y22.3050 
G01 X50.6500 Y20.8775 
G01 X50.1206 Y20.8775 
G01 X50.0967 Y20.8676 
G01 X50.0784 Y20.8493 
G01 X50.0685 Y20.8254 
G01 X50.0685 Y18.9996 
G01 X50.0784 Y18.9757 
G01 X50.0967 Y18.9574 
G01 X50.1206 Y18.9475 
G01 X50.1770 Y18.9475 
G01 X50.1770 Y14.8342 
G01 X50.1769 Y14.7858 
G01 X50.1954 Y14.7410 
G01 X50.2138 Y14.6964 
G01 X50.2482 Y14.6619 
G01 X57.6194 Y7.2646  
G01 X57.6540 Y7.2299  
G01 X57.6875 Y7.1962  
G01 X57.7320 Y7.1777  
G01 X57.7768 Y7.1591  
G01 X57.8251 Y7.1590  
G01 X57.8734 Y7.1589  
G01 X57.9979 Y7.1590  
G01 X57.9979 Y6.4121  
G01 X58.0348 Y6.2265  
G01 X58.1072 Y6.0518  
G01 X58.2123 Y5.8945  
G01 X58.3460 Y5.7607  
G01 X58.5033 Y5.6556  
G01 X58.6781 Y5.5832  
G01 X58.8636 Y5.5463  
G01 X59.0528 Y5.5463  
G01 X59.2383 Y5.5832  
G01 X59.4131 Y5.6556  
G01 X59.5704 Y5.7607  
G01 X59.7042 Y5.8945  
G01 X59.8093 Y6.0518  
G01 X59.8817 Y6.2265  
G01 X59.9186 Y6.4121  
G01 X59.9186 Y7.1590  
G01 X62.9979 Y7.1590  
G01 X62.9979 Y6.4121  
G01 X63.0348 Y6.2265  
G01 X63.1072 Y6.0518  
G01 X63.2123 Y5.8945  
G01 X63.3460 Y5.7607  
G01 X63.5033 Y5.6556  
G01 X63.6781 Y5.5832  
G01 X63.8636 Y5.5463  
G01 X64.0528 Y5.5463  
G01 X64.2383 Y5.5832  
G01 X64.4131 Y5.6556  
G01 X64.5704 Y5.7607  
G01 X64.7042 Y5.8945  
G01 X64.8093 Y6.0518  
G01 X64.8817 Y6.2265  
G01 X64.9186 Y6.4121  
G01 X64.9186 Y8.3919  
G01 X64.8817 Y8.5775  
G01 X64.8093 Y8.7522  
G01 X64.7042 Y8.9095  
G01 X64.5704 Y9.0433  
G01 X64.4131 Y9.1484  
G01 X64.2383 Y9.2208  
G01 X64.0528 Y9.2577  
G01 X63.8636 Y9.2577  
G01 X63.6781 Y9.2208  
G01 X63.5033 Y9.1484  
G01 X63.3460 Y9.0433  
G01 X63.2123 Y8.9095  
G01 X63.1072 Y8.7522  
G01 X63.0348 Y8.5775  
G01 X62.9979 Y8.3919  
G00 Z2.5400  
G00 X73.8188 Y8.3919  
G01 Z-0.0350 F254   
G01 X73.8188 Y7.6450  F508   
G01 X70.7395 Y7.6450  
G01 X70.7395 Y8.3919  
G01 X70.7026 Y8.5775  
G01 X70.6302 Y8.7522  
G01 X70.5251 Y8.9095  
G01 X70.3913 Y9.0433  
G01 X70.2340 Y9.1484  
G01 X70.0592 Y9.2208  
G01 X69.8737 Y9.2577  
G01 X69.6845 Y9.2577  
G01 X69.4990 Y9.2208  
G01 X69.3242 Y9.1484  
G01 X69.1669 Y9.0433  
G01 X69.0332 Y8.9095  
G01 X68.9281 Y8.7522  
G01 X68.8825 Y8.6423  
G01 X61.4111 Y16.1136 
G01 X61.3428 Y16.1820 
G01 X61.2534 Y16.2190 
G01 X58.7505 Y16.2190 
G01 X58.7505 Y16.8889 
G01 X58.7406 Y16.9128 
G01 X58.7223 Y16.9311 
G01 X58.6984 Y16.9410 
G01 X58.2430 Y16.9410 
G01 X58.2430 Y27.2543 
G01 X58.2060 Y27.3436 
G01 X58.1376 Y27.4120 
G01 X56.6915 Y28.8582 
G01 X56.6915 Y30.2924 
G01 X56.6816 Y30.3163 
G01 X56.6633 Y30.3346 
G01 X56.6394 Y30.3445 
G01 X54.8136 Y30.3445 
G01 X54.7897 Y30.3346 
G01 X54.7714 Y30.3163 
G01 X54.7615 Y30.2924 
G01 X54.7615 Y29.7225 
G01 X53.6576 Y29.7225 
G01 X52.1810 Y31.1990 
G01 X52.1810 Y31.9383 
G01 X52.1963 Y31.9536 
G01 X52.2062 Y31.9775 
G01 X52.2062 Y33.0193 
G01 X52.1963 Y33.0432 
G01 X52.1780 Y33.0615 
G01 X52.1541 Y33.0714 
G01 X51.7219 Y33.0714 
G01 X51.6980 Y33.0615 
G01 X51.6797 Y33.0432 
G01 X51.6698 Y33.0193 
G01 X51.6698 Y31.9775 
G01 X51.6797 Y31.9536 
G01 X51.6950 Y31.9383 
G01 X51.6950 Y31.0501 
G01 X51.7320 Y30.9608 
G01 X51.8004 Y30.8924 
G01 X53.3509 Y29.3419 
G01 X53.4193 Y29.2735 
G01 X53.5086 Y29.2365 
G01 X54.7615 Y29.2365 
G01 X54.7615 Y28.6666 
G01 X54.7714 Y28.6427 
G01 X54.7897 Y28.6244 
G01 X54.8136 Y28.6145 
G01 X56.2478 Y28.6145 
G01 X57.7570 Y27.1053 
G01 X57.7570 Y16.9410 
G01 X57.0726 Y16.9410 
G01 X57.0487 Y16.9311 
G01 X57.0304 Y16.9128 
G01 X57.0205 Y16.8889 
G01 X57.0205 Y15.0631 
G01 X57.0304 Y15.0392 
G01 X57.0487 Y15.0209 
G01 X57.0726 Y15.0110 
G01 X58.6984 Y15.0110 
G01 X58.7223 Y15.0209 
G01 X58.7406 Y15.0392 
G01 X58.7505 Y15.0631 
G01 X58.7505 Y15.7330 
G01 X61.1045 Y15.7330 
G01 X68.8188 Y8.0187  
G01 X68.8188 Y6.4121  
G01 X68.8557 Y6.2265  
G01 X68.9281 Y6.0518  
G01 X69.0332 Y5.8945  
G01 X69.1669 Y5.7607  
G01 X69.3242 Y5.6556  
G01 X69.4990 Y5.5832  
G01 X69.6845 Y5.5463  
G01 X69.8737 Y5.5463  
G01 X70.0592 Y5.5832  
G01 X70.2340 Y5.6556  
G01 X70.3913 Y5.7607  
G01 X70.5251 Y5.8945  
G01 X70.6302 Y6.0518  
G01 X70.7026 Y6.2265  
G01 X70.7395 Y6.4121  
G01 X70.7395 Y7.1590  
G01 X73.8188 Y7.1590  
G01 X73.8188 Y6.4121  
G01 X73.8557 Y6.2265  
G01 X73.9281 Y6.0518  
