(.../pcb-gcode-3.6.0.4/pcb-gcode.ulp)
(Copyright 2005 - 2012 by John Johnson)
(See readme.txt for licensing terms.)
(This file generated from the board:)
(.../no_serial_screw_connectors/satshakit-grbl.brd)
(Current profile is .../pcb-gcode-3.6.0.4/profiles/mach.pp  )
(This file generated 10/14/2020 5:00 PM)
(Settings from pcb-machine.h)
(  Tool Size)
(0.1000  )
(Z Axis Settings)
(  High     Up        Down     Drill)
(12.7000 	2.5400  	-0.0350 	-1.8000 )
(spindle on time = 1.0000)
(milling depth = -0.0140)
(text depth = -0.0350)
(tool change at 12.7000 15.2400 25.4000 )
(feed rate xy = F508   )
(feed rate z  = F254   )
(Settings from pcb-defaults.h)
(isolate min = 0.0150)
(isolate max = 0.5080)
(isolate step = 0.1000)
(Generated top outlines, top drill, )
(Unit of measure: mm)
( Tool|       Size       |  Min Sub |  Max Sub |   Count )
( T01 | 1.000mm 0.0394in | 0.0000in | 0.0000in |       0 )
( T02 | 1.016mm 0.0400in | 0.0000in | 0.0000in |       0 )
( T03 | 1.194mm 0.0470in | 0.0000in | 0.0000in |       0 )
(Metric Mode)
G21
(Absolute Coordinates)
G90
M05
G00 Z25.4000 
G00 X12.7000 Y15.2400 
M06 T01  ; 1.0000  
G01 Z0.0000  F254   
M06 T01  ; 1.0000  
G00 Z2.5400  
M03
G04 P1.000000
G82 X95.2500 Y57.1500 Z-1.8000 F254   R2.5400  P1.000000
G82 X95.2500 Y1.2700  
G82 X1.2700  Y57.1500 
G82 X1.2700  Y1.2700  
M05
G00 Z25.4000 
M06 T02  ; 1.0160  
G01 Z0.0000  F254   
M06 T02  ; 1.0160  
G00 Z2.5400  
M03
G04 P1.000000
G82 X35.4900 Y62.5900 Z-1.8000 F254   R2.5400  P1.000000
G82 X35.4900 Y65.1300 
G82 X35.4900 Y67.6700 
G82 X35.4900 Y70.2100 
G82 X38.0300 Y62.5900 
G82 X38.0300 Y65.1300 
G82 X38.0300 Y67.6700 
G82 X38.0300 Y70.2100 
G82 X83.4000 Y19.8600 
G82 X83.4000 Y22.4000 
G82 X83.4000 Y24.9400 
M05
G00 Z25.4000 
M06 T03  ; 1.1938  
G01 Z0.0000  F254   
M06 T03  ; 1.1938  
G00 Z2.5400  
M03
G04 P1.000000
G82 X31.6024 Y7.4020  Z-1.8000 F254   R2.5400  P1.000000
G82 X31.9500 Y50.8900 
G82 X36.6024 Y7.4020  
G82 X36.9500 Y50.8900 
G82 X41.6024 Y7.4020  
G82 X46.0770 Y50.8900 
G82 X48.1373 Y7.4020  
G82 X51.0770 Y50.8900 
G82 X53.1373 Y7.4020  
G82 X5.4790  Y50.8900 
G82 X56.0770 Y50.8900 
G82 X58.9582 Y7.4020  
G82 X61.8000 Y50.8900 
G82 X63.9582 Y7.4020  
G82 X66.8000 Y50.8900 
G82 X69.7791 Y7.4020  
G82 X74.7791 Y7.4020  
G82 X75.6000 Y50.8900 
G82 X7.9900  Y32.4820 
G82 X7.9900  Y37.4820 
G82 X7.9900  Y42.4820 
G82 X7.9900  Y5.7000  
G82 X7.9900  Y10.7000 
G82 X7.9900  Y16.5890 
G82 X7.9900  Y21.5890 
G82 X7.9900  Y26.5890 
G82 X80.6000 Y50.8900 
G82 X80.6000 Y7.4020  
G82 X85.6000 Y50.8900 
G82 X85.6000 Y7.4020  
G82 X94.1900 Y34.1420 
G82 X94.1900 Y42.5840 
G82 X94.1900 Y47.5840 
G82 X94.1900 Y52.5840 
G82 X94.1900 Y5.7000  
G82 X94.1900 Y10.7000 
G82 X94.1900 Y15.7000 
G82 X94.1900 Y24.1420 
G82 X94.1900 Y29.1420 
G82 X10.4790 Y50.8900 
G82 X15.6000 Y7.4020  
G82 X16.2165 Y50.8900 
G82 X20.6000 Y7.4020  
G82 X21.2165 Y50.8900 
G82 X25.6000 Y7.4020  
G82 X26.2165 Y50.8900 
T01 
G00 Z12.7000 
M05
M02
