(.../pcb-gcode-3.6.0.4/pcb-gcode.ulp)
(Copyright 2005 - 2012 by John Johnson)
(See readme.txt for licensing terms.)
(This file generated from the board:)
(.../no_serial_screw_connectors/satshakit-grbl.brd)
(Current profile is .../pcb-gcode-3.6.0.4/profiles/mach.pp  )
(This file generated 10/14/2020 4:58 PM)
(Settings from pcb-machine.h)
(  Tool Size)
(0.1000  )
(Z Axis Settings)
(  High     Up        Down     Drill)
(12.7000 	2.5400  	-0.0350 	-1.8000 )
(spindle on time = 1.0000)
(milling depth = -0.0140)
(text depth = -0.0350)
(tool change at 12.7000 15.2400 25.4000 )
(feed rate xy = F508   )
(feed rate z  = F254   )
(Settings from pcb-defaults.h)
(isolate min = 0.0150)
(isolate max = 0.5080)
(isolate step = 0.1000)
(Generated top outlines, top drill, )
(Unit of measure: mm)
(Metric Mode)
G21
(Absolute Coordinates)
G90
G00 X0.0000  Y0.0000  
M03
G04 P1.000000
G00 Z2.5400  
G00 X82.1903 Y31.6058 
G01 Z-0.0350 F254   
G01 X82.1992 Y31.6058 F508   
G01 X82.2130 Y31.6001 
G01 X82.2160 Y31.6001 
G01 X82.2272 Y31.5946 
G01 X82.2333 Y31.5886 
G01 X82.2348 Y31.5840 
G01 X82.2405 Y31.5702 
G01 X82.2405 Y31.5556 
G01 X82.2350 Y31.5444 
G01 X82.2289 Y31.5383 
G01 X82.2175 Y31.5326 
G01 X82.2062 Y31.5269 
G01 X82.1959 Y31.5254 
G01 X82.1821 Y31.5198 
G01 X82.1505 Y31.5198 
G01 X82.1367 Y31.5141 
G01 X81.9669 Y31.5141 
G01 X81.9669 Y31.6115 
G01 X82.1766 Y31.6115 
G01 X82.1903 Y31.6058 
G00 Z2.5400  
G00 X82.1391 Y31.9355 
G01 Z-0.0350 F254   
G01 X82.1538 Y31.9355 F508   
G01 X82.1675 Y31.9298 
G01 X82.1708 Y31.9298 
G01 X82.1800 Y31.9260 
G01 X82.1834 Y31.9227 
G01 X82.1931 Y31.9186 
G01 X82.1950 Y31.9137 
G01 X82.2007 Y31.8999 
G01 X82.2007 Y31.8910 
G01 X82.1952 Y31.8799 
G01 X82.1891 Y31.8737 
G01 X82.1777 Y31.8680 
G01 X82.1732 Y31.8665 
G01 X82.1594 Y31.8609 
G01 X82.1505 Y31.8609 
G01 X82.1367 Y31.8552 
G01 X81.9669 Y31.8552 
G01 X81.9669 Y31.9412 
G01 X82.1253 Y31.9412 
G01 X82.1391 Y31.9355 
G00 Z2.5400  
G00 X81.2399 Y31.7943 
G01 Z-0.0350 F254   
G01 X81.2498 Y31.7704 F508   
G01 X81.2515 Y31.7687 
G01 X81.2555 Y31.7590 
G01 X81.2570 Y31.7545 
G01 X81.2669 Y31.7306 
G01 X81.2726 Y31.7192 
G01 X81.2782 Y31.7079 
G01 X81.2797 Y31.7033 
G01 X81.2828 Y31.6960 
G01 X81.1907 Y31.6960 
G01 X81.1937 Y31.7033 
G01 X81.1937 Y31.7064 
G01 X81.1993 Y31.7177 
G01 X81.2107 Y31.7431 
G01 X81.2107 Y31.7462 
G01 X81.2162 Y31.7574 
G01 X81.2278 Y31.7829 
G01 X81.2278 Y31.7860 
G01 X81.2333 Y31.7971 
G01 X81.2368 Y31.8031 
G01 X81.2385 Y31.7988 
G01 X81.2399 Y31.7943 
G00 Z2.5400  
G00 X83.8620 Y30.8557 
G01 Z-0.0350 F254   
G01 X83.8710 Y30.8557 F508   
G01 X83.8847 Y30.8500 
G01 X83.8938 Y30.8500 
G01 X83.9075 Y30.8443 
G01 X83.9106 Y30.8443 
G01 X83.9216 Y30.8389 
G01 X83.9331 Y30.8331 
G01 X83.9404 Y30.8258 
G01 X83.9501 Y30.8218 
G01 X83.9631 Y30.8087 
G01 X83.9677 Y30.7986 
G01 X83.9751 Y30.7912 
G01 X83.9791 Y30.7815 
G01 X83.9805 Y30.7770 
G01 X83.9862 Y30.7632 
G01 X83.9862 Y30.7600 
G01 X83.9919 Y30.7462 
G01 X83.9919 Y30.7315 
G01 X83.9976 Y30.7178 
G01 X83.9976 Y30.6916 
G01 X83.9919 Y30.6778 
G01 X83.9919 Y30.6631 
G01 X83.9862 Y30.6494 
G01 X83.9862 Y30.6461 
G01 X83.9805 Y30.6323 
G01 X83.9805 Y30.6292 
G01 X83.9734 Y30.6221 
G01 X83.9694 Y30.6124 
G01 X83.9620 Y30.6050 
G01 X83.9580 Y30.5954 
G01 X83.9461 Y30.5892 
G01 X83.9405 Y30.5835 
G01 X83.9290 Y30.5778 
G01 X83.9177 Y30.5722 
G01 X83.9063 Y30.5665 
G01 X83.9018 Y30.5650 
G01 X83.8881 Y30.5593 
G01 X83.8790 Y30.5593 
G01 X83.8653 Y30.5536 
G01 X83.8506 Y30.5536 
G01 X83.8369 Y30.5479 
G01 X83.6443 Y30.5479 
G01 X83.6443 Y30.8614 
G01 X83.8483 Y30.8614 
G01 X83.8620 Y30.8557 
G00 Z2.5400  
G00 X83.0126 Y30.7190 
G01 Z-0.0350 F254   
G01 X83.0141 Y30.7175 F508   
G01 X83.0141 Y30.7145 
G01 X83.0240 Y30.6906 
G01 X83.0296 Y30.6792 
G01 X83.0311 Y30.6747 
G01 X83.0410 Y30.6508 
G01 X83.0467 Y30.6394 
G01 X83.0524 Y30.6280 
G01 X83.0539 Y30.6235 
G01 X83.0638 Y30.5996 
G01 X83.0694 Y30.5883 
G01 X83.0709 Y30.5837 
G01 X83.0808 Y30.5598 
G01 X83.0865 Y30.5485 
G01 X83.0880 Y30.5439 
G01 X83.0979 Y30.5200 
G01 X83.1036 Y30.5087 
G01 X82.8975 Y30.5082 
G01 X82.8994 Y30.5127 
G01 X82.9110 Y30.5382 
G01 X82.9110 Y30.5414 
G01 X82.9164 Y30.5525 
G01 X82.9280 Y30.5780 
G01 X82.9280 Y30.5811 
G01 X82.9335 Y30.5922 
G01 X82.9451 Y30.6178 
G01 X82.9451 Y30.6209 
G01 X82.9506 Y30.6322 
G01 X82.9621 Y30.6576 
G01 X82.9621 Y30.6606 
G01 X82.9676 Y30.6718 
G01 X82.9792 Y30.6974 
G01 X82.9792 Y30.7004 
G01 X82.9847 Y30.7116 
G01 X82.9904 Y30.7232 
G01 X83.0006 Y30.7455 
G01 X83.0069 Y30.7304 
G01 X83.0126 Y30.7190 
G00 Z2.5400  
G00 X61.3920 Y56.7598 
G01 Z-0.0350 F254   
G01 X61.7382 Y57.1060 F508   
G01 X62.0845 Y56.7598 
G01 X62.0845 Y56.7041 
G01 X61.3920 Y56.7041 
G01 X61.3920 Y56.7598 
G00 Z2.5400  
G00 X80.7592 Y28.1388 
G01 Z-0.0350 F254   
G01 X80.7592 Y28.5071 F508   
G01 X80.9213 Y28.6692 
G01 X81.4517 Y28.6692 
G01 X81.4517 Y27.9767 
G01 X80.9213 Y27.9767 
G01 X80.7592 Y28.1388 
G00 Z2.5400  
G00 X17.1920 Y57.3592 
G01 Z-0.0350 F254   
G01 X17.7224 Y57.3592 F508   
G01 X17.8845 Y57.1971 
G01 X17.8845 Y56.8288 
G01 X17.7224 Y56.6667 
G01 X17.1920 Y56.6667 
G01 X17.1920 Y57.3592 
G00 Z2.5400  
G00 X14.8281 Y1.8971  
G01 Z-0.0350 F254   
G01 X14.8281 Y1.0541  F508   
G01 X14.6660 Y0.8920  
G01 X14.1356 Y0.8920  
G01 X14.1356 Y2.0592  
G01 X14.6660 Y2.0592  
G01 X14.8281 Y1.8971  
G00 Z2.5400  
G00 X80.1192 Y2.0592  
G01 Z-0.0350 F254   
G01 X80.6496 Y2.0592  F508   
G01 X80.8117 Y1.8971  
G01 X80.8117 Y1.5288  
G01 X80.6496 Y1.3667  
G01 X80.1192 Y1.3667  
G01 X80.1192 Y2.0592  
G00 Z2.5400  
G00 X1.8459  Y6.9457  
G01 Z-0.0350 F254   
G01 X2.0080  Y6.7836  F508   
G01 X2.0080  Y6.4153  
G01 X1.8459  Y6.2532  
G01 X1.0029  Y6.2532  
G01 X0.8408  Y6.4153  
G01 X0.8408  Y6.7836  
G01 X1.0029  Y6.9457  
G01 X1.8459  Y6.9457  
G00 Z2.5400  
G00 X81.1389 Y57.2971 
G01 Z-0.0350 F254   
G01 X81.1389 Y56.4541 F508   
G01 X80.9768 Y56.2920 
G01 X80.4464 Y56.2920 
G01 X80.4464 Y57.4592 
G01 X80.9768 Y57.4592 
G01 X81.1389 Y57.2971 
G00 Z2.5400  
G00 X87.3029 Y43.0389 
G01 Z-0.0350 F254   
G01 X88.1459 Y43.0389 F508   
G01 X88.3080 Y42.8768 
G01 X88.3080 Y42.3464 
G01 X87.1408 Y42.3464 
G01 X87.1408 Y42.8768 
G01 X87.3029 Y43.0389 
G00 Z2.5400  
G00 X87.3225 Y18.9288 
G01 Z-0.0350 F254   
G01 X87.5959 Y18.9288 F508   
G01 X87.5959 Y18.6554 
G01 X87.3225 Y18.9288 
G00 Z2.5400  
G00 X48.2920 Y56.8598 
G01 Z-0.0350 F254   
G01 X48.6382 Y57.2060 F508   
G01 X48.9845 Y56.8598 
G01 X48.9845 Y56.8041 
G01 X48.2920 Y56.8041 
G01 X48.2920 Y56.8598 
G00 Z2.5400  
G00 X87.3029 Y17.7389 
G01 Z-0.0350 F254   
G01 X88.1459 Y17.7389 F508   
G01 X88.3080 Y17.5768 
G01 X88.3080 Y17.0464 
G01 X87.1408 Y17.0464 
G01 X87.1408 Y17.5768 
G01 X87.3029 Y17.7389 
G00 Z2.5400  
G00 X4.0920  Y57.3592 
G01 Z-0.0350 F254   
G01 X4.6224  Y57.3592 F508   
G01 X4.7845  Y57.1971 
G01 X4.7845  Y56.8288 
G01 X4.6224  Y56.6667 
G01 X4.0920  Y56.6667 
G01 X4.0920  Y57.3592 
G00 Z2.5400  
G00 X0.8408  Y4.8260  
G01 Z-0.0350 F254   
G01 X0.8408  Y5.3563  F508   
G01 X1.0029  Y5.5184  
G01 X1.3712  Y5.5184  
G01 X1.5333  Y5.3563  
G01 X1.5333  Y4.8260  
G01 X0.8408  Y4.8260  
G00 Z2.5400  
G00 X0.8408  Y10.5348 
G01 Z-0.0350 F254   
G01 X0.8408  Y11.0652 F508   
G01 X1.0029  Y11.2273 
G01 X1.3712  Y11.2273 
G01 X1.5333  Y11.0652 
G01 X1.5333  Y10.5348 
G01 X0.8408  Y10.5348 
G00 Z2.5400  
G00 X87.3029 Y30.2389 
G01 Z-0.0350 F254   
G01 X88.1459 Y30.2389 F508   
G01 X88.3080 Y30.0768 
G01 X88.3080 Y29.5464 
G01 X87.1408 Y29.5464 
G01 X87.1408 Y30.0768 
G01 X87.3029 Y30.2389 
G00 Z2.5400  
G00 X84.6176 Y1.8971  
G01 Z-0.0350 F254   
G01 X84.6176 Y1.0541  F508   
G01 X84.4555 Y0.8920  
G01 X83.9251 Y0.8920  
G01 X83.9251 Y2.0592  
G01 X84.4555 Y2.0592  
G01 X84.6176 Y1.8971  
G00 Z2.5400  
G00 X16.5143 Y2.0592  
G01 Z-0.0350 F254   
G01 X17.0447 Y2.0592  F508   
G01 X17.2068 Y1.8971  
G01 X17.2068 Y1.5288  
G01 X17.0447 Y1.3667  
G01 X16.5143 Y1.3667  
G01 X16.5143 Y2.0592  
G00 Z2.5400  
G00 X23.8672 Y1.0541  
G01 Z-0.0350 F254   
G01 X23.7051 Y0.8920  F508   
G01 X23.3368 Y0.8920  
G01 X23.1747 Y1.0541  
G01 X23.1747 Y1.8971  
G01 X23.3368 Y2.0592  
G01 X23.7051 Y2.0592  
G01 X23.8672 Y1.8971  
G01 X23.8672 Y1.0541  
G00 Z2.5400  
G00 X33.5464 Y57.3592 
G01 Z-0.0350 F254   
G01 X34.0768 Y57.3592 F508   
G01 X34.2389 Y57.1971 
G01 X34.2389 Y56.8288 
G01 X34.0768 Y56.6667 
G01 X33.5464 Y56.6667 
G01 X33.5464 Y57.3592 
G00 Z2.5400  
G00 X35.9251 Y56.9597 
G01 Z-0.0350 F254   
G01 X36.2714 Y57.3060 F508   
G01 X36.6176 Y56.9597 
G01 X36.6176 Y56.9041 
G01 X35.9251 Y56.9041 
G01 X35.9251 Y56.9597 
G00 Z2.5400  
G00 X84.0682 Y28.5071 
G01 Z-0.0350 F254   
G01 X84.0682 Y28.1388 F508   
G01 X83.9061 Y27.9767 
G01 X83.3757 Y27.9767 
G01 X83.3757 Y28.6692 
G01 X83.9061 Y28.6692 
G01 X84.0682 Y28.5071 
G00 Z2.5400  
G00 X80.7386 Y30.7247 
G01 Z-0.0350 F254   
G01 X80.7400 Y30.7233 F508   
G01 X80.7400 Y30.7202 
G01 X80.7499 Y30.6963 
G01 X80.7556 Y30.6849 
G01 X80.7613 Y30.6735 
G01 X80.7628 Y30.6690 
G01 X80.7727 Y30.6451 
G01 X80.7784 Y30.6337 
G01 X80.7798 Y30.6292 
G01 X80.7897 Y30.6053 
G01 X80.7954 Y30.5939 
G01 X80.7969 Y30.5894 
G01 X80.8068 Y30.5655 
G01 X80.8125 Y30.5541 
G01 X80.8182 Y30.5428 
G01 X80.8196 Y30.5382 
G01 X80.8295 Y30.5143 
G01 X80.8330 Y30.5082 
G01 X80.6266 Y30.5082 
G01 X80.6370 Y30.5326 
G01 X80.6370 Y30.5357 
G01 X80.6424 Y30.5468 
G01 X80.6540 Y30.5723 
G01 X80.6540 Y30.5754 
G01 X80.6595 Y30.5866 
G01 X80.6652 Y30.5979 
G01 X80.6768 Y30.6235 
G01 X80.6768 Y30.6266 
G01 X80.6822 Y30.6377 
G01 X80.6938 Y30.6633 
G01 X80.6938 Y30.6663 
G01 X80.6993 Y30.6775 
G01 X80.7109 Y30.7031 
G01 X80.7109 Y30.7062 
G01 X80.7163 Y30.7173 
G01 X80.7279 Y30.7429 
G01 X80.7279 Y30.7459 
G01 X80.7329 Y30.7361 
G01 X80.7386 Y30.7247 
G00 Z2.5400  
G00 X83.5992 Y31.7886 
G01 Z-0.0350 F254   
G01 X83.6091 Y31.7647 F508   
G01 X83.6108 Y31.7630 
G01 X83.6148 Y31.7534 
G01 X83.6205 Y31.7420 
G01 X83.6220 Y31.7375 
G01 X83.6319 Y31.7136 
G01 X83.6375 Y31.7022 
G01 X83.6390 Y31.6977 
G01 X83.5476 Y31.6960 
G01 X83.5530 Y31.7090 
G01 X83.5530 Y31.7121 
G01 X83.5586 Y31.7234 
G01 X83.5700 Y31.7488 
G01 X83.5700 Y31.7519 
G01 X83.5755 Y31.7630 
G01 X83.5871 Y31.7886 
G01 X83.5871 Y31.7917 
G01 X83.5927 Y31.8030 
G01 X83.5977 Y31.7932 
G01 X83.5992 Y31.7886 
G00 Z2.5400  
G00 X84.4756 Y31.9242 
G01 Z-0.0350 F254   
G01 X84.4900 Y31.9242 F508   
G01 X84.4915 Y31.9227 
G01 X84.5154 Y31.9128 
G01 X84.5185 Y31.9128 
G01 X84.5257 Y31.9056 
G01 X84.5353 Y31.9016 
G01 X84.5415 Y31.8898 
G01 X84.5486 Y31.8827 
G01 X84.5486 Y31.8796 
G01 X84.5543 Y31.8658 
G01 X84.5543 Y31.8568 
G01 X84.5600 Y31.8431 
G01 X84.5600 Y31.8396 
G01 X84.5543 Y31.8258 
G01 X84.5543 Y31.8169 
G01 X84.5486 Y31.8031 
G01 X84.5486 Y31.8000 
G01 X84.5432 Y31.7889 
G01 X84.5370 Y31.7828 
G01 X84.5313 Y31.7771 
G01 X84.5200 Y31.7714 
G01 X84.5086 Y31.7657 
G01 X84.5041 Y31.7642 
G01 X84.4904 Y31.7585 
G01 X84.4870 Y31.7585 
G01 X84.4732 Y31.7528 
G01 X84.4472 Y31.7528 
G01 X84.4334 Y31.7472 
G01 X84.3261 Y31.7472 
G01 X84.3261 Y31.9298 
G01 X84.4618 Y31.9298 
G01 X84.4756 Y31.9242 
G00 Z2.5400  
G00 X82.8606 Y36.8744 
G01 Z-0.0350 F254   
G01 X82.8599 Y36.8727 F508   
G01 X82.8599 Y36.8782 
G01 X82.8606 Y36.8744 
G00 Z2.5400  
G00 X82.8606 Y36.9488 
G01 Z-0.0350 F254   
G01 X82.8606 Y36.9469 F508   
G01 X82.8599 Y36.9540 
G01 X82.8606 Y36.9488 
G00 Z2.5400  
G00 X83.3277 Y39.5004 
G01 Z-0.0350 F254   
G01 X83.3821 Y39.5004 F508   
G01 X83.3831 Y39.5009 
G01 X83.3651 Y39.4829 
G01 X83.3552 Y39.4590 
G01 X83.3552 Y37.1705 
G01 X83.3651 Y37.1466 
G01 X83.3834 Y37.1283 
G01 X83.3932 Y37.1243 
G01 X83.3099 Y37.1233 
G01 X83.3206 Y37.1283 
G01 X83.3389 Y37.1466 
G01 X83.3488 Y37.1705 
G01 X83.3488 Y39.4590 
G01 X83.3389 Y39.4829 
G01 X83.3206 Y39.5012 
G01 X83.3086 Y39.5061 
G01 X83.3140 Y39.5061 
G01 X83.3277 Y39.5004 
G00 Z2.5400  
G00 X83.9976 Y39.7041 
G01 Z-0.0350 F254   
G01 X83.9969 Y39.7058 F508   
G01 X83.9969 Y39.7207 
G01 X83.9976 Y39.7041 
G00 Z2.5400  
G00 X83.1392 Y39.7205 
G01 Z-0.0350 F254   
G01 X83.1392 Y39.6982 F508   
G01 X83.1385 Y39.6999 
G01 X83.1385 Y39.7266 
G01 X83.1392 Y39.7205 
G00 Z2.5400  
G00 X83.5656 Y39.7174 
G01 Z-0.0350 F254   
G01 X83.5656 Y39.6945 F508   
G01 X83.5648 Y39.6925 
G01 X83.5648 Y39.7340 
G01 X83.5656 Y39.7174 
G00 Z2.5400  
G00 X84.4240 Y39.7205 
G01 Z-0.0350 F254   
G01 X84.4240 Y39.6888 F508   
G01 X84.4233 Y39.6871 
G01 X84.4233 Y39.7394 
G01 X84.4240 Y39.7205 
G00 Z2.5400  
G00 X84.0033 Y39.7456 
G01 Z-0.0350 F254   
G01 X84.0026 Y39.7439 F508   
G01 X84.0026 Y39.7548 
G01 X84.0033 Y39.7456 
G00 Z2.5400  
G00 X83.3313 Y39.9261 
G01 Z-0.0350 F254   
G01 X83.3332 Y39.9268 F508   
G01 X83.3709 Y39.9268 
G01 X83.3313 Y39.9261 
G00 Z2.5400  
G00 X84.1898 Y39.9261 
G01 Z-0.0350 F254   
G01 X84.1917 Y39.9268 F508   
G01 X84.2293 Y39.9268 
G01 X84.1898 Y39.9261 
G00 Z2.5400  
G00 X84.0033 Y39.6757 
G01 Z-0.0350 F254   
G01 X84.0026 Y39.6774 F508   
G01 X84.0026 Y39.6826 
G01 X84.0033 Y39.6757 
G00 Z2.5400  
G00 X83.1449 Y39.6698 
G01 Z-0.0350 F254   
G01 X83.1441 Y39.6717 F508   
G01 X83.1441 Y39.6771 
G01 X83.1449 Y39.6698 
G00 Z2.5400  
G00 X83.1449 Y36.9543 
G01 Z-0.0350 F254   
G01 X83.1441 Y36.9523 F508   
G01 X83.1441 Y36.9577 
G01 X83.1449 Y36.9543 
G00 Z2.5400  
G00 X82.1614 Y36.9317 
G01 Z-0.0350 F254   
G01 X82.1614 Y36.9147 F508   
G01 X82.1620 Y36.9134 
G01 X82.1614 Y36.8804 
G01 X82.1606 Y36.9483 
G01 X82.1614 Y36.9317 
G00 Z2.5400  
G00 X81.7407 Y36.9405 
G01 Z-0.0350 F254   
G01 X81.7407 Y36.8784 F508   
G01 X81.7399 Y36.8804 
G01 X81.7399 Y36.9464 
G01 X81.7407 Y36.9405 
G00 Z2.5400  
G00 X83.5656 Y36.9348 
G01 Z-0.0350 F254   
G01 X83.5656 Y36.8917 F508   
G01 X83.5648 Y36.8898 
G01 X83.5648 Y36.9369 
G00 Z2.5400  
G00 X82.4399 Y36.9178 
G01 Z-0.0350 F254   
G01 X82.4399 Y36.8900 F508   
G01 X82.4392 Y36.8917 
G01 X82.4392 Y36.9350 
G01 X82.4399 Y36.9178 
G00 Z2.5400  
G00 X83.1392 Y36.9178 
G01 Z-0.0350 F254   
G01 X83.1392 Y36.9012 F508   
G01 X83.1385 Y36.9029 
G01 X83.1385 Y36.9239 
G01 X83.1392 Y36.9178 
G00 Z2.5400  
G00 X82.8663 Y36.9178 
G01 Z-0.0350 F254   
G01 X82.8663 Y36.9031 F508   
G01 X82.8656 Y36.9014 
G01 X82.8656 Y36.9253 
G01 X82.8663 Y36.9178 
G00 Z2.5400  
G00 X83.1449 Y36.8670 
G01 Z-0.0350 F254   
G01 X83.1441 Y36.8690 F508   
G01 X83.1441 Y36.8744 
G01 X83.1449 Y36.8670 
G00 Z2.5400  
G00 X83.3823 Y36.7026 
G01 Z-0.0350 F254   
G01 X83.3219 Y36.7026 F508   
G01 X83.3200 Y36.7034 
G01 X83.3841 Y36.7034 
G00 Z2.5400  
G00 X82.6830 Y36.7026 
G01 Z-0.0350 F254   
G01 X82.6226 Y36.7026 F508   
G01 X82.6207 Y36.7034 
G01 X82.6848 Y36.7034 
G00 Z2.5400  
G00 X81.9837 Y36.7026 
G01 Z-0.0350 F254   
G01 X81.9520 Y36.7026 F508   
G01 X81.9507 Y36.7021 
G01 X81.9177 Y36.7026 
G01 X81.9855 Y36.7034 
G00 Z2.5400  
G00 X83.3880 Y40.5400 
G01 Z-0.0350 F254   
G01 X83.3675 Y40.5400 F508   
G01 X83.3538 Y40.5344 
G01 X83.3503 Y40.5344 
G01 X83.3366 Y40.5400 
G01 X83.3162 Y40.5400 
G01 X83.3898 Y40.5408 
G00 Z2.5400  
G00 X83.1449 Y40.7066 
G01 Z-0.0350 F254   
G01 X83.1449 Y40.7045 F508   
G01 X83.1441 Y40.7118 
G01 X83.1449 Y40.7066 
G00 Z2.5400  
G00 X83.1392 Y40.7350 
G01 Z-0.0350 F254   
G01 X83.1392 Y40.7329 F508   
G01 X83.1385 Y40.7613 
G01 X83.1392 Y40.7350 
G00 Z2.5400  
G00 X82.6883 Y41.3017 
G01 Z-0.0350 F254   
G01 X82.6785 Y41.2976 F508   
G01 X82.6602 Y41.2794 
G01 X82.6503 Y41.2555 
G01 X82.6503 Y37.1705 
G01 X82.6602 Y37.1466 
G01 X82.6785 Y37.1283 
G01 X82.6905 Y37.1233 
G01 X82.6107 Y37.1233 
G01 X82.6213 Y37.1283 
G01 X82.6396 Y37.1466 
G01 X82.6495 Y37.1705 
G01 X82.6495 Y41.2555 
G01 X82.6396 Y41.2794 
G01 X82.6213 Y41.2976 
G01 X82.6118 Y41.3016 
G01 X82.6892 Y41.3026 
G00 Z2.5400  
G00 X82.4399 Y41.5454 
G01 Z-0.0350 F254   
G01 X82.4399 Y41.4836 F508   
G01 X82.4392 Y41.4853 
G01 X82.4392 Y41.5456 
G00 Z2.5400  
G00 X82.8606 Y41.5366 
G01 Z-0.0350 F254   
G01 X82.8606 Y41.5195 F508   
G01 X82.8623 Y41.5154 
G01 X82.8606 Y41.5113 
G01 X82.8606 Y41.4793 
G01 X82.8599 Y41.5475 
G01 X82.8606 Y41.5366 
G00 Z2.5400  
G00 X82.6905 Y41.7225 
G01 Z-0.0350 F254   
G01 X82.6093 Y41.7225 F508   
G01 X82.6112 Y41.7233 
G01 X82.6373 Y41.7233 
G01 X82.6499 Y41.7285 
G01 X82.6626 Y41.7233 
G01 X82.6887 Y41.7233 
G00 Z2.5400  
G00 X83.3257 Y40.9607 
G01 Z-0.0350 F254   
G01 X83.3276 Y40.9615 F508   
G01 X83.3766 Y40.9615 
G01 X83.3257 Y40.9607 
G00 Z2.5400  
G00 X68.2235 Y42.1139 
G01 Z-0.0350 F254   
G01 X68.3739 Y42.2644 F508   
G01 X68.7450 Y42.2644 
G01 X68.8954 Y42.1139 
G01 X68.8954 Y41.7429 
G01 X68.7450 Y41.5924 
G01 X68.3739 Y41.5924 
G01 X68.2235 Y41.7429 
G01 X68.2235 Y42.1139 
G00 Z2.5400  
G00 X21.7666 Y72.1700 
G01 Z-0.0350 F254   
G01 X19.7342 Y72.1700 F508   
G01 X19.7103 Y72.1601 
G01 X19.6920 Y72.1418 
G01 X19.6821 Y72.1179 
G01 X19.6821 Y68.2821 
G01 X19.6920 Y68.2582 
G01 X19.7103 Y68.2399 
G01 X19.7342 Y68.2300 
G01 X21.7666 Y68.2300 
G01 X21.7905 Y68.2399 
G01 X21.8088 Y68.2582 
G01 X21.8187 Y68.2821 
G01 X21.8187 Y72.1179 
G01 X21.8088 Y72.1418 
G01 X21.7905 Y72.1601 
G01 X21.7666 Y72.1700 
G00 Z2.5400  
G00 X28.0658 Y71.0397 
G01 Z-0.0350 F254   
G01 X26.0334 Y71.0397 F508   
G01 X26.0095 Y71.0298 
G01 X25.9912 Y71.0115 
G01 X25.9813 Y70.9876 
G01 X25.9813 Y70.4682 
G01 X25.9771 Y70.4682 
G01 X25.8879 Y70.4312 
G01 X25.8196 Y70.3629 
G01 X24.5942 Y69.1375 
G01 X24.5572 Y69.0483 
G01 X24.5572 Y67.0517 
G01 X24.5942 Y66.9625 
G01 X24.6625 Y66.8942 
G01 X30.7695 Y60.7872 
G01 X30.8587 Y60.7502 
G01 X37.6170 Y60.7502 
G01 X37.7062 Y60.7872 
G01 X37.7745 Y60.8555 
G01 X38.1675 Y61.2485 
G01 X38.2358 Y61.3168 
G01 X38.2728 Y61.4060 
G01 X38.2728 Y61.5879 
G01 X38.3305 Y61.5994 
G01 X38.5180 Y61.6770 
G01 X38.6867 Y61.7898 
G01 X38.8302 Y61.9333 
G01 X38.9430 Y62.1020 
G01 X39.0206 Y62.2895 
G01 X39.0602 Y62.4885 
G01 X39.0602 Y62.6915 
G01 X39.0206 Y62.8905 
G01 X38.9430 Y63.0780 
G01 X38.8845 Y63.1655 
G01 X39.8328 Y64.1138 
G01 X39.8698 Y64.2030 
G01 X39.8698 Y67.0570 
G01 X39.8328 Y67.1462 
G01 X39.1032 Y67.8758 
G01 X39.0337 Y67.9046 
G01 X39.0206 Y67.9705 
G01 X38.9430 Y68.1580 
G01 X38.8302 Y68.3267 
G01 X38.6867 Y68.4702 
G01 X38.5180 Y68.5829 
G01 X38.3305 Y68.6606 
G01 X38.1315 Y68.7002 
G01 X37.9285 Y68.7002 
G01 X37.7295 Y68.6606 
G01 X37.5420 Y68.5829 
G01 X37.3733 Y68.4702 
G01 X37.2298 Y68.3267 
G01 X37.1170 Y68.1580 
G01 X37.0394 Y67.9705 
G01 X36.9998 Y67.7715 
G01 X36.9998 Y67.5685 
G01 X37.0394 Y67.3695 
G01 X37.1170 Y67.1820 
G01 X37.2298 Y67.0133 
G01 X37.3733 Y66.8698 
G01 X37.5420 Y66.7570 
G01 X37.7295 Y66.6794 
G01 X37.9285 Y66.6398 
G01 X38.1315 Y66.6398 
G01 X38.3305 Y66.6794 
G01 X38.5180 Y66.7570 
G01 X38.6867 Y66.8698 
G01 X38.8302 Y67.0133 
G01 X38.9430 Y67.1820 
G01 X38.9920 Y67.3003 
G01 X39.3842 Y66.9081 
G01 X39.3842 Y64.3519 
G01 X38.5283 Y63.4960 
G01 X38.5180 Y63.5030 
G01 X38.3305 Y63.5806 
G01 X38.1315 Y63.6202 
G01 X37.9285 Y63.6202 
G01 X37.7295 Y63.5806 
G01 X37.5420 Y63.5030 
G01 X37.3733 Y63.3902 
G01 X37.2298 Y63.2467 
G01 X37.1170 Y63.0780 
G01 X37.0394 Y62.8905 
G01 X36.9998 Y62.6915 
G01 X36.9998 Y62.4885 
G01 X37.0394 Y62.2895 
G01 X37.1170 Y62.1020 
G01 X37.2298 Y61.9333 
G01 X37.3733 Y61.7898 
G01 X37.5420 Y61.6770 
G01 X37.7295 Y61.5994 
G01 X37.7872 Y61.5879 
G01 X37.7872 Y61.5549 
G01 X37.4681 Y61.2358 
G01 X31.0076 Y61.2358 
G01 X25.0428 Y67.2006 
G01 X25.0428 Y68.8994 
G01 X25.9813 Y69.8379 
G01 X25.9813 Y69.4632 
G01 X25.9912 Y69.4393 
G01 X26.0095 Y69.4210 
G01 X26.0334 Y69.4111 
G01 X28.0658 Y69.4111 
G01 X28.0897 Y69.4210 
G01 X28.1080 Y69.4393 
G01 X28.1179 Y69.4632 
G01 X28.1179 Y69.9826 
G01 X28.5979 Y69.9826 
G01 X28.6871 Y70.0196 
G01 X28.7554 Y70.0879 
G01 X30.2825 Y71.6149 
G01 X30.2825 Y71.6031 
G01 X30.2924 Y71.5792 
G01 X30.3107 Y71.5609 
G01 X30.3346 Y71.5510 
G01 X32.2654 Y71.5510 
G01 X32.2893 Y71.5609 
G01 X32.3076 Y71.5792 
G01 X32.3175 Y71.6031 
G01 X32.3175 Y72.8989 
G01 X32.3076 Y72.9228 
G01 X32.2893 Y72.9411 
G01 X32.2654 Y72.9510 
G01 X30.3346 Y72.9510 
G01 X30.3107 Y72.9411 
G01 X30.2924 Y72.9228 
G01 X30.2825 Y72.8989 
G01 X30.2825 Y72.3017 
G01 X28.4490 Y70.4682 
G01 X28.1179 Y70.4682 
G01 X28.1179 Y70.9876 
G01 X28.1080 Y71.0115 
G01 X28.0897 Y71.0298 
G01 X28.0658 Y71.0397 
G00 Z2.5400  
G00 X32.2654 Y68.2490 
G01 Z-0.0350 F254   
G01 X32.2893 Y68.2589 F508   
G01 X32.3076 Y68.2772 
G01 X32.3175 Y68.3011 
G01 X32.3175 Y69.5969 
G01 X32.3098 Y69.6155 
G01 X32.6616 Y69.9672 
G01 X34.4879 Y69.9672 
G01 X34.4994 Y69.9095 
G01 X34.5770 Y69.7220 
G01 X34.6898 Y69.5533 
G01 X34.8333 Y69.4098 
G01 X35.0020 Y69.2970 
G01 X35.1895 Y69.2194 
G01 X35.3885 Y69.1798 
G01 X35.5915 Y69.1798 
G01 X35.7905 Y69.2194 
G01 X35.9780 Y69.2970 
G01 X36.1467 Y69.4098 
G01 X36.2902 Y69.5533 
G01 X36.4030 Y69.7220 
G01 X36.4806 Y69.9095 
G01 X36.5202 Y70.1085 
G01 X36.5202 Y70.3115 
G01 X36.4806 Y70.5105 
G01 X36.4030 Y70.6980 
G01 X36.3703 Y70.7469 
G01 X37.7806 Y72.1572 
G01 X38.4994 Y72.1572 
G01 X41.8572 Y68.7994 
G01 X41.8572 Y56.8517 
G01 X41.8942 Y56.7625 
G01 X44.7025 Y53.9542 
G01 X44.7917 Y53.9172 
G01 X70.1174 Y53.9172 
G01 X73.3505 Y50.6842 
G01 X73.4397 Y50.6472 
G01 X74.6397 Y50.6472 
G01 X74.6397 Y49.9001 
G01 X74.6766 Y49.7145 
G01 X74.7490 Y49.5398 
G01 X74.8540 Y49.3825 
G01 X74.9878 Y49.2487 
G01 X75.1451 Y49.1436 
G01 X75.3199 Y49.0712 
G01 X75.5054 Y49.0343 
G01 X75.6946 Y49.0343 
G01 X75.8801 Y49.0712 
G01 X76.0549 Y49.1436 
G01 X76.2122 Y49.2487 
G01 X76.3460 Y49.3825 
G01 X76.4510 Y49.5398 
G01 X76.5234 Y49.7145 
G01 X76.5603 Y49.9001 
G01 X76.5603 Y50.6472 
G01 X79.6397 Y50.6472 
G01 X79.6397 Y49.9001 
G01 X79.6766 Y49.7145 
G01 X79.7490 Y49.5398 
G01 X79.8540 Y49.3825 
G01 X79.9878 Y49.2487 
G01 X80.1451 Y49.1436 
G01 X80.3199 Y49.0712 
G01 X80.5054 Y49.0343 
G01 X80.6946 Y49.0343 
G01 X80.8801 Y49.0712 
G01 X81.0549 Y49.1436 
G01 X81.2122 Y49.2487 
G01 X81.3460 Y49.3825 
G01 X81.4510 Y49.5398 
G01 X81.5234 Y49.7145 
G01 X81.5603 Y49.9001 
G01 X81.5603 Y50.6472 
G01 X84.6397 Y50.6472 
G01 X84.6397 Y49.9001 
G01 X84.6766 Y49.7145 
G01 X84.7490 Y49.5398 
G01 X84.8540 Y49.3825 
G01 X84.9878 Y49.2487 
G01 X85.1451 Y49.1436 
G01 X85.3199 Y49.0712 
G01 X85.5054 Y49.0343 
G01 X85.6946 Y49.0343 
G01 X85.8801 Y49.0712 
G01 X86.0549 Y49.1436 
G01 X86.2122 Y49.2487 
G01 X86.3460 Y49.3825 
G01 X86.4510 Y49.5398 
G01 X86.5234 Y49.7145 
G01 X86.5603 Y49.9001 
G01 X86.5603 Y50.6472 
G01 X93.9472 Y50.6472 
G01 X93.9472 Y48.5443 
G01 X93.2001 Y48.5443 
G01 X93.0145 Y48.5074 
G01 X92.8398 Y48.4350 
G01 X92.6825 Y48.3300 
G01 X92.5487 Y48.1962 
G01 X92.4436 Y48.0389 
G01 X92.3712 Y47.8641 
G01 X92.3343 Y47.6786 
G01 X92.3343 Y47.4894 
G01 X92.3712 Y47.3039 
G01 X92.4436 Y47.1291 
G01 X92.5487 Y46.9718 
G01 X92.6825 Y46.8380 
G01 X92.8398 Y46.7330 
G01 X93.0145 Y46.6606 
G01 X93.2001 Y46.6237 
G01 X93.9472 Y46.6237 
G01 X93.9472 Y43.5443 
G01 X93.2001 Y43.5443 
G01 X93.0145 Y43.5074 
G01 X92.8398 Y43.4350 
G01 X92.6825 Y43.3300 
G01 X92.5487 Y43.1962 
G01 X92.4436 Y43.0389 
G01 X92.3712 Y42.8641 
G01 X92.3343 Y42.6786 
G01 X92.3343 Y42.4894 
G01 X92.3712 Y42.3039 
G01 X92.4436 Y42.1291 
G01 X92.5487 Y41.9718 
G01 X92.6825 Y41.8380 
G01 X92.8398 Y41.7330 
G01 X93.0145 Y41.6606 
G01 X93.2001 Y41.6237 
G01 X93.9472 Y41.6237 
G01 X93.9472 Y35.1023 
G01 X93.2001 Y35.1023 
G01 X93.0145 Y35.0654 
G01 X92.8398 Y34.9930 
G01 X92.6825 Y34.8880 
G01 X92.5487 Y34.7542 
G01 X92.4436 Y34.5969 
G01 X92.3712 Y34.4221 
G01 X92.3343 Y34.2366 
G01 X92.3343 Y34.0474 
G01 X92.3712 Y33.8619 
G01 X92.4436 Y33.6871 
G01 X92.5487 Y33.5298 
G01 X92.6825 Y33.3960 
G01 X92.8398 Y33.2910 
G01 X93.0145 Y33.2186 
G01 X93.2001 Y33.1817 
G01 X93.9472 Y33.1817 
G01 X93.9472 Y30.1023 
G01 X93.2001 Y30.1023 
G01 X93.0145 Y30.0654 
G01 X92.8398 Y29.9930 
G01 X92.6825 Y29.8880 
G01 X92.5487 Y29.7542 
G01 X92.4436 Y29.5969 
G01 X92.3712 Y29.4221 
G01 X92.3343 Y29.2366 
G01 X92.3343 Y29.0474 
G01 X92.3712 Y28.8619 
G01 X92.4436 Y28.6871 
G01 X92.5487 Y28.5298 
G01 X92.6825 Y28.3960 
G01 X92.8398 Y28.2910 
G01 X93.0145 Y28.2186 
G01 X93.2001 Y28.1817 
G01 X93.9472 Y28.1817 
G01 X93.9472 Y25.1023 
G01 X93.2001 Y25.1023 
G01 X93.0145 Y25.0654 
G01 X92.8398 Y24.9930 
G01 X92.6825 Y24.8880 
G01 X92.5487 Y24.7542 
G01 X92.4436 Y24.5969 
G01 X92.3712 Y24.4221 
G01 X92.3343 Y24.2366 
G01 X92.3343 Y24.0474 
G01 X92.3712 Y23.8619 
G01 X92.4436 Y23.6871 
G01 X92.5487 Y23.5298 
G01 X92.6825 Y23.3960 
G01 X92.8398 Y23.2910 
G01 X92.9796 Y23.2330 
G01 X91.1194 Y21.3728 
G01 X77.3049 Y21.3728 
G01 X76.3376 Y22.3401 
G01 X76.7408 Y22.7432 
G01 X76.7507 Y22.7671 
G01 X76.7507 Y22.7930 
G01 X76.7408 Y22.8169 
G01 X75.4497 Y24.1079 
G01 X75.4258 Y24.1178 
G01 X75.3999 Y24.1178 
G01 X75.3760 Y24.1079 
G01 X75.0436 Y23.7755 
G01 X74.5112 Y24.3080 
G01 X74.9143 Y24.7111 
G01 X74.9242 Y24.7350 
G01 X74.9242 Y24.7609 
G01 X74.9143 Y24.7847 
G01 X73.6232 Y26.0758 
G01 X73.5993 Y26.0857 
G01 X73.5735 Y26.0857 
G01 X73.5496 Y26.0758 
G01 X73.1111 Y25.6373 
G01 X72.3354 Y26.4130 
G01 X72.7385 Y26.8162 
G01 X72.7484 Y26.8401 
G01 X72.7484 Y26.8659 
G01 X72.7385 Y26.8898 
G01 X71.4475 Y28.1809 
G01 X71.4236 Y28.1908 
G01 X71.3977 Y28.1908 
G01 X71.3738 Y28.1809 
G01 X70.9707 Y27.7777 
G01 X61.2297 Y37.5187 
G01 X61.1614 Y37.5870 
G01 X61.0721 Y37.6240 
G01 X52.4109 Y37.6240 
G01 X51.7111 Y38.3238 
G01 X51.6218 Y38.3608 
G01 X44.1975 Y38.3608 
G01 X44.1736 Y38.3509 
G01 X44.1553 Y38.3326 
G01 X44.1454 Y38.3087 
G01 X44.1454 Y37.9273 
G01 X44.1553 Y37.9034 
G01 X44.1736 Y37.8851 
G01 X44.1975 Y37.8752 
G01 X48.6138 Y37.8752 
G01 X47.4994 Y36.7608 
G01 X42.7730 Y36.7608 
G01 X42.6782 Y36.8555 
G01 X42.6099 Y36.9238 
G01 X42.5207 Y36.9608 
G01 X36.6461 Y36.9608 
G01 X36.5569 Y36.9238 
G01 X36.4886 Y36.8555 
G01 X32.4986 Y32.8656 
G01 X32.4230 Y32.8656 
G01 X32.4230 Y33.5374 
G01 X32.4131 Y33.5613 
G01 X32.3948 Y33.5796 
G01 X32.3709 Y33.5895 
G01 X31.2275 Y33.5895 
G01 X31.2036 Y33.5796 
G01 X31.1853 Y33.5613 
G01 X31.1754 Y33.5374 
G01 X31.1754 Y31.7082 
G01 X31.1853 Y31.6843 
G01 X31.2036 Y31.6660 
G01 X31.2275 Y31.6561 
G01 X31.5215 Y31.6561 
G01 X31.5215 Y29.5626 
G01 X31.1926 Y29.5626 
G01 X31.1687 Y29.5527 
G01 X31.1504 Y29.5344 
G01 X31.1405 Y29.5105 
G01 X31.1405 Y28.8387 
G01 X21.3717 Y28.8387 
G01 X21.0849 Y29.1255 
G01 X21.2894 Y29.1255 
G01 X21.3133 Y29.1354 
G01 X21.3316 Y29.1537 
G01 X21.3415 Y29.1776 
G01 X21.3415 Y31.0034 
G01 X21.3316 Y31.0273 
G01 X21.3133 Y31.0456 
G01 X21.2894 Y31.0555 
G01 X19.6636 Y31.0555 
G01 X19.6397 Y31.0456 
G01 X19.6214 Y31.0273 
G01 X19.6115 Y31.0034 
G01 X19.6115 Y29.1776 
G01 X19.6214 Y29.1537 
G01 X19.6397 Y29.1354 
G01 X19.6636 Y29.1255 
G01 X20.3981 Y29.1255 
G01 X21.1336 Y28.3901 
G01 X21.2228 Y28.3531 
G01 X30.2997 Y28.3531 
G01 X8.6070  Y6.6603  
G01 X7.0001  Y6.6603  
G01 X6.8145  Y6.6234  
G01 X6.6398  Y6.5510  
G01 X6.4825  Y6.4460  
G01 X6.3487  Y6.3122  
G01 X6.2436  Y6.1549  
G01 X6.1712  Y5.9801  
G01 X6.1343  Y5.7946  
G01 X6.1343  Y5.6054  
G01 X6.1712  Y5.4199  
G01 X6.2436  Y5.2451  
G01 X6.3487  Y5.0878  
G01 X6.4825  Y4.9540  
G01 X6.6398  Y4.8490  
G01 X6.8145  Y4.7766  
G01 X7.0001  Y4.7397  
G01 X8.9799  Y4.7397  
G01 X9.1655  Y4.7766  
G01 X9.3402  Y4.8490  
G01 X9.4975  Y4.9540  
G01 X9.6313  Y5.0878  
G01 X9.7364  Y5.2451  
G01 X9.8088  Y5.4199  
G01 X9.8457  Y5.6054  
G01 X9.8457  Y5.7946  
G01 X9.8088  Y5.9801  
G01 X9.7364  Y6.1549  
G01 X9.6313  Y6.3122  
G01 X9.4975  Y6.4460  
G01 X9.3402  Y6.5510  
G01 X9.2301  Y6.5967  
G01 X30.9865 Y28.3531 
G01 X31.1405 Y28.3531 
G01 X31.1405 Y27.6813 
G01 X31.1504 Y27.6574 
G01 X31.1687 Y27.6391 
G01 X31.1926 Y27.6292 
G01 X32.3360 Y27.6292 
G01 X32.3599 Y27.6391 
G01 X32.3782 Y27.6574 
G01 X32.3881 Y27.6813 
G01 X32.3881 Y29.5105 
G01 X32.3782 Y29.5344 
G01 X32.3599 Y29.5527 
G01 X32.3360 Y29.5626 
G01 X32.0071 Y29.5626 
G01 X32.0071 Y31.6561 
G01 X32.3709 Y31.6561 
G01 X32.3948 Y31.6660 
G01 X32.4131 Y31.6843 
G01 X32.4230 Y31.7082 
G01 X32.4230 Y31.9730 
G01 X32.4701 Y32.0202 
G01 X32.5071 Y32.1094 
G01 X32.5071 Y32.2060 
G01 X32.4701 Y32.2952 
G01 X32.4230 Y32.3424 
G01 X32.4230 Y32.3800 
G01 X32.6475 Y32.3800 
G01 X32.7367 Y32.4170 
G01 X32.8050 Y32.4853 
G01 X36.7950 Y36.4752 
G01 X42.3718 Y36.4752 
G01 X42.5349 Y36.3122 
G01 X42.6241 Y36.2752 
G01 X47.6483 Y36.2752 
G01 X47.7375 Y36.3122 
G01 X49.3006 Y37.8752 
G01 X51.4730 Y37.8752 
G01 X52.1045 Y37.2437 
G01 X52.1728 Y37.1754 
G01 X52.2620 Y37.1384 
G01 X52.4766 Y37.1384 
G01 X52.4766 Y37.1273 
G01 X52.4865 Y37.1034 
G01 X52.5048 Y37.0851 
G01 X52.5287 Y37.0752 
G01 X54.0785 Y37.0752 
G01 X54.1024 Y37.0851 
G01 X54.1207 Y37.1034 
G01 X54.1306 Y37.1273 
G01 X54.1306 Y37.1384 
G01 X60.9233 Y37.1384 
G01 X70.6273 Y27.4344 
G01 X70.2242 Y27.0312 
G01 X70.2143 Y27.0073 
G01 X70.2143 Y26.9815 
G01 X70.2242 Y26.9576 
G01 X71.5152 Y25.6665 
G01 X71.5391 Y25.6566 
G01 X71.5650 Y25.6566 
G01 X71.5889 Y25.6665 
G01 X71.9920 Y26.0697 
G01 X72.7677 Y25.2940 
G01 X72.3999 Y24.9262 
G01 X72.3900 Y24.9023 
G01 X72.3900 Y24.8764 
G01 X72.3999 Y24.8525 
G01 X73.6910 Y23.5615 
G01 X73.7149 Y23.5516 
G01 X73.7408 Y23.5516 
G01 X73.7646 Y23.5615 
G01 X74.1678 Y23.9646 
G01 X74.7002 Y23.4321 
G01 X74.2264 Y22.9583 
G01 X74.2165 Y22.9344 
G01 X74.2165 Y22.9085 
G01 X74.2264 Y22.8846 
G01 X75.5175 Y21.5936 
G01 X75.5414 Y21.5837 
G01 X75.5672 Y21.5837 
G01 X75.5911 Y21.5936 
G01 X75.9942 Y21.9967 
G01 X76.9985 Y20.9925 
G01 X77.0668 Y20.9242 
G01 X77.1560 Y20.8872 
G01 X91.2683 Y20.8872 
G01 X91.3575 Y20.9242 
G01 X93.6150 Y23.1817 
G01 X93.9472 Y23.1817 
G01 X93.9472 Y16.6603 
G01 X93.2001 Y16.6603 
G01 X93.0145 Y16.6234 
G01 X92.8398 Y16.5510 
G01 X92.6825 Y16.4459 
G01 X92.5487 Y16.3122 
G01 X92.4436 Y16.1549 
G01 X92.3712 Y15.9801 
G01 X92.3343 Y15.7946 
G01 X92.3343 Y15.6054 
G01 X92.3712 Y15.4199 
G01 X92.4436 Y15.2451 
G01 X92.5487 Y15.0878 
G01 X92.6825 Y14.9540 
G01 X92.8398 Y14.8490 
G01 X93.0145 Y14.7766 
G01 X93.2001 Y14.7397 
G01 X93.9472 Y14.7397 
G01 X93.9472 Y11.6603 
G01 X93.2001 Y11.6603 
G01 X93.0145 Y11.6234 
G01 X92.8398 Y11.5510 
G01 X92.6825 Y11.4459 
G01 X92.5487 Y11.3122 
G01 X92.4436 Y11.1549 
G01 X92.3712 Y10.9801 
G01 X92.3343 Y10.7946 
G01 X92.3343 Y10.6054 
G01 X92.3712 Y10.4199 
G01 X92.4436 Y10.2451 
G01 X92.5487 Y10.0878 
G01 X92.6825 Y9.9540  
G01 X92.8398 Y9.8490  
G01 X93.0145 Y9.7766  
G01 X93.2001 Y9.7397  
G01 X93.9472 Y9.7397  
G01 X93.9472 Y6.6603  
G01 X93.2001 Y6.6603  
G01 X93.0145 Y6.6234  
G01 X92.8398 Y6.5510  
G01 X92.6825 Y6.4460  
G01 X92.5487 Y6.3122  
G01 X92.5023 Y6.2428  
G01 X89.8073 Y6.2428  
G01 X89.7181 Y6.2058  
G01 X87.4964 Y3.9841  
G01 X67.7828 Y3.9841  
G01 X66.6566 Y5.1103  
G01 X66.6566 Y9.7670  
G01 X66.6196 Y9.8562  
G01 X66.5513 Y9.9245  
G01 X64.2455 Y12.2303 
G01 X64.1562 Y12.2673 
G01 X56.8140 Y12.2673 
G01 X55.3775 Y13.7038 
G01 X55.3775 Y15.0110 
G01 X55.8984 Y15.0110 
G01 X55.9223 Y15.0209 
G01 X55.9406 Y15.0392 
G01 X55.9505 Y15.0631 
G01 X55.9505 Y16.8889 
G01 X55.9406 Y16.9128 
G01 X55.9223 Y16.9311 
G01 X55.8984 Y16.9410 
G01 X54.2726 Y16.9410 
G01 X54.2487 Y16.9311 
G01 X54.2304 Y16.9128 
G01 X54.2205 Y16.8889 
G01 X54.2205 Y16.2133 
G01 X52.6890 Y16.2133 
G01 X52.6890 Y16.4921 
G01 X53.3375 Y17.1407 
G01 X53.4058 Y17.2090 
G01 X53.4428 Y17.2982 
G01 X53.4428 Y18.9475 
G01 X54.5464 Y18.9475 
G01 X54.5703 Y18.9574 
G01 X54.5886 Y18.9757 
G01 X54.5985 Y18.9996 
G01 X54.5985 Y20.8254 
G01 X54.5886 Y20.8493 
G01 X54.5703 Y20.8676 
G01 X54.5464 Y20.8775 
G01 X52.9206 Y20.8775 
G01 X52.8967 Y20.8676 
G01 X52.8784 Y20.8493 
G01 X52.8685 Y20.8254 
G01 X52.8685 Y18.9996 
G01 X52.8784 Y18.9757 
G01 X52.8967 Y18.9574 
G01 X52.9206 Y18.9475 
G01 X52.9572 Y18.9475 
G01 X52.9572 Y17.4471 
G01 X52.4456 Y16.9355 
G01 X51.0111 Y16.9355 
G01 X50.9872 Y16.9256 
G01 X50.9689 Y16.9073 
G01 X50.9590 Y16.8834 
G01 X50.9590 Y15.0576 
G01 X50.9689 Y15.0337 
G01 X50.9872 Y15.0154 
G01 X51.0111 Y15.0055 
G01 X52.6369 Y15.0055 
G01 X52.6608 Y15.0154 
G01 X52.6791 Y15.0337 
G01 X52.6890 Y15.0576 
G01 X52.6890 Y15.7277 
G01 X54.2205 Y15.7277 
G01 X54.2205 Y15.0631 
G01 X54.2304 Y15.0392 
G01 X54.2487 Y15.0209 
G01 X54.2726 Y15.0110 
G01 X54.8919 Y15.0110 
G01 X54.8919 Y13.5549 
G01 X54.9289 Y13.4657 
G01 X54.9972 Y13.3974 
G01 X56.5076 Y11.8870 
G01 X56.5759 Y11.8187 
G01 X56.6651 Y11.7817 
G01 X64.0074 Y11.7817 
G01 X66.1710 Y9.6181  
G01 X66.1710 Y4.9614  
G01 X66.2079 Y4.8722  
G01 X67.4763 Y3.6038  
G01 X67.5446 Y3.5355  
G01 X67.6339 Y3.4985  
G01 X87.6452 Y3.4985  
G01 X87.7345 Y3.5355  
G01 X89.9562 Y5.7572  
G01 X92.3343 Y5.7572  
G01 X92.3343 Y5.6054  
G01 X92.3712 Y5.4199  
G01 X92.4436 Y5.2451  
G01 X92.5487 Y5.0878  
G01 X92.6825 Y4.9540  
G01 X92.8398 Y4.8490  
G01 X93.0145 Y4.7766  
G01 X93.2001 Y4.7397  
G01 X95.1799 Y4.7397  
G01 X95.3655 Y4.7766  
G01 X95.5402 Y4.8490  
G01 X95.6975 Y4.9540  
G01 X95.8313 Y5.0878  
G01 X95.9364 Y5.2451  
G01 X96.0088 Y5.4199  
G01 X96.0457 Y5.6054  
G01 X96.0457 Y5.7946  
G01 X96.0088 Y5.9801  
G01 X95.9364 Y6.1549  
G01 X95.8313 Y6.3122  
G01 X95.6975 Y6.4460  
G01 X95.5402 Y6.5510  
G01 X95.3655 Y6.6234  
G01 X95.1799 Y6.6603  
G01 X94.4328 Y6.6603  
G01 X94.4328 Y9.7397  
G01 X95.1799 Y9.7397  
G01 X95.3655 Y9.7766  
G01 X95.5402 Y9.8490  
G01 X95.6975 Y9.9540  
G01 X95.8313 Y10.0878 
G01 X95.9364 Y10.2451 
G01 X96.0088 Y10.4199 
G01 X96.0457 Y10.6054 
G01 X96.0457 Y10.7946 
G01 X96.0088 Y10.9801 
G01 X95.9364 Y11.1549 
G01 X95.8313 Y11.3122 
G01 X95.6975 Y11.4459 
G01 X95.5402 Y11.5510 
G01 X95.3655 Y11.6234 
G01 X95.1799 Y11.6603 
G01 X94.4328 Y11.6603 
G01 X94.4328 Y14.7397 
G01 X95.1799 Y14.7397 
G01 X95.3655 Y14.7766 
G01 X95.5402 Y14.8490 
G01 X95.6975 Y14.9540 
G01 X95.8313 Y15.0878 
G01 X95.9364 Y15.2451 
G01 X96.0088 Y15.4199 
G01 X96.0457 Y15.6054 
G01 X96.0457 Y15.7946 
G01 X96.0088 Y15.9801 
G01 X95.9364 Y16.1549 
G01 X95.8313 Y16.3122 
G01 X95.6975 Y16.4459 
G01 X95.5402 Y16.5510 
G01 X95.3655 Y16.6234 
G01 X95.1799 Y16.6603 
G01 X94.4328 Y16.6603 
G01 X94.4328 Y23.1817 
G01 X95.1799 Y23.1817 
G01 X95.3655 Y23.2186 
G01 X95.5402 Y23.2910 
G01 X95.6975 Y23.3960 
G01 X95.8313 Y23.5298 
G01 X95.9364 Y23.6871 
G01 X96.0088 Y23.8619 
G01 X96.0457 Y24.0474 
G01 X96.0457 Y24.2366 
G01 X96.0088 Y24.4221 
G01 X95.9364 Y24.5969 
G01 X95.8313 Y24.7542 
G01 X95.6975 Y24.8880 
G01 X95.5402 Y24.9930 
G01 X95.3655 Y25.0654 
G01 X95.1799 Y25.1023 
G01 X94.4328 Y25.1023 
G01 X94.4328 Y28.1817 
G01 X95.1799 Y28.1817 
G01 X95.3655 Y28.2186 
G01 X95.5402 Y28.2910 
G01 X95.6975 Y28.3960 
G01 X95.8313 Y28.5298 
G01 X95.9364 Y28.6871 
G01 X96.0088 Y28.8619 
G01 X96.0457 Y29.0474 
G01 X96.0457 Y29.2366 
G01 X96.0088 Y29.4221 
G01 X95.9364 Y29.5969 
G01 X95.8313 Y29.7542 
G01 X95.6975 Y29.8880 
G01 X95.5402 Y29.9930 
G01 X95.3655 Y30.0654 
G01 X95.1799 Y30.1023 
G01 X94.4328 Y30.1023 
G01 X94.4328 Y33.1817 
G01 X95.1799 Y33.1817 
G01 X95.3655 Y33.2186 
G01 X95.5402 Y33.2910 
G01 X95.6975 Y33.3960 
G01 X95.8313 Y33.5298 
G01 X95.9364 Y33.6871 
G01 X96.0088 Y33.8619 
G01 X96.0457 Y34.0474 
G01 X96.0457 Y34.2366 
G01 X96.0088 Y34.4221 
G01 X95.9364 Y34.5969 
G01 X95.8313 Y34.7542 
G01 X95.6975 Y34.8880 
G01 X95.5402 Y34.9930 
G01 X95.3655 Y35.0654 
G01 X95.1799 Y35.1023 
G01 X94.4328 Y35.1023 
G01 X94.4328 Y41.6237 
G01 X95.1799 Y41.6237 
G01 X95.3655 Y41.6606 
G01 X95.5402 Y41.7330 
G01 X95.6975 Y41.8380 
G01 X95.8313 Y41.9718 
G01 X95.9364 Y42.1291 
G01 X96.0088 Y42.3039 
G01 X96.0457 Y42.4894 
G01 X96.0457 Y42.6786 
G01 X96.0088 Y42.8641 
G01 X95.9364 Y43.0389 
G01 X95.8313 Y43.1962 
G01 X95.6975 Y43.3300 
G01 X95.5402 Y43.4350 
G01 X95.3655 Y43.5074 
G01 X95.1799 Y43.5443 
G01 X94.4328 Y43.5443 
G01 X94.4328 Y46.6237 
G01 X95.1799 Y46.6237 
G01 X95.3655 Y46.6606 
G01 X95.5402 Y46.7330 
G01 X95.6975 Y46.8380 
G01 X95.8313 Y46.9718 
G01 X95.9364 Y47.1291 
G01 X96.0088 Y47.3039 
G01 X96.0457 Y47.4894 
G01 X96.0457 Y47.6786 
G01 X96.0088 Y47.8641 
G01 X95.9364 Y48.0389 
G01 X95.8313 Y48.1962 
G01 X95.6975 Y48.3300 
G01 X95.5402 Y48.4350 
G01 X95.3655 Y48.5074 
G01 X95.1799 Y48.5443 
G01 X94.4328 Y48.5443 
G01 X94.4328 Y50.8276 
G01 X94.4428 Y50.8517 
G01 X94.4428 Y50.9483 
G01 X94.4328 Y50.9724 
G01 X94.4328 Y51.6237 
G01 X95.1799 Y51.6237 
G01 X95.3655 Y51.6606 
G01 X95.5402 Y51.7330 
G01 X95.6975 Y51.8380 
G01 X95.8313 Y51.9718 
G01 X95.9364 Y52.1291 
G01 X96.0088 Y52.3039 
G01 X96.0457 Y52.4894 
G01 X96.0457 Y52.6786 
G01 X96.0088 Y52.8641 
G01 X95.9364 Y53.0389 
G01 X95.8313 Y53.1962 
G01 X95.6975 Y53.3300 
G01 X95.5402 Y53.4350 
G01 X95.3655 Y53.5074 
G01 X95.1799 Y53.5443 
G01 X93.2001 Y53.5443 
G01 X93.0145 Y53.5074 
G01 X92.8398 Y53.4350 
G01 X92.6825 Y53.3300 
G01 X92.5487 Y53.1962 
G01 X92.4436 Y53.0389 
G01 X92.3712 Y52.8641 
G01 X92.3343 Y52.6786 
G01 X92.3343 Y52.4894 
G01 X92.3712 Y52.3039 
G01 X92.4436 Y52.1291 
G01 X92.5487 Y51.9718 
G01 X92.6825 Y51.8380 
G01 X92.8398 Y51.7330 
G01 X93.0145 Y51.6606 
G01 X93.2001 Y51.6237 
G01 X93.9472 Y51.6237 
G01 X93.9472 Y51.1328 
G01 X86.5603 Y51.1328 
G01 X86.5603 Y51.8799 
G01 X86.5234 Y52.0655 
G01 X86.4510 Y52.2402 
G01 X86.3460 Y52.3975 
G01 X86.2122 Y52.5313 
G01 X86.0549 Y52.6364 
G01 X85.8801 Y52.7088 
G01 X85.6946 Y52.7457 
G01 X85.5054 Y52.7457 
G01 X85.3199 Y52.7088 
G01 X85.1451 Y52.6364 
G01 X84.9878 Y52.5313 
G01 X84.8540 Y52.3975 
G01 X84.7490 Y52.2402 
G01 X84.6766 Y52.0655 
G01 X84.6397 Y51.8799 
G01 X84.6397 Y51.1328 
G01 X81.5603 Y51.1328 
G01 X81.5603 Y51.8799 
G01 X81.5234 Y52.0655 
G01 X81.4510 Y52.2402 
G01 X81.3460 Y52.3975 
G01 X81.2122 Y52.5313 
G01 X81.0549 Y52.6364 
G01 X80.8801 Y52.7088 
G01 X80.6946 Y52.7457 
G01 X80.5054 Y52.7457 
G01 X80.3199 Y52.7088 
G01 X80.1451 Y52.6364 
G01 X79.9878 Y52.5313 
G01 X79.8540 Y52.3975 
G01 X79.7490 Y52.2402 
G01 X79.6766 Y52.0655 
G01 X79.6397 Y51.8799 
G01 X79.6397 Y51.1328 
G01 X76.5603 Y51.1328 
G01 X76.5603 Y51.8799 
G01 X76.5234 Y52.0655 
G01 X76.4510 Y52.2402 
G01 X76.3460 Y52.3975 
G01 X76.2122 Y52.5313 
G01 X76.0549 Y52.6364 
G01 X75.8801 Y52.7088 
G01 X75.6946 Y52.7457 
G01 X75.5054 Y52.7457 
G01 X75.3199 Y52.7088 
G01 X75.1451 Y52.6364 
G01 X74.9878 Y52.5313 
G01 X74.8540 Y52.3975 
G01 X74.7490 Y52.2402 
G01 X74.6766 Y52.0655 
G01 X74.6397 Y51.8799 
G01 X74.6397 Y51.1328 
G01 X73.5886 Y51.1328 
G01 X70.4238 Y54.2975 
G01 X70.3555 Y54.3658 
G01 X70.2663 Y54.4028 
G01 X44.9406 Y54.4028 
G01 X42.3428 Y57.0006 
G01 X42.3428 Y68.9483 
G01 X42.3058 Y69.0375 
G01 X42.2375 Y69.1058 
G01 X38.7375 Y72.6058 
G01 X38.6483 Y72.6428 
G01 X37.6317 Y72.6428 
G01 X37.5425 Y72.6058 
G01 X37.4742 Y72.5375 
G01 X36.0269 Y71.0903 
G01 X35.9780 Y71.1230 
G01 X35.7905 Y71.2006 
G01 X35.5915 Y71.2402 
G01 X35.3885 Y71.2402 
G01 X35.1895 Y71.2006 
G01 X35.0020 Y71.1230 
G01 X34.8333 Y71.0102 
G01 X34.6898 Y70.8667 
G01 X34.5770 Y70.6980 
G01 X34.4994 Y70.5105 
G01 X34.4879 Y70.4528 
G01 X32.5127 Y70.4528 
G01 X32.4235 Y70.4158 
G01 X32.3552 Y70.3475 
G01 X31.6566 Y69.6490 
G01 X30.3346 Y69.6490 
G01 X30.3107 Y69.6391 
G01 X30.2924 Y69.6208 
G01 X30.2825 Y69.5969 
G01 X30.2825 Y68.8749 
G01 X29.5898 Y68.1822 
G01 X28.1179 Y68.1822 
G01 X28.1179 Y68.7016 
G01 X28.1080 Y68.7255 
G01 X28.0897 Y68.7438 
G01 X28.0658 Y68.7537 
G01 X26.0334 Y68.7537 
G01 X26.0095 Y68.7438 
G01 X25.9912 Y68.7255 
G01 X25.9813 Y68.7016 
G01 X25.9813 Y67.1772 
G01 X25.9912 Y67.1533 
G01 X26.0095 Y67.1350 
G01 X26.0334 Y67.1251 
G01 X28.0658 Y67.1251 
G01 X28.0897 Y67.1350 
G01 X28.1080 Y67.1533 
G01 X28.1179 Y67.1772 
G01 X28.1179 Y67.6966 
G01 X29.4062 Y67.6966 
G01 X29.4062 Y66.6175 
G01 X29.0011 Y66.6175 
G01 X28.9772 Y66.6076 
G01 X28.9589 Y66.5893 
G01 X28.9490 Y66.5654 
G01 X28.9490 Y64.6346 
G01 X28.9589 Y64.6107 
G01 X28.9772 Y64.5924 
G01 X29.0011 Y64.5825 
G01 X30.2969 Y64.5825 
G01 X30.3208 Y64.5924 
G01 X30.3391 Y64.6107 
G01 X30.3490 Y64.6346 
G01 X30.3490 Y66.5654 
G01 X30.3391 Y66.5893 
G01 X30.3208 Y66.6076 
G01 X30.2969 Y66.6175 
G01 X29.8918 Y66.6175 
G01 X29.8918 Y67.7974 
G01 X30.3434 Y68.2490 
G01 X32.2654 Y68.2490 
G00 Z2.5400  
G00 X33.2654 Y63.6510 
G01 Z-0.0350 F254   
G01 X33.0428 Y63.6510 F508   
G01 X33.0428 Y64.5825 
G01 X33.5989 Y64.5825 
G01 X33.6228 Y64.5924 
G01 X33.6411 Y64.6107 
G01 X33.6510 Y64.6346 
G01 X33.6510 Y66.5654 
G01 X33.6411 Y66.5893 
G01 X33.6228 Y66.6076 
G01 X33.5989 Y66.6175 
G01 X32.3031 Y66.6175 
G01 X32.2792 Y66.6076 
G01 X32.2609 Y66.5893 
G01 X32.2510 Y66.5654 
G01 X32.2510 Y64.6346 
G01 X32.2609 Y64.6107 
G01 X32.2792 Y64.5924 
G01 X32.3031 Y64.5825 
G01 X32.5572 Y64.5825 
G01 X32.5572 Y63.6510 
G01 X31.3346 Y63.6510 
G01 X31.3107 Y63.6411 
G01 X31.2924 Y63.6228 
G01 X31.2825 Y63.5989 
G01 X31.2825 Y62.3031 
G01 X31.2924 Y62.2792 
G01 X31.3107 Y62.2609 
G01 X31.3346 Y62.2510 
G01 X33.2654 Y62.2510 
G01 X33.2893 Y62.2609 
G01 X33.3076 Y62.2792 
G01 X33.3175 Y62.3031 
G01 X33.3175 Y62.3472 
G01 X34.4879 Y62.3472 
G01 X34.4994 Y62.2895 
G01 X34.5770 Y62.1020 
G01 X34.6898 Y61.9333 
G01 X34.8333 Y61.7898 
G01 X35.0020 Y61.6770 
G01 X35.1895 Y61.5994 
G01 X35.3885 Y61.5598 
G01 X35.5915 Y61.5598 
G01 X35.7905 Y61.5994 
G01 X35.9780 Y61.6770 
G01 X36.1467 Y61.7898 
G01 X36.2902 Y61.9333 
G01 X36.4030 Y62.1020 
G01 X36.4806 Y62.2895 
G01 X36.5202 Y62.4885 
G01 X36.5202 Y62.6915 
G01 X36.4806 Y62.8905 
G01 X36.4030 Y63.0780 
G01 X36.2902 Y63.2467 
G01 X36.1467 Y63.3902 
G01 X35.9780 Y63.5030 
G01 X35.7905 Y63.5806 
G01 X35.5915 Y63.6202 
G01 X35.3885 Y63.6202 
G01 X35.1895 Y63.5806 
G01 X35.0020 Y63.5030 
G01 X34.8333 Y63.3902 
G01 X34.6898 Y63.2467 
G01 X34.5770 Y63.0780 
G01 X34.4994 Y62.8905 
G01 X34.4879 Y62.8328 
G01 X33.3175 Y62.8328 
G01 X33.3175 Y63.5989 
G01 X33.3076 Y63.6228 
G01 X33.2893 Y63.6411 
G01 X33.2654 Y63.6510 
G00 Z2.5400  
G00 X33.2654 Y60.3490 
G01 Z-0.0350 F254   
G01 X31.3346 Y60.3490 F508   
G01 X31.3107 Y60.3391 
G01 X31.2924 Y60.3208 
G01 X31.2825 Y60.2969 
G01 X31.2825 Y59.8918 
G01 X30.6067 Y59.8918 
G01 X30.5175 Y59.8548 
G01 X30.4492 Y59.7865 
G01 X28.7140 Y58.0514 
G01 X28.6457 Y57.9831 
G01 X28.6087 Y57.8938 
G01 X28.6087 Y54.0562 
G01 X28.6457 Y53.9669 
G01 X28.7140 Y53.8986 
G01 X30.9897 Y51.6230 
G01 X30.9897 Y49.9001 
G01 X31.0266 Y49.7145 
G01 X31.0990 Y49.5398 
G01 X31.2040 Y49.3825 
G01 X31.3378 Y49.2487 
G01 X31.4951 Y49.1436 
G01 X31.6699 Y49.0712 
G01 X31.8554 Y49.0343 
G01 X32.0446 Y49.0343 
G01 X32.2301 Y49.0712 
G01 X32.4049 Y49.1436 
G01 X32.5622 Y49.2487 
G01 X32.6960 Y49.3825 
G01 X32.8010 Y49.5398 
G01 X32.8466 Y49.6497 
G01 X39.2124 Y43.2840 
G01 X39.3017 Y43.2470 
G01 X45.9208 Y43.2470 
G01 X46.8950 Y42.2728 
G01 X46.8950 Y41.0353 
G01 X46.8952 Y40.3087 
G01 X46.9051 Y40.2848 
G01 X46.9234 Y40.2665 
G01 X46.9473 Y40.2566 
G01 X47.3287 Y40.2566 
G01 X47.3526 Y40.2665 
G01 X47.3709 Y40.2848 
G01 X47.3808 Y40.3087 
G01 X47.3808 Y41.0348 
G01 X47.3810 Y42.4218 
G01 X47.3440 Y42.5111 
G01 X46.1591 Y43.6960 
G01 X46.0698 Y43.7330 
G01 X39.4507 Y43.7330 
G01 X32.9103 Y50.2733 
G01 X32.9103 Y51.8799 
G01 X32.8734 Y52.0655 
G01 X32.8010 Y52.2402 
G01 X32.6960 Y52.3975 
G01 X32.5622 Y52.5313 
G01 X32.4049 Y52.6364 
G01 X32.2301 Y52.7088 
G01 X32.0446 Y52.7457 
G01 X31.8554 Y52.7457 
G01 X31.6699 Y52.7088 
G01 X31.4951 Y52.6364 
G01 X31.3378 Y52.5313 
G01 X31.2040 Y52.3975 
G01 X31.0990 Y52.2402 
G01 X31.0873 Y52.2121 
G01 X29.0943 Y54.2050 
G01 X29.0943 Y57.7449 
G01 X30.7556 Y59.4062 
G01 X31.2825 Y59.4062 
G01 X31.2825 Y59.0011 
G01 X31.2924 Y58.9772 
G01 X31.3107 Y58.9589 
G01 X31.3346 Y58.9490 
G01 X33.2654 Y58.9490 
G01 X33.2893 Y58.9589 
G01 X33.3076 Y58.9772 
G01 X33.3175 Y59.0011 
G01 X33.3175 Y60.2969 
G01 X33.3076 Y60.3208 
G01 X33.2893 Y60.3391 
G01 X33.2654 Y60.3490 
G00 Z2.5400  
G00 X36.5202 Y67.5685 
G01 Z-0.0350 F254   
G01 X36.5202 Y67.7715 F508   
G01 X36.4806 Y67.9705 
G01 X36.4030 Y68.1580 
G01 X36.2902 Y68.3267 
G01 X36.1467 Y68.4702 
G01 X35.9780 Y68.5829 
G01 X35.7905 Y68.6606 
G01 X35.5915 Y68.7002 
G01 X35.3885 Y68.7002 
G01 X35.1895 Y68.6606 
G01 X35.0020 Y68.5829 
G01 X34.8333 Y68.4702 
G01 X34.6898 Y68.3267 
G01 X34.5770 Y68.1580 
G01 X34.4994 Y67.9705 
G01 X34.4598 Y67.7715 
G01 X34.4598 Y67.5685 
G01 X34.4994 Y67.3695 
G01 X34.5770 Y67.1820 
G01 X34.6898 Y67.0133 
G01 X34.8333 Y66.8698 
G01 X35.0020 Y66.7570 
G01 X35.1895 Y66.6794 
G01 X35.3885 Y66.6398 
G01 X35.5915 Y66.6398 
G01 X35.7905 Y66.6794 
G01 X35.9780 Y66.7570 
G01 X36.1467 Y66.8698 
G01 X36.2902 Y67.0133 
G01 X36.4030 Y67.1820 
G01 X36.4806 Y67.3695 
G01 X36.5202 Y67.5685 
G00 Z2.5400  
G00 X36.5202 Y65.0285 
G01 Z-0.0350 F254   
G01 X36.5202 Y65.2315 F508   
G01 X36.4806 Y65.4305 
G01 X36.4030 Y65.6180 
G01 X36.2902 Y65.7867 
G01 X36.1467 Y65.9302 
G01 X35.9780 Y66.0430 
G01 X35.7905 Y66.1206 
G01 X35.5915 Y66.1602 
G01 X35.3885 Y66.1602 
G01 X35.1895 Y66.1206 
G01 X35.0020 Y66.0430 
G01 X34.8333 Y65.9302 
G01 X34.6898 Y65.7867 
G01 X34.5770 Y65.6180 
G01 X34.4994 Y65.4305 
G01 X34.4598 Y65.2315 
G01 X34.4598 Y65.0285 
G01 X34.4994 Y64.8295 
G01 X34.5770 Y64.6420 
G01 X34.6898 Y64.4733 
G01 X34.8333 Y64.3298 
G01 X35.0020 Y64.2170 
G01 X35.1895 Y64.1394 
G01 X35.3885 Y64.0998 
G01 X35.5915 Y64.0998 
G01 X35.7905 Y64.1394 
G01 X35.9780 Y64.2170 
G01 X36.1467 Y64.3298 
G01 X36.2902 Y64.4733 
G01 X36.4030 Y64.6420 
G01 X36.4806 Y64.8295 
G01 X36.5202 Y65.0285 
G00 Z2.5400  
G00 X39.0602 Y65.0285 
G01 Z-0.0350 F254   
G01 X39.0602 Y65.2315 F508   
G01 X39.0206 Y65.4305 
G01 X38.9430 Y65.6180 
G01 X38.8302 Y65.7867 
G01 X38.6867 Y65.9302 
G01 X38.5180 Y66.0430 
G01 X38.3305 Y66.1206 
G01 X38.1315 Y66.1602 
G01 X37.9285 Y66.1602 
G01 X37.7295 Y66.1206 
G01 X37.5420 Y66.0430 
G01 X37.3733 Y65.9302 
G01 X37.2298 Y65.7867 
G01 X37.1170 Y65.6180 
G01 X37.0394 Y65.4305 
G01 X36.9998 Y65.2315 
G01 X36.9998 Y65.0285 
G01 X37.0394 Y64.8295 
G01 X37.1170 Y64.6420 
G01 X37.2298 Y64.4733 
G01 X37.3733 Y64.3298 
G01 X37.5420 Y64.2170 
G01 X37.7295 Y64.1394 
G01 X37.9285 Y64.0998 
G01 X38.1315 Y64.0998 
G01 X38.3305 Y64.1394 
G01 X38.5180 Y64.2170 
G01 X38.6867 Y64.3298 
G01 X38.8302 Y64.4733 
G01 X38.9430 Y64.6420 
G01 X39.0206 Y64.8295 
G01 X39.0602 Y65.0285 
G00 Z2.5400  
G00 X39.0602 Y70.1085 
G01 Z-0.0350 F254   
G01 X39.0602 Y70.3115 F508   
G01 X39.0206 Y70.5105 
G01 X38.9430 Y70.6980 
G01 X38.8302 Y70.8667 
G01 X38.6867 Y71.0102 
G01 X38.5180 Y71.1230 
G01 X38.3305 Y71.2006 
G01 X38.1315 Y71.2402 
G01 X37.9285 Y71.2402 
G01 X37.7295 Y71.2006 
G01 X37.5420 Y71.1230 
G01 X37.3733 Y71.0102 
G01 X37.2298 Y70.8667 
G01 X37.1170 Y70.6980 
G01 X37.0394 Y70.5105 
G01 X36.9998 Y70.3115 
G01 X36.9998 Y70.1085 
G01 X37.0394 Y69.9095 
G01 X37.1170 Y69.7220 
G01 X37.2298 Y69.5533 
G01 X37.3733 Y69.4098 
G01 X37.5420 Y69.2970 
G01 X37.7295 Y69.2194 
G01 X37.9285 Y69.1798 
G01 X38.1315 Y69.1798 
G01 X38.3305 Y69.2194 
G01 X38.5180 Y69.2970 
G01 X38.5669 Y69.3297 
G01 X40.3572 Y67.5394 
G01 X40.3572 Y54.6406 
G01 X37.8467 Y52.1301 
G01 X37.8010 Y52.2402 
G01 X37.6960 Y52.3975 
G01 X37.5622 Y52.5313 
G01 X37.4049 Y52.6364 
G01 X37.2301 Y52.7088 
G01 X37.0446 Y52.7457 
G01 X36.8554 Y52.7457 
G01 X36.6699 Y52.7088 
G01 X36.4951 Y52.6364 
G01 X36.3378 Y52.5313 
G01 X36.2040 Y52.3975 
G01 X36.0990 Y52.2402 
G01 X36.0266 Y52.0655 
G01 X35.9897 Y51.8799 
G01 X35.9897 Y49.9001 
G01 X36.0266 Y49.7145 
G01 X36.0990 Y49.5398 
G01 X36.2040 Y49.3825 
G01 X36.3378 Y49.2487 
G01 X36.4951 Y49.1436 
G01 X36.6699 Y49.0712 
G01 X36.8554 Y49.0343 
G01 X37.0446 Y49.0343 
G01 X37.2301 Y49.0712 
G01 X37.4049 Y49.1436 
G01 X37.5622 Y49.2487 
G01 X37.6960 Y49.3825 
G01 X37.8010 Y49.5398 
G01 X37.8734 Y49.7145 
G01 X37.9103 Y49.9001 
G01 X37.9103 Y50.6470 
G01 X39.8377 Y50.6470 
G01 X47.7030 Y42.7817 
G01 X47.7030 Y41.8774 
G01 X47.6952 Y41.8585 
G01 X47.6952 Y41.1324 
G01 X47.6950 Y41.0353 
G01 X47.6952 Y40.3087 
G01 X47.7051 Y40.2848 
G01 X47.7234 Y40.2665 
G01 X47.7473 Y40.2566 
G01 X48.1287 Y40.2566 
G01 X48.1526 Y40.2665 
G01 X48.1709 Y40.2848 
G01 X48.1808 Y40.3087 
G01 X48.1808 Y41.0235 
G01 X48.1890 Y41.0433 
G01 X48.1890 Y42.9307 
G01 X48.1520 Y43.0200 
G01 X40.1444 Y51.0276 
G01 X40.0760 Y51.0960 
G01 X39.9867 Y51.1330 
G01 X37.9103 Y51.1330 
G01 X37.9103 Y51.5070 
G01 X40.7375 Y54.3342 
G01 X40.8058 Y54.4025 
G01 X40.8428 Y54.4917 
G01 X40.8428 Y67.6883 
G01 X40.8058 Y67.7775 
G01 X40.7375 Y67.8458 
G01 X38.9103 Y69.6731 
G01 X38.9430 Y69.7220 
G01 X39.0206 Y69.9095 
G01 X39.0602 Y70.1085 
G00 Z2.5400  
G00 X82.5565 Y24.1130 
G01 Z-0.0350 F254   
G01 X84.2435 Y24.1130 F508   
G01 X84.4032 Y24.1448 
G01 X84.5537 Y24.2071 
G01 X84.6892 Y24.2976 
G01 X84.8044 Y24.4128 
G01 X84.8949 Y24.5483 
G01 X84.9572 Y24.6988 
G01 X84.9890 Y24.8585 
G01 X84.9890 Y25.0215 
G01 X84.9572 Y25.1812 
G01 X84.8949 Y25.3317 
G01 X84.8044 Y25.4672 
G01 X84.6892 Y25.5824 
G01 X84.5537 Y25.6729 
G01 X84.4032 Y25.7352 
G01 X84.2435 Y25.7670 
G01 X82.5565 Y25.7670 
G01 X82.3968 Y25.7352 
G01 X82.2463 Y25.6729 
G01 X82.1108 Y25.5824 
G01 X82.1072 Y25.5788 
G01 X71.2804 Y36.4057 
G01 X71.2804 Y52.5265 
G01 X71.2434 Y52.6158 
G01 X71.1750 Y52.6842 
G01 X70.1030 Y53.7562 
G01 X70.0137 Y53.7932 
G01 X60.7735 Y53.7932 
G01 X60.6842 Y53.7562 
G01 X60.6158 Y53.6878 
G01 X58.6014 Y51.6734 
G01 X58.5644 Y51.5841 
G01 X58.5644 Y46.6789 
G01 X51.8199 Y39.9344 
G01 X50.7069 Y39.9344 
G01 X50.5920 Y40.0493 
G01 X50.5920 Y41.0758 
G01 X50.5931 Y41.1211 
G01 X50.5920 Y41.1240 
G01 X50.5920 Y41.1271 
G01 X50.5808 Y41.1541 
G01 X50.5808 Y41.8585 
G01 X50.5709 Y41.8824 
G01 X50.5526 Y41.9007 
G01 X50.5287 Y41.9106 
G01 X50.1473 Y41.9106 
G01 X50.1234 Y41.9007 
G01 X50.1051 Y41.8824 
G01 X50.0952 Y41.8585 
G01 X50.0952 Y41.0947 
G01 X50.0939 Y41.0412 
G01 X50.0952 Y41.0378 
G01 X50.0952 Y40.3087 
G01 X50.1051 Y40.2848 
G01 X50.1060 Y39.9003 
G01 X50.1430 Y39.8110 
G01 X50.4002 Y39.5538 
G01 X50.4686 Y39.4854 
G01 X50.5579 Y39.4484 
G01 X51.9689 Y39.4484 
G01 X52.0582 Y39.4854 
G01 X58.9450 Y46.3722 
G01 X59.0134 Y46.4406 
G01 X59.0504 Y46.5299 
G01 X59.0504 Y51.4351 
G01 X60.9225 Y53.3072 
G01 X69.8647 Y53.3072 
G01 X70.7944 Y52.3775 
G01 X70.7944 Y36.2567 
G01 X70.8314 Y36.1673 
G01 X81.8386 Y25.1602 
G01 X81.8110 Y25.0215 
G01 X81.8110 Y24.8585 
G01 X81.8428 Y24.6988 
G01 X81.9051 Y24.5483 
G01 X81.9956 Y24.4128 
G01 X82.1108 Y24.2976 
G01 X82.2463 Y24.2071 
G01 X82.3968 Y24.1448 
G01 X82.5565 Y24.1130 
G00 Z2.5400  
G00 X82.5565 Y21.5730 
G01 Z-0.0350 F254   
G01 X84.2435 Y21.5730 F508   
G01 X84.4032 Y21.6048 
G01 X84.5537 Y21.6671 
G01 X84.6892 Y21.7576 
G01 X84.8044 Y21.8728 
G01 X84.8949 Y22.0083 
G01 X84.9572 Y22.1588 
G01 X84.9890 Y22.3185 
G01 X84.9890 Y22.4815 
G01 X84.9572 Y22.6412 
G01 X84.8949 Y22.7917 
G01 X84.8044 Y22.9272 
G01 X84.6892 Y23.0424 
G01 X84.5537 Y23.1329 
G01 X84.4032 Y23.1952 
G01 X84.2435 Y23.2270 
G01 X82.5565 Y23.2270 
G01 X82.3968 Y23.1952 
G01 X82.2463 Y23.1329 
G01 X82.1108 Y23.0424 
G01 X81.9956 Y22.9272 
G01 X81.9051 Y22.7917 
G01 X81.8509 Y22.6608 
G01 X81.1375 Y22.6608 
G01 X64.2742 Y39.5240 
G01 X64.1849 Y39.5610 
G01 X56.8553 Y39.5610 
G01 X56.7660 Y39.5240 
G01 X56.6976 Y39.4556 
G01 X55.6029 Y38.3610 
G01 X53.2553 Y38.3610 
G01 X52.5287 Y38.3608 
G01 X52.5048 Y38.3509 
G01 X52.4865 Y38.3326 
G01 X52.4766 Y38.3087 
G01 X52.4766 Y37.9273 
G01 X52.4865 Y37.9034 
G01 X52.5048 Y37.8851 
G01 X52.5287 Y37.8752 
G01 X53.2548 Y37.8752 
G01 X55.7519 Y37.8750 
G01 X55.8412 Y37.9120 
G01 X55.9096 Y37.9804 
G01 X57.0043 Y39.0750 
G01 X64.0359 Y39.0750 
G01 X80.8992 Y22.2118 
G01 X80.9885 Y22.1748 
G01 X81.8396 Y22.1748 
G01 X81.8428 Y22.1588 
G01 X81.9051 Y22.0083 
G01 X81.9956 Y21.8728 
G01 X82.1108 Y21.7576 
G01 X82.2463 Y21.6671 
G01 X82.3968 Y21.6048 
G01 X82.5565 Y21.5730 
G00 Z2.5400  
G00 X82.5565 Y19.0330 
G01 Z-0.0350 F254   
G01 X84.2435 Y19.0330 F508   
G01 X84.4032 Y19.0648 
G01 X84.5537 Y19.1271 
G01 X84.6892 Y19.2176 
G01 X84.8044 Y19.3328 
G01 X84.8949 Y19.4683 
G01 X84.9572 Y19.6188 
G01 X84.9890 Y19.7785 
G01 X84.9890 Y19.9415 
G01 X84.9572 Y20.1012 
G01 X84.8949 Y20.2517 
G01 X84.8044 Y20.3872 
G01 X84.6892 Y20.5024 
G01 X84.5537 Y20.5929 
G01 X84.4032 Y20.6552 
G01 X84.2435 Y20.6870 
G01 X82.5565 Y20.6870 
G01 X82.3968 Y20.6552 
G01 X82.2463 Y20.5929 
G01 X82.1108 Y20.5024 
G01 X81.9956 Y20.3872 
G01 X81.9051 Y20.2517 
G01 X81.8434 Y20.1028 
G01 X76.7406 Y20.1028 
G01 X60.9878 Y35.8555 
G01 X60.9195 Y35.9238 
G01 X60.8303 Y35.9608 
G01 X52.5287 Y35.9608 
G01 X52.5048 Y35.9509 
G01 X52.4865 Y35.9326 
G01 X52.4766 Y35.9087 
G01 X52.4766 Y35.5273 
G01 X52.4865 Y35.5034 
G01 X52.5048 Y35.4851 
G01 X52.5287 Y35.4752 
G01 X60.6814 Y35.4752 
G01 X76.5025 Y19.6542 
G01 X76.5917 Y19.6172 
G01 X81.8434 Y19.6172 
G01 X81.9051 Y19.4683 
G01 X81.9956 Y19.3328 
G01 X82.1108 Y19.2176 
G01 X82.2463 Y19.1271 
G01 X82.3968 Y19.0648 
G01 X82.5565 Y19.0330 
G00 Z2.5400  
G00 X62.7603 Y49.9001 
G01 Z-0.0350 F254   
G01 X62.7603 Y51.8799 F508   
G01 X62.7234 Y52.0655 
G01 X62.6510 Y52.2402 
G01 X62.5460 Y52.3975 
G01 X62.4122 Y52.5313 
G01 X62.2549 Y52.6364 
G01 X62.0801 Y52.7088 
G01 X61.8946 Y52.7457 
G01 X61.7054 Y52.7457 
G01 X61.5199 Y52.7088 
G01 X61.3451 Y52.6364 
G01 X61.1878 Y52.5313 
G01 X61.0540 Y52.3975 
G01 X60.9490 Y52.2402 
G01 X60.8766 Y52.0655 
G01 X60.8397 Y51.8799 
G01 X60.8397 Y49.9001 
G01 X60.8766 Y49.7145 
G01 X60.9490 Y49.5398 
G01 X61.0540 Y49.3825 
G01 X61.1878 Y49.2487 
G01 X61.3451 Y49.1436 
G01 X61.5199 Y49.0712 
G01 X61.5570 Y49.0638 
G01 X61.5570 Y48.0611 
G01 X53.4821 Y39.9862 
G01 X53.0367 Y39.9862 
G01 X53.0128 Y39.9763 
G01 X52.9945 Y39.9580 
G01 X52.9846 Y39.9341 
G01 X52.9846 Y39.5019 
G01 X52.9945 Y39.4780 
G01 X53.0128 Y39.4597 
G01 X53.0367 Y39.4498 
G01 X54.0785 Y39.4498 
G01 X54.1024 Y39.4597 
G01 X54.1207 Y39.4780 
G01 X54.1306 Y39.5019 
G01 X54.1306 Y39.9341 
G01 X54.1267 Y39.9435 
G01 X61.9376 Y47.7544 
G01 X62.0060 Y47.8227 
G01 X62.0430 Y47.9121 
G01 X62.0430 Y49.0638 
G01 X62.0801 Y49.0712 
G01 X62.2549 Y49.1436 
G01 X62.4122 Y49.2487 
G01 X62.5460 Y49.3825 
G01 X62.6510 Y49.5398 
G01 X62.7234 Y49.7145 
G01 X62.7603 Y49.9001 
G00 Z2.5400  
G00 X67.7603 Y49.9001 
G01 Z-0.0350 F254   
G01 X67.7603 Y51.8799 F508   
G01 X67.7234 Y52.0655 
G01 X67.6510 Y52.2402 
G01 X67.5460 Y52.3975 
G01 X67.4122 Y52.5313 
G01 X67.2549 Y52.6364 
G01 X67.0801 Y52.7088 
G01 X66.8946 Y52.7457 
G01 X66.7054 Y52.7457 
G01 X66.5199 Y52.7088 
G01 X66.3451 Y52.6364 
G01 X66.1878 Y52.5313 
G01 X66.0540 Y52.3975 
G01 X65.9489 Y52.2402 
G01 X65.8766 Y52.0655 
G01 X65.8397 Y51.8799 
G01 X65.8397 Y50.2733 
G01 X54.7273 Y39.1610 
G01 X53.2553 Y39.1610 
G01 X52.5287 Y39.1608 
G01 X52.5048 Y39.1509 
G01 X52.4865 Y39.1326 
G01 X52.4766 Y39.1087 
G01 X52.4766 Y38.7273 
G01 X52.4865 Y38.7034 
G01 X52.5048 Y38.6851 
G01 X52.5287 Y38.6752 
G01 X53.2548 Y38.6752 
G01 X54.8763 Y38.6750 
G01 X54.9656 Y38.7120 
G01 X65.9034 Y49.6497 
G01 X65.9489 Y49.5398 
G01 X66.0540 Y49.3825 
G01 X66.1878 Y49.2487 
G01 X66.3451 Y49.1436 
G01 X66.5199 Y49.0712 
G01 X66.7054 Y49.0343 
G01 X66.8946 Y49.0343 
G01 X67.0801 Y49.0712 
G01 X67.2549 Y49.1436 
G01 X67.4122 Y49.2487 
G01 X67.5460 Y49.3825 
G01 X67.6510 Y49.5398 
G01 X67.7234 Y49.7145 
G01 X67.7603 Y49.9001 
G00 Z2.5400  
G00 X57.9979 Y8.3919  
G01 Z-0.0350 F254   
G01 X57.9979 Y7.6450  F508   
G01 X57.2289 Y7.6450  
G01 X50.6630 Y14.2341 
G01 X50.6630 Y18.9475 
G01 X51.7464 Y18.9475 
G01 X51.7703 Y18.9574 
G01 X51.7886 Y18.9757 
G01 X51.7985 Y18.9996 
G01 X51.7985 Y20.8254 
G01 X51.7886 Y20.8493 
G01 X51.7703 Y20.8676 
G01 X51.7464 Y20.8775 
G01 X50.6360 Y20.8775 
G01 X50.6360 Y22.3050 
G01 X51.7059 Y22.3050 
G01 X51.7298 Y22.3149 
G01 X51.7481 Y22.3332 
G01 X51.7580 Y22.3571 
G01 X51.7580 Y24.1829 
G01 X51.7481 Y24.2068 
G01 X51.7298 Y24.2251 
G01 X51.7059 Y24.2350 
G01 X50.6530 Y24.2350 
G01 X50.6530 Y31.6328 
G01 X50.6576 Y31.6611 
G01 X50.6530 Y31.6806 
G01 X50.6530 Y31.7007 
G01 X50.6420 Y31.7272 
G01 X50.6354 Y31.7552 
G01 X50.6237 Y31.7715 
G01 X50.6160 Y31.7900 
G01 X50.5957 Y31.8103 
G01 X50.5810 Y31.8308 
G01 X50.5810 Y32.8007 
G01 X50.5808 Y33.5273 
G01 X50.5709 Y33.5512 
G01 X50.5526 Y33.5695 
G01 X50.5287 Y33.5794 
G01 X50.1473 Y33.5794 
G01 X50.1234 Y33.5695 
G01 X50.1051 Y33.5512 
G01 X50.0952 Y33.5273 
G01 X50.0952 Y32.8012 
G01 X50.0950 Y31.7720 
G01 X50.0904 Y31.7437 
G01 X50.0950 Y31.7242 
G01 X50.0950 Y31.7041 
G01 X50.1060 Y31.6776 
G01 X50.1126 Y31.6496 
G01 X50.1243 Y31.6333 
G01 X50.1320 Y31.6148 
G01 X50.1523 Y31.5945 
G01 X50.1670 Y31.5740 
G01 X50.1670 Y24.2350 
G01 X50.0801 Y24.2350 
G01 X50.0562 Y24.2251 
G01 X50.0379 Y24.2068 
G01 X50.0280 Y24.1829 
G01 X50.0280 Y22.3571 
G01 X50.0379 Y22.3332 
G01 X50.0562 Y22.3149 
G01 X50.0801 Y22.3050 
G01 X50.1500 Y22.3050 
G01 X50.1500 Y20.8775 
G01 X50.1206 Y20.8775 
G01 X50.0967 Y20.8676 
G01 X50.0784 Y20.8493 
G01 X50.0685 Y20.8254 
G01 X50.0685 Y18.9996 
G01 X50.0784 Y18.9757 
G01 X50.0967 Y18.9574 
G01 X50.1206 Y18.9475 
G01 X50.1770 Y18.9475 
G01 X50.1770 Y14.1342 
G01 X50.1769 Y14.0858 
G01 X50.1954 Y14.0410 
G01 X50.2138 Y13.9964 
G01 X50.2482 Y13.9619 
G01 X56.9219 Y7.2646  
G01 X56.9564 Y7.2299  
G01 X56.9900 Y7.1962  
G01 X57.0345 Y7.1777  
G01 X57.0792 Y7.1591  
G01 X57.1276 Y7.1590  
G01 X57.1759 Y7.1589  
G01 X57.9979 Y7.1590  
G01 X57.9979 Y6.4121  
G01 X58.0348 Y6.2265  
G01 X58.1072 Y6.0518  
G01 X58.2123 Y5.8945  
G01 X58.3460 Y5.7607  
G01 X58.5033 Y5.6556  
G01 X58.6781 Y5.5832  
G01 X58.8636 Y5.5463  
G01 X59.0528 Y5.5463  
G01 X59.2383 Y5.5832  
G01 X59.4131 Y5.6556  
G01 X59.5704 Y5.7607  
G01 X59.7042 Y5.8945  
G01 X59.8093 Y6.0518  
G01 X59.8817 Y6.2265  
G01 X59.9186 Y6.4121  
G01 X59.9186 Y7.1590  
G01 X62.9979 Y7.1590  
G01 X62.9979 Y6.4121  
G01 X63.0348 Y6.2265  
G01 X63.1072 Y6.0518  
G01 X63.2123 Y5.8945  
G01 X63.3460 Y5.7607  
G01 X63.5033 Y5.6556  
G01 X63.6781 Y5.5832  
G01 X63.8636 Y5.5463  
G01 X64.0528 Y5.5463  
G01 X64.2383 Y5.5832  
G01 X64.4131 Y5.6556  
G01 X64.5704 Y5.7607  
G01 X64.7042 Y5.8945  
G01 X64.8093 Y6.0518  
G01 X64.8817 Y6.2265  
G01 X64.9186 Y6.4121  
G01 X64.9186 Y8.3919  
G01 X64.8817 Y8.5775  
G01 X64.8093 Y8.7522  
G01 X64.7042 Y8.9095  
G01 X64.5704 Y9.0433  
G01 X64.4131 Y9.1484  
G01 X64.2383 Y9.2208  
G01 X64.0528 Y9.2577  
G01 X63.8636 Y9.2577  
G01 X63.6781 Y9.2208  
G01 X63.5033 Y9.1484  
G01 X63.3460 Y9.0433  
G01 X63.2123 Y8.9095  
G01 X63.1072 Y8.7522  
G01 X63.0348 Y8.5775  
G01 X62.9979 Y8.3919  
G01 X62.9979 Y7.6450  
G01 X59.9186 Y7.6450  
G01 X59.9186 Y8.3919  
G01 X59.8817 Y8.5775  
G01 X59.8093 Y8.7522  
G01 X59.7042 Y8.9095  
G01 X59.5704 Y9.0433  
G01 X59.4131 Y9.1484  
G01 X59.2383 Y9.2208  
G01 X59.0528 Y9.2577  
G01 X58.8636 Y9.2577  
G01 X58.6781 Y9.2208  
G01 X58.5033 Y9.1484  
G01 X58.3460 Y9.0433  
G01 X58.2123 Y8.9095  
G01 X58.1072 Y8.7522  
G01 X58.0348 Y8.5775  
G01 X57.9979 Y8.3919  
G00 Z2.5400  
G00 X17.1768 Y49.9001 
G01 Z-0.0350 F254   
G01 X17.1768 Y50.6470 F508   
G01 X17.4873 Y50.6470 
G01 X20.8744 Y47.2599 
G01 X20.9428 Y47.1915 
G01 X21.0321 Y47.1545 
G01 X23.1604 Y47.1545 
G01 X31.6019 Y38.7481 
G01 X31.6360 Y38.7140 
G01 X31.6810 Y38.6954 
G01 X31.7253 Y38.6770 
G01 X31.7742 Y38.6770 
G01 X44.1931 Y38.6770 
G01 X44.1975 Y38.6752 
G01 X44.9618 Y38.6752 
G01 X45.0061 Y38.6725 
G01 X45.0138 Y38.6752 
G01 X45.7473 Y38.6752 
G01 X45.7712 Y38.6851 
G01 X45.7895 Y38.7034 
G01 X45.7994 Y38.7273 
G01 X45.7994 Y39.1087 
G01 X45.7895 Y39.1326 
G01 X45.7712 Y39.1509 
G01 X45.7473 Y39.1608 
G01 X44.9926 Y39.1608 
G01 X44.9873 Y39.1630 
G01 X44.9462 Y39.1630 
G01 X44.9053 Y39.1654 
G01 X44.8982 Y39.1630 
G01 X31.8740 Y39.1630 
G01 X23.4325 Y47.5694 
G01 X23.3984 Y47.6035 
G01 X23.3534 Y47.6221 
G01 X23.3091 Y47.6405 
G01 X23.2602 Y47.6405 
G01 X21.1811 Y47.6405 
G01 X17.7256 Y51.0960 
G01 X17.6363 Y51.1330 
G01 X17.1768 Y51.1330 
G01 X17.1768 Y51.8799 
G01 X17.1399 Y52.0655 
G01 X17.0675 Y52.2402 
G01 X16.9625 Y52.3975 
G01 X16.8287 Y52.5313 
G01 X16.6714 Y52.6364 
G01 X16.4966 Y52.7088 
G01 X16.3111 Y52.7457 
G01 X16.1219 Y52.7457 
G01 X15.9364 Y52.7088 
G01 X15.7616 Y52.6364 
G01 X15.6043 Y52.5313 
G01 X15.4705 Y52.3975 
G01 X15.3655 Y52.2402 
G01 X15.2931 Y52.0655 
G01 X15.2561 Y51.8799 
G01 X15.2561 Y49.9001 
G01 X15.2931 Y49.7145 
G01 X15.3655 Y49.5398 
G01 X15.4705 Y49.3825 
G01 X15.6043 Y49.2487 
G01 X15.7616 Y49.1436 
G01 X15.9364 Y49.0712 
G01 X16.1219 Y49.0343 
G01 X16.3111 Y49.0343 
G01 X16.4966 Y49.0712 
G01 X16.6714 Y49.1436 
G01 X16.8287 Y49.2487 
G01 X16.9625 Y49.3825 
G01 X17.0675 Y49.5398 
G01 X17.1399 Y49.7145 
G01 X17.1768 Y49.9001 
G00 Z2.5400  
G00 X22.1768 Y49.9001 
G01 Z-0.0350 F254   
G01 X22.1768 Y49.9575 F508   
G01 X32.5540 Y39.5804 
G01 X32.6223 Y39.5120 
G01 X32.7116 Y39.4750 
G01 X44.1583 Y39.4750 
G01 X44.1736 Y39.4597 
G01 X44.1975 Y39.4498 
G01 X45.2393 Y39.4498 
G01 X45.2632 Y39.4597 
G01 X45.2815 Y39.4780 
G01 X45.2914 Y39.5019 
G01 X45.2914 Y39.9341 
G01 X45.2815 Y39.9580 
G01 X45.2632 Y39.9763 
G01 X45.2393 Y39.9862 
G01 X44.1975 Y39.9862 
G01 X44.1736 Y39.9763 
G01 X44.1583 Y39.9610 
G01 X32.8606 Y39.9610 
G01 X22.1768 Y50.6448 
G01 X22.1768 Y51.8799 
G01 X22.1399 Y52.0655 
G01 X22.0675 Y52.2402 
G01 X21.9625 Y52.3975 
G01 X21.8287 Y52.5313 
G01 X21.6714 Y52.6364 
G01 X21.4966 Y52.7088 
G01 X21.3111 Y52.7457 
G01 X21.1219 Y52.7457 
G01 X20.9364 Y52.7088 
G01 X20.7616 Y52.6364 
G01 X20.6043 Y52.5313 
G01 X20.4705 Y52.3975 
G01 X20.3655 Y52.2402 
G01 X20.2931 Y52.0655 
G01 X20.2562 Y51.8799 
G01 X20.2562 Y49.9001 
G01 X20.2931 Y49.7145 
G01 X20.3655 Y49.5398 
G01 X20.4705 Y49.3825 
G01 X20.6043 Y49.2487 
G01 X20.7616 Y49.1436 
G01 X20.9364 Y49.0712 
G01 X21.1219 Y49.0343 
G01 X21.3111 Y49.0343 
G01 X21.4966 Y49.0712 
G01 X21.6714 Y49.1436 
G01 X21.8287 Y49.2487 
G01 X21.9625 Y49.3825 
G01 X22.0675 Y49.5398 
G01 X22.1399 Y49.7145 
G01 X22.1768 Y49.9001 
G00 Z2.5400  
G00 X27.1768 Y49.9001 
G01 Z-0.0350 F254   
G01 X27.1768 Y50.6470 F508   
G01 X27.5208 Y50.6470 
G01 X37.1362 Y41.0316 
G01 X37.2255 Y40.9946 
G01 X46.0698 Y40.9946 
G01 X46.0698 Y40.8167 
G01 X46.0797 Y40.7928 
G01 X46.0980 Y40.7745 
G01 X46.1219 Y40.7646 
G01 X46.5541 Y40.7646 
G01 X46.5780 Y40.7745 
G01 X46.5963 Y40.7928 
G01 X46.6062 Y40.8167 
G01 X46.6062 Y41.8585 
G01 X46.5963 Y41.8824 
G01 X46.5780 Y41.9007 
G01 X46.5541 Y41.9106 
G01 X46.1219 Y41.9106 
G01 X46.0980 Y41.9007 
G01 X46.0797 Y41.8824 
G01 X46.0698 Y41.8585 
G01 X46.0698 Y41.4806 
G01 X37.3745 Y41.4806 
G01 X27.8275 Y51.0276 
G01 X27.7591 Y51.0960 
G01 X27.6698 Y51.1330 
G01 X27.1768 Y51.1330 
G01 X27.1768 Y51.8799 
G01 X27.1399 Y52.0655 
G01 X27.0675 Y52.2402 
G01 X26.9625 Y52.3975 
G01 X26.8287 Y52.5313 
G01 X26.6714 Y52.6364 
G01 X26.4966 Y52.7088 
G01 X26.3111 Y52.7457 
G01 X26.1219 Y52.7457 
G01 X25.9364 Y52.7088 
G01 X25.7616 Y52.6364 
G01 X25.6043 Y52.5313 
G01 X25.4705 Y52.3975 
G01 X25.3655 Y52.2402 
G01 X25.2931 Y52.0655 
G01 X25.2562 Y51.8799 
G01 X25.2562 Y49.9001 
G01 X25.2931 Y49.7145 
G01 X25.3655 Y49.5398 
G01 X25.4705 Y49.3825 
G01 X25.6043 Y49.2487 
G01 X25.7616 Y49.1436 
G01 X25.9364 Y49.0712 
G01 X26.1219 Y49.0343 
G01 X26.3111 Y49.0343 
G01 X26.4966 Y49.0712 
G01 X26.6714 Y49.1436 
G01 X26.8287 Y49.2487 
G01 X26.9625 Y49.3825 
G01 X27.0675 Y49.5398 
G01 X27.1399 Y49.7145 
G01 X27.1768 Y49.9001 
G00 Z2.5400  
G00 X24.6396 Y8.3919  
G01 Z-0.0350 F254   
G01 X24.6396 Y6.4121  F508   
G01 X24.6766 Y6.2265  
G01 X24.7490 Y6.0518  
G01 X24.8540 Y5.8945  
G01 X24.9878 Y5.7607  
G01 X25.1451 Y5.6556  
G01 X25.3199 Y5.5832  
G01 X25.5054 Y5.5463  
G01 X25.6946 Y5.5463  
G01 X25.8801 Y5.5832  
G01 X26.0549 Y5.6556  
G01 X26.2122 Y5.7607  
G01 X26.3460 Y5.8945  
G01 X26.4510 Y6.0518  
G01 X26.5234 Y6.2265  
G01 X26.5603 Y6.4121  
G01 X26.5603 Y8.3919  
G01 X26.5234 Y8.5775  
G01 X26.4929 Y8.6512  
G01 X48.0756 Y30.2340 
G01 X48.1440 Y30.3024 
G01 X48.1810 Y30.3917 
G01 X48.1810 Y32.8007 
G01 X48.1808 Y33.5273 
G01 X48.1709 Y33.5512 
G01 X48.1526 Y33.5695 
G01 X48.1287 Y33.5794 
G01 X47.7473 Y33.5794 
G01 X47.7234 Y33.5695 
G01 X47.7051 Y33.5512 
G01 X47.6952 Y33.5273 
G01 X47.6952 Y32.8012 
G01 X47.6950 Y30.5407 
G01 X26.2035 Y9.0491  
G01 X26.0549 Y9.1484  
G01 X25.8801 Y9.2208  
G01 X25.6946 Y9.2577  
G01 X25.5054 Y9.2577  
G01 X25.3199 Y9.2208  
G01 X25.1451 Y9.1484  
G01 X24.9878 Y9.0433  
G01 X24.8540 Y8.9095  
G01 X24.7490 Y8.7522  
G01 X24.6766 Y8.5775  
G01 X24.6396 Y8.3919  
G00 Z2.5400  
G00 X57.0205 Y16.8889 
G01 Z-0.0350 F254   
G01 X57.0205 Y15.0631 F508   
G01 X57.0304 Y15.0392 
G01 X57.0487 Y15.0209 
G01 X57.0726 Y15.0110 
G01 X58.6984 Y15.0110 
G01 X58.7223 Y15.0209 
G01 X58.7406 Y15.0392 
G01 X58.7505 Y15.0631 
G01 X58.7505 Y15.7330 
G01 X66.0045 Y15.7330 
G01 X69.5361 Y12.2013 
G01 X69.5361 Y9.2282  
G01 X69.4990 Y9.2208  
G01 X69.3242 Y9.1484  
G01 X69.1669 Y9.0433  
G01 X69.0332 Y8.9095  
G01 X68.9281 Y8.7522  
G01 X68.8557 Y8.5775  
G01 X68.8188 Y8.3919  
G01 X68.8188 Y6.4121  
G01 X68.8557 Y6.2265  
G01 X68.9281 Y6.0518  
G01 X69.0332 Y5.8945  
G01 X69.1669 Y5.7607  
G01 X69.3242 Y5.6556  
G01 X69.4990 Y5.5832  
G01 X69.6845 Y5.5463  
G01 X69.8737 Y5.5463  
G01 X70.0592 Y5.5832  
G01 X70.2340 Y5.6556  
G01 X70.3913 Y5.7607  
G01 X70.5251 Y5.8945  
G01 X70.6302 Y6.0518  
G01 X70.7026 Y6.2265  
G01 X70.7395 Y6.4121  
G01 X70.7395 Y7.1590  
G01 X73.8188 Y7.1590  
G01 X73.8188 Y6.4121  
G01 X73.8557 Y6.2265  
G01 X73.9281 Y6.0518  
G01 X74.0332 Y5.8945  
G01 X74.1669 Y5.7607  
G01 X74.3242 Y5.6556  
G01 X74.4990 Y5.5832  
G01 X74.6845 Y5.5463  
G01 X74.8737 Y5.5463  
G01 X75.0592 Y5.5832  
G01 X75.2340 Y5.6556  
G01 X75.3913 Y5.7607  
G01 X75.5251 Y5.8945  
G01 X75.6302 Y6.0518  
G01 X75.7026 Y6.2265  
G01 X75.7395 Y6.4121  
G01 X75.7395 Y8.3919  
G01 X75.7026 Y8.5775  
G01 X75.6302 Y8.7522  
G01 X75.5251 Y8.9095  
G01 X75.3913 Y9.0433  
G01 X75.2340 Y9.1484  
G01 X75.0592 Y9.2208  
G01 X74.8737 Y9.2577  
G01 X74.6845 Y9.2577  
G01 X74.4990 Y9.2208  
G01 X74.3242 Y9.1484  
G01 X74.1669 Y9.0433  
G01 X74.0332 Y8.9095  
G01 X73.9281 Y8.7522  
G01 X73.8557 Y8.5775  
G01 X73.8188 Y8.3919  
G01 X73.8188 Y7.6450  
G01 X70.7395 Y7.6450  
G01 X70.7395 Y8.3919  
G01 X70.7026 Y8.5775  
G01 X70.6302 Y8.7522  
G01 X70.5251 Y8.9095  
G01 X70.3913 Y9.0433  
G01 X70.2340 Y9.1484  
G01 X70.0592 Y9.2208  
G01 X70.0221 Y9.2282  
G01 X70.0221 Y12.3503 
G01 X69.9851 Y12.4396 
G01 X66.3111 Y16.1136 
G01 X66.2428 Y16.1820 
G01 X66.1534 Y16.2190 
G01 X58.7505 Y16.2190 
G01 X58.7505 Y16.8889 
G01 X58.7406 Y16.9128 
G01 X58.7223 Y16.9311 
G01 X58.6984 Y16.9410 
G01 X58.2430 Y16.9410 
G01 X58.2430 Y27.2543 
G01 X58.2060 Y27.3436 
G01 X58.1376 Y27.4120 
G01 X56.6915 Y28.8582 
G01 X56.6915 Y30.2924 
G01 X56.6816 Y30.3163 
G01 X56.6633 Y30.3346 
G01 X56.6394 Y30.3445 
G01 X54.8136 Y30.3445 
G01 X54.7897 Y30.3346 
G01 X54.7714 Y30.3163 
G01 X54.7615 Y30.2924 
G01 X54.7615 Y29.7225 
G01 X53.6576 Y29.7225 
G01 X52.1810 Y31.1991 
G01 X52.1810 Y31.9383 
G01 X52.1963 Y31.9536 
G01 X52.2062 Y31.9775 
G01 X52.2062 Y33.0193 
G01 X52.1963 Y33.0432 
G01 X52.1780 Y33.0615 
G01 X52.1541 Y33.0714 
G01 X51.7219 Y33.0714 
G01 X51.6980 Y33.0615 
G01 X51.6797 Y33.0432 
G01 X51.6698 Y33.0193 
G01 X51.6698 Y31.9775 
G01 X51.6797 Y31.9536 
G01 X51.6950 Y31.9383 
G01 X51.6950 Y31.0501 
G01 X51.7320 Y30.9608 
G01 X51.8004 Y30.8924 
G01 X53.3509 Y29.3419 
G01 X53.4193 Y29.2735 
G01 X53.5086 Y29.2365 
G01 X54.7615 Y29.2365 
G01 X54.7615 Y28.6666 
G01 X54.7714 Y28.6427 
G01 X54.7897 Y28.6244 
G01 X54.8136 Y28.6145 
G01 X56.2478 Y28.6145 
G01 X57.7570 Y27.1053 
G01 X57.7570 Y16.9410 
G01 X57.0726 Y16.9410 
G01 X57.0487 Y16.9311 
G01 X57.0304 Y16.9128 
G01 X57.0205 Y16.8889 
G00 Z2.5400  
G00 X49.8890 Y15.0576 
G01 Z-0.0350 F254   
G01 X49.8890 Y16.8834 F508   
G01 X49.8791 Y16.9073 
G01 X49.8608 Y16.9256 
G01 X49.8369 Y16.9355 
G01 X49.2565 Y16.9355 
G01 X49.2565 Y25.6170 
G01 X49.8264 Y25.6170 
G01 X49.8503 Y25.6269 
G01 X49.8686 Y25.6452 
G01 X49.8785 Y25.6691 
G01 X49.8785 Y27.4949 
G01 X49.8686 Y27.5188 
G01 X49.8503 Y27.5371 
G01 X49.8264 Y27.5470 
G01 X49.5906 Y27.5470 
G01 X49.7440 Y27.7004 
G01 X49.7810 Y27.7897 
G01 X49.7810 Y32.8007 
G01 X49.7808 Y33.5273 
G01 X49.7709 Y33.5512 
G01 X49.7526 Y33.5695 
G01 X49.7287 Y33.5794 
G01 X49.3473 Y33.5794 
G01 X49.3234 Y33.5695 
G01 X49.3051 Y33.5512 
G01 X49.2952 Y33.5273 
G01 X49.2952 Y32.8012 
G01 X49.2950 Y27.9387 
G01 X48.9033 Y27.5470 
G01 X48.2006 Y27.5470 
G01 X48.1767 Y27.5371 
G01 X48.1584 Y27.5188 
G01 X48.1485 Y27.4949 
G01 X48.1485 Y25.6691 
G01 X48.1584 Y25.6452 
G01 X48.1767 Y25.6269 
G01 X48.2006 Y25.6170 
G01 X48.7705 Y25.6170 
G01 X48.7705 Y16.9355 
G01 X48.2111 Y16.9355 
G01 X48.1872 Y16.9256 
G01 X48.1689 Y16.9073 
G01 X48.1590 Y16.8834 
G01 X48.1590 Y15.0576 
G01 X48.1689 Y15.0337 
G01 X48.1872 Y15.0154 
G01 X48.2111 Y15.0055 
G01 X48.2570 Y15.0055 
G01 X48.2570 Y9.2527  
G01 X48.2319 Y9.2577  
G01 X48.0427 Y9.2577  
G01 X47.8572 Y9.2208  
G01 X47.6824 Y9.1484  
G01 X47.5251 Y9.0433  
G01 X47.3914 Y8.9095  
G01 X47.2863 Y8.7522  
G01 X47.2139 Y8.5775  
G01 X47.1770 Y8.3919  
G01 X47.1770 Y6.4121  
G01 X47.2139 Y6.2265  
G01 X47.2863 Y6.0518  
G01 X47.3914 Y5.8945  
G01 X47.5251 Y5.7607  
G01 X47.6824 Y5.6556  
G01 X47.8572 Y5.5832  
G01 X48.0427 Y5.5463  
G01 X48.2319 Y5.5463  
G01 X48.4175 Y5.5832  
G01 X48.5922 Y5.6556  
G01 X48.7495 Y5.7607  
G01 X48.8833 Y5.8945  
G01 X48.9884 Y6.0518  
G01 X49.0608 Y6.2265  
G01 X49.0977 Y6.4121  
G01 X49.0977 Y7.1590  
G01 X52.1770 Y7.1590  
G01 X52.1770 Y6.4121  
G01 X52.2139 Y6.2265  
G01 X52.2863 Y6.0518  
G01 X52.3914 Y5.8945  
G01 X52.5251 Y5.7607  
G01 X52.6824 Y5.6556  
G01 X52.8572 Y5.5832  
G01 X53.0427 Y5.5463  
G01 X53.2319 Y5.5463  
G01 X53.4175 Y5.5832  
G01 X53.5922 Y5.6556  
G01 X53.7495 Y5.7607  
G01 X53.8833 Y5.8945  
G01 X53.9884 Y6.0518  
G01 X54.0608 Y6.2265  
G01 X54.0977 Y6.4121  
G01 X54.0977 Y8.3919  
G01 X54.0608 Y8.5775  
G01 X53.9884 Y8.7522  
G01 X53.8833 Y8.9095  
G01 X53.7495 Y9.0433  
G01 X53.5922 Y9.1484  
G01 X53.4175 Y9.2208  
G01 X53.2319 Y9.2577  
G01 X53.0427 Y9.2577  
G01 X52.8572 Y9.2208  
G01 X52.6824 Y9.1484  
G01 X52.5251 Y9.0433  
G01 X52.3914 Y8.9095  
G01 X52.2863 Y8.7522  
G01 X52.2139 Y8.5775  
G01 X52.1770 Y8.3919  
G01 X52.1770 Y7.6450  
G01 X49.0977 Y7.6450  
G01 X49.0977 Y8.3919  
G01 X49.0608 Y8.5775  
G01 X48.9884 Y8.7522  
G01 X48.8833 Y8.9095  
G01 X48.7495 Y9.0433  
G01 X48.7430 Y9.0477  
G01 X48.7430 Y15.0055 
G01 X49.8369 Y15.0055 
G01 X49.8608 Y15.0154 
G01 X49.8791 Y15.0337 
G01 X49.8890 Y15.0576 
G00 Z2.5400  
G00 X11.3380 Y41.7231 
G01 Z-0.0350 F254   
G01 X11.3479 Y41.6992 F508   
G01 X11.3662 Y41.6809 
G01 X11.3901 Y41.6710 
G01 X13.0159 Y41.6710 
G01 X13.0398 Y41.6809 
G01 X13.0581 Y41.6992 
G01 X13.0680 Y41.7231 
G01 X13.0680 Y43.5489 
G01 X13.0581 Y43.5728 
G01 X13.0398 Y43.5911 
G01 X13.0159 Y43.6010 
G01 X11.5817 Y43.6010 
G01 X5.9969  Y49.1857 
G01 X6.0912  Y49.2487 
G01 X6.2250  Y49.3825 
G01 X6.3300  Y49.5398 
G01 X6.4024  Y49.7145 
G01 X6.4393  Y49.9001 
G01 X6.4393  Y51.8799 
G01 X6.4024  Y52.0655 
G01 X6.3300  Y52.2402 
G01 X6.2250  Y52.3975 
G01 X6.0912  Y52.5313 
G01 X5.9339  Y52.6364 
G01 X5.7591  Y52.7088 
G01 X5.5736  Y52.7457 
G01 X5.3844  Y52.7457 
G01 X5.1989  Y52.7088 
G01 X5.0241  Y52.6364 
G01 X4.8668  Y52.5313 
G01 X4.7330  Y52.3975 
G01 X4.6280  Y52.2402 
G01 X4.5556  Y52.0655 
G01 X4.5187  Y51.8799 
G01 X4.5187  Y49.9001 
G01 X4.5556  Y49.7145 
G01 X4.6280  Y49.5398 
G01 X4.7330  Y49.3825 
G01 X4.8668  Y49.2487 
G01 X5.0241  Y49.1436 
G01 X5.1989  Y49.0712 
G01 X5.3844  Y49.0343 
G01 X5.4610  Y49.0343 
G01 X11.3380 Y43.1573 
G01 X11.3380 Y41.7231 
G00 Z2.5400  
G00 X68.7890 Y41.1830 
G01 Z-0.0350 F254   
G01 X68.8705 Y41.1830 F508   
G01 X68.9457 Y41.2142 
G01 X69.2736 Y41.5421 
G01 X69.3048 Y41.6173 
G01 X69.3048 Y42.2394 
G01 X69.2736 Y42.3147 
G01 X69.0033 Y42.5850 
G01 X68.9457 Y42.6426 
G01 X68.8705 Y42.6738 
G01 X68.2484 Y42.6738 
G01 X68.1731 Y42.6426 
G01 X67.8478 Y42.3172 
G01 X67.8141 Y42.2394 
G01 X67.8141 Y41.6174 
G01 X67.8452 Y41.5421 
G01 X68.1731 Y41.2142 
G01 X68.2484 Y41.1830 
G01 X68.3298 Y41.1830 
G01 X68.7890 Y41.1830 
G00 Z2.5400  
G00 X67.3275 Y42.9690 
G01 Z-0.0350 F254   
G01 X67.3275 Y43.3208 F508   
G01 X67.2963 Y43.3960 
G01 X67.2387 Y43.4536 
G01 X67.1635 Y43.4848 
G01 X67.0821 Y43.4848 
G01 X67.0068 Y43.4536 
G01 X66.9492 Y43.3960 
G01 X66.9181 Y43.3208 
G01 X66.9181 Y42.9690 
G01 X66.9492 Y42.8938 
G01 X67.0068 Y42.8362 
G01 X67.0821 Y42.8050 
G01 X67.1635 Y42.8050 
G01 X67.2387 Y42.8362 
G01 X67.2963 Y42.8938 
G01 X67.3275 Y42.9690 
G00 Z2.5400  
G00 X66.8117 Y42.6738 
G01 Z-0.0350 F254   
G01 X66.7365 Y42.6426 F508   
G01 X66.6789 Y42.5850 
G01 X66.6477 Y42.5098 
G01 X66.6477 Y42.4283 
G01 X66.6789 Y42.3531 
G01 X66.7365 Y42.2955 
G01 X66.8117 Y42.2644 
G01 X66.9181 Y42.2644 
G01 X66.9181 Y41.5924 
G01 X66.8117 Y41.5924 
G01 X66.7365 Y41.5613 
G01 X66.6789 Y41.5037 
G01 X66.6477 Y41.4285 
G01 X66.6477 Y41.3470 
G01 X66.6789 Y41.2718 
G01 X66.7365 Y41.2142 
G01 X66.8117 Y41.1830 
G01 X67.4338 Y41.1830 
G01 X67.5091 Y41.2142 
G01 X67.5666 Y41.2718 
G01 X67.5978 Y41.3470 
G01 X67.5978 Y41.4285 
G01 X67.5666 Y41.5037 
G01 X67.5091 Y41.5613 
G01 X67.4338 Y41.5924 
G01 X67.3275 Y41.5924 
G01 X67.3275 Y42.5098 
G01 X67.2963 Y42.5850 
G01 X67.2387 Y42.6426 
G01 X67.1635 Y42.6738 
G01 X67.0821 Y42.6738 
G01 X66.8117 Y42.6738 
G00 Z2.5400  
G00 X66.2250 Y42.2644 
G01 Z-0.0350 F254   
G01 X66.3002 Y42.2955 F508   
G01 X66.3578 Y42.3531 
G01 X66.3890 Y42.4283 
G01 X66.3890 Y42.5098 
G01 X66.3578 Y42.5850 
G01 X66.3002 Y42.6426 
G01 X66.2250 Y42.6738 
G01 X65.3326 Y42.6738 
G01 X65.2573 Y42.6426 
G01 X64.9319 Y42.3172 
G01 X64.8982 Y42.2394 
G01 X64.8982 Y41.6174 
G01 X64.9294 Y41.5421 
G01 X65.2573 Y41.2142 
G01 X65.3326 Y41.1830 
G01 X66.2250 Y41.1830 
G01 X66.3002 Y41.2142 
G01 X66.3578 Y41.2718 
G01 X66.3890 Y41.3470 
G01 X66.3890 Y41.4285 
G01 X66.3578 Y41.5037 
G01 X66.3002 Y41.5613 
G01 X66.2250 Y41.5924 
G01 X65.4581 Y41.5924 
G01 X65.3076 Y41.7429 
G01 X65.3076 Y42.1139 
G01 X65.4581 Y42.2644 
G01 X66.2250 Y42.2644 
G00 Z2.5400  
G00 X61.8087 Y43.0504 
G01 Z-0.0350 F254   
G01 X61.7775 Y43.1257 F508   
G01 X61.7199 Y43.1833 
G01 X61.6447 Y43.2144 
G01 X61.5632 Y43.2144 
G01 X61.4880 Y43.1833 
G01 X61.4304 Y43.1257 
G01 X61.3993 Y43.0504 
G01 X61.3993 Y41.3470 
G01 X61.4304 Y41.2718 
G01 X61.4880 Y41.2142 
G01 X61.5632 Y41.1830 
G01 X62.7260 Y41.1830 
G01 X62.8012 Y41.2142 
G01 X62.8588 Y41.2718 
G01 X62.8900 Y41.3470 
G01 X62.8900 Y41.4285 
G01 X62.8588 Y41.5037 
G01 X62.8012 Y41.5613 
G01 X62.7260 Y41.5924 
G01 X61.8087 Y41.5924 
G01 X61.8087 Y43.0504 
G00 Z2.5400  
G00 X84.2129 Y40.8032 
G01 Z-0.0350 F254   
G01 X84.2129 Y41.7159 F508   
G01 X84.2030 Y41.7398 
G01 X84.1847 Y41.7581 
G01 X84.1790 Y41.7638 
G01 X84.1552 Y41.7737 
G01 X83.2976 Y41.7737 
G01 X83.2976 Y42.9098 
G01 X83.2877 Y42.9337 
G01 X83.2694 Y42.9520 
G01 X83.2637 Y42.9577 
G01 X83.2542 Y42.9616 
G01 X83.2427 Y42.9674 
G01 X83.2314 Y42.9730 
G01 X83.2240 Y42.9804 
G01 X83.2143 Y42.9844 
G01 X83.2029 Y42.9901 
G01 X83.1955 Y42.9975 
G01 X83.1860 Y43.0014 
G01 X83.1745 Y43.0072 
G01 X83.1631 Y43.0129 
G01 X83.1557 Y43.0202 
G01 X83.1461 Y43.0242 
G01 X83.1347 Y43.0299 
G01 X83.1233 Y43.0356 
G01 X83.1159 Y43.0429 
G01 X83.1063 Y43.0469 
G01 X83.0949 Y43.0527 
G01 X83.0835 Y43.0584 
G01 X83.0761 Y43.0657 
G01 X83.0666 Y43.0697 
G01 X83.0551 Y43.0754 
G01 X83.0477 Y43.0827 
G01 X83.0380 Y43.0868 
G01 X83.0268 Y43.0924 
G01 X83.0153 Y43.0981 
G01 X83.0079 Y43.1055 
G01 X82.9982 Y43.1095 
G01 X82.9870 Y43.1151 
G01 X82.9755 Y43.1209 
G01 X82.9681 Y43.1282 
G01 X82.9586 Y43.1322 
G01 X82.9471 Y43.1379 
G01 X82.9357 Y43.1436 
G01 X82.9283 Y43.1510 
G01 X82.9188 Y43.1549 
G01 X82.9073 Y43.1607 
G01 X82.8999 Y43.1680 
G01 X82.8902 Y43.1721 
G01 X82.8789 Y43.1777 
G01 X82.8675 Y43.1834 
G01 X82.8601 Y43.1908 
G01 X82.8504 Y43.1948 
G01 X82.8391 Y43.2004 
G01 X82.8277 Y43.2062 
G01 X82.8203 Y43.2135 
G01 X82.8106 Y43.2175 
G01 X82.7994 Y43.2232 
G01 X82.7919 Y43.2306 
G01 X82.7822 Y43.2346 
G01 X82.7708 Y43.2403 
G01 X82.7596 Y43.2459 
G01 X82.7521 Y43.2533 
G01 X82.7424 Y43.2573 
G01 X82.7312 Y43.2629 
G01 X82.7197 Y43.2687 
G01 X82.7123 Y43.2760 
G01 X82.7026 Y43.2801 
G01 X82.6914 Y43.2857 
G01 X82.6799 Y43.2914 
G01 X82.6725 Y43.2988 
G01 X82.6628 Y43.3028 
G01 X82.6516 Y43.3084 
G01 X82.6441 Y43.3158 
G01 X82.6344 Y43.3199 
G01 X82.6230 Y43.3255 
G01 X82.6118 Y43.3312 
G01 X82.6043 Y43.3386 
G01 X82.5946 Y43.3426 
G01 X82.5832 Y43.3483 
G01 X82.5720 Y43.3539 
G01 X82.5645 Y43.3613 
G01 X82.5548 Y43.3653 
G01 X82.5293 Y43.3769 
G01 X82.5262 Y43.3769 
G01 X82.5008 Y43.3883 
G01 X82.4975 Y43.3883 
G01 X82.4838 Y43.3939 
G01 X82.4748 Y43.3939 
G01 X82.4611 Y43.3996 
G01 X82.4350 Y43.3996 
G01 X82.4213 Y43.4053 
G01 X82.3442 Y43.4053 
G01 X82.3305 Y43.3996 
G01 X82.3044 Y43.3996 
G01 X82.2907 Y43.3939 
G01 X82.2817 Y43.3939 
G01 X82.2680 Y43.3883 
G01 X82.2646 Y43.3883 
G01 X82.2407 Y43.3784 
G01 X82.2362 Y43.3769 
G01 X82.2123 Y43.3670 
G01 X82.2009 Y43.3613 
G01 X82.1896 Y43.3556 
G01 X82.1839 Y43.3499 
G01 X82.1725 Y43.3443 
G01 X82.1668 Y43.3386 
G01 X82.1555 Y43.3329 
G01 X82.1498 Y43.3272 
G01 X82.1441 Y43.3215 
G01 X82.1384 Y43.3158 
G01 X82.1327 Y43.3102 
G01 X82.1270 Y43.3045 
G01 X82.1087 Y43.2862 
G01 X82.1043 Y43.2817 
G01 X82.0986 Y43.2760 
G01 X82.0803 Y43.2578 
G01 X82.0763 Y43.2481 
G01 X82.0689 Y43.2407 
G01 X82.0649 Y43.2309 
G01 X82.0576 Y43.2236 
G01 X82.0536 Y43.2140 
G01 X82.0479 Y43.2026 
G01 X82.0422 Y43.1912 
G01 X82.0348 Y43.1838 
G01 X82.0307 Y43.1740 
G01 X82.0252 Y43.1628 
G01 X82.0195 Y43.1515 
G01 X82.0121 Y43.1441 
G01 X82.0081 Y43.1344 
G01 X82.0024 Y43.1230 
G01 X81.9950 Y43.1156 
G01 X81.9909 Y43.1058 
G01 X81.9854 Y43.0946 
G01 X81.9797 Y43.0832 
G01 X81.9723 Y43.0758 
G01 X81.9683 Y43.0661 
G01 X81.9626 Y43.0548 
G01 X81.9569 Y43.0434 
G01 X81.9496 Y43.0360 
G01 X81.9456 Y43.0264 
G01 X81.9399 Y43.0150 
G01 X81.9342 Y43.0036 
G01 X81.9268 Y42.9962 
G01 X81.9228 Y42.9866 
G01 X81.9171 Y42.9750 
G01 X81.9098 Y42.9678 
G01 X81.9058 Y42.9581 
G01 X81.9001 Y42.9468 
G01 X81.8944 Y42.9354 
G01 X81.8870 Y42.9280 
G01 X81.8830 Y42.9183 
G01 X81.8772 Y42.9068 
G01 X81.8717 Y42.8956 
G01 X81.8643 Y42.8882 
G01 X81.8603 Y42.8785 
G01 X81.8546 Y42.8672 
G01 X81.8472 Y42.8598 
G01 X81.8432 Y42.8501 
G01 X81.8374 Y42.8386 
G01 X81.8319 Y42.8274 
G01 X81.8245 Y42.8200 
G01 X81.8205 Y42.8103 
G01 X81.8148 Y42.7990 
G01 X81.8091 Y42.7876 
G01 X81.8017 Y42.7802 
G01 X81.7976 Y42.7704 
G01 X81.7921 Y42.7592 
G01 X81.7864 Y42.7478 
G01 X81.7790 Y42.7404 
G01 X81.7750 Y42.7307 
G01 X81.7693 Y42.7194 
G01 X81.7620 Y42.7120 
G01 X81.7580 Y42.7023 
G01 X81.7523 Y42.6909 
G01 X81.7466 Y42.6796 
G01 X81.7392 Y42.6722 
G01 X81.7352 Y42.6625 
G01 X81.7295 Y42.6511 
G01 X81.7237 Y42.6396 
G01 X81.7165 Y42.6324 
G01 X81.7125 Y42.6227 
G01 X81.7068 Y42.6114 
G01 X81.6994 Y42.6040 
G01 X81.6954 Y42.5943 
G01 X81.6897 Y42.5829 
G01 X81.6840 Y42.5714 
G01 X81.6767 Y42.5642 
G01 X81.6727 Y42.5545 
G01 X81.6670 Y42.5431 
G01 X81.6613 Y42.5318 
G01 X81.6539 Y42.5244 
G01 X81.6498 Y42.5145 
G01 X81.6443 Y42.5033 
G01 X81.6386 Y42.4920 
G01 X81.6312 Y42.4846 
G01 X81.6272 Y42.4749 
G01 X81.6215 Y42.4635 
G01 X81.6141 Y42.4561 
G01 X81.6100 Y42.4463 
G01 X81.6045 Y42.4351 
G01 X81.5988 Y42.4238 
G01 X81.5914 Y42.4164 
G01 X81.5874 Y42.4067 
G01 X81.5817 Y42.3953 
G01 X81.5760 Y42.3839 
G01 X81.5687 Y42.3766 
G01 X81.5647 Y42.3669 
G01 X81.5590 Y42.3555 
G01 X81.5516 Y42.3481 
G01 X81.5476 Y42.3385 
G01 X81.5419 Y42.3271 
G01 X81.5361 Y42.3156 
G01 X81.5289 Y42.3083 
G01 X81.5249 Y42.2987 
G01 X81.5192 Y42.2873 
G01 X81.5135 Y42.2760 
G01 X81.5061 Y42.2686 
G01 X81.5021 Y42.2589 
G01 X81.4963 Y42.2473 
G01 X81.4908 Y42.2361 
G01 X81.4834 Y42.2287 
G01 X81.4794 Y42.2191 
G01 X81.4737 Y42.2077 
G01 X81.4663 Y42.2003 
G01 X81.4623 Y42.1907 
G01 X81.4565 Y42.1791 
G01 X81.4510 Y42.1679 
G01 X81.4436 Y42.1605 
G01 X81.4396 Y42.1509 
G01 X81.4339 Y42.1395 
G01 X81.4282 Y42.1281 
G01 X81.4209 Y42.1207 
G01 X81.4169 Y42.1111 
G01 X81.4112 Y42.0997 
G01 X81.4038 Y42.0923 
G01 X81.3998 Y42.0826 
G01 X81.3941 Y42.0713 
G01 X81.3884 Y42.0599 
G01 X81.3811 Y42.0525 
G01 X81.3771 Y42.0428 
G01 X81.3714 Y42.0315 
G01 X81.3657 Y42.0201 
G01 X81.3583 Y42.0127 
G01 X81.3543 Y42.0030 
G01 X81.3486 Y41.9917 
G01 X81.3428 Y41.9802 
G01 X81.3356 Y41.9729 
G01 X81.3316 Y41.9633 
G01 X81.3259 Y41.9519 
G01 X81.3185 Y41.9445 
G01 X81.3145 Y41.9348 
G01 X81.3087 Y41.9233 
G01 X81.3032 Y41.9121 
G01 X81.2958 Y41.9047 
G01 X81.2918 Y41.8950 
G01 X81.2861 Y41.8837 
G01 X81.2745 Y41.8581 
G01 X81.2745 Y41.8265 
G01 X81.2844 Y41.8026 
G01 X81.3027 Y41.7844 
G01 X81.3266 Y41.7745 
G01 X81.9510 Y41.7745 
G01 X81.9510 Y37.1705 
G01 X81.9609 Y37.1466 
G01 X81.9792 Y37.1283 
G01 X81.9912 Y37.1233 
G01 X81.9114 Y37.1233 
G01 X81.9221 Y37.1283 
G01 X81.9404 Y37.1466 
G01 X81.9503 Y37.1705 
G01 X81.9503 Y41.7216 
G01 X81.9404 Y41.7455 
G01 X81.9221 Y41.7638 
G01 X81.8983 Y41.7737 
G01 X81.2470 Y41.7737 
G01 X81.2231 Y41.7638 
G01 X81.2048 Y41.7455 
G01 X81.2008 Y41.7358 
G01 X81.1951 Y41.7245 
G01 X81.1878 Y41.7171 
G01 X81.1838 Y41.7074 
G01 X81.1781 Y41.6961 
G01 X81.1707 Y41.6887 
G01 X81.1667 Y41.6790 
G01 X81.1610 Y41.6676 
G01 X81.1553 Y41.6561 
G01 X81.1480 Y41.6489 
G01 X81.1440 Y41.6392 
G01 X81.1383 Y41.6278 
G01 X81.1326 Y41.6165 
G01 X81.1252 Y41.6091 
G01 X81.1212 Y41.5994 
G01 X81.1155 Y41.5879 
G01 X81.1082 Y41.5807 
G01 X81.1042 Y41.5710 
G01 X81.0985 Y41.5596 
G01 X81.0928 Y41.5483 
G01 X81.0854 Y41.5409 
G01 X81.0814 Y41.5312 
G01 X81.0756 Y41.5196 
G01 X81.0701 Y41.5085 
G01 X81.0627 Y41.5011 
G01 X81.0587 Y41.4914 
G01 X81.0530 Y41.4800 
G01 X81.0473 Y41.4687 
G01 X81.0400 Y41.4613 
G01 X81.0360 Y41.4516 
G01 X81.0303 Y41.4403 
G01 X81.0229 Y41.4329 
G01 X81.0189 Y41.4232 
G01 X81.0132 Y41.4118 
G01 X81.0075 Y41.4004 
G01 X81.0002 Y41.3930 
G01 X80.9962 Y41.3834 
G01 X80.9905 Y41.3720 
G01 X80.9848 Y41.3606 
G01 X80.9774 Y41.3532 
G01 X80.9734 Y41.3436 
G01 X80.9677 Y41.3322 
G01 X80.9604 Y41.3248 
G01 X80.9564 Y41.3152 
G01 X80.9507 Y41.3038 
G01 X80.9450 Y41.2924 
G01 X80.9376 Y41.2850 
G01 X80.9336 Y41.2754 
G01 X80.9278 Y41.2638 
G01 X80.9223 Y41.2526 
G01 X80.9149 Y41.2452 
G01 X80.9109 Y41.2356 
G01 X80.9052 Y41.2242 
G01 X80.8995 Y41.2128 
G01 X80.8921 Y41.2054 
G01 X80.8880 Y41.1956 
G01 X80.8825 Y41.1844 
G01 X80.8751 Y41.1770 
G01 X80.8711 Y41.1673 
G01 X80.8654 Y41.1560 
G01 X80.8597 Y41.1446 
G01 X80.8523 Y41.1372 
G01 X80.8482 Y41.1274 
G01 X80.8427 Y41.1162 
G01 X80.8370 Y41.1048 
G01 X80.8296 Y41.0974 
G01 X80.8256 Y41.0877 
G01 X80.8199 Y41.0764 
G01 X80.8126 Y41.0690 
G01 X80.8086 Y41.0593 
G01 X80.8029 Y41.0480 
G01 X80.7972 Y41.0366 
G01 X80.7898 Y41.0292 
G01 X80.7858 Y41.0195 
G01 X80.7801 Y41.0082 
G01 X80.7743 Y40.9966 
G01 X80.7671 Y40.9894 
G01 X80.7631 Y40.9797 
G01 X80.7574 Y40.9684 
G01 X80.7517 Y40.9570 
G01 X80.7443 Y40.9496 
G01 X80.7403 Y40.9399 
G01 X80.7345 Y40.9284 
G01 X80.7273 Y40.9212 
G01 X80.7233 Y40.9115 
G01 X80.7176 Y40.9001 
G01 X80.7119 Y40.8888 
G01 X80.7045 Y40.8814 
G01 X80.7004 Y40.8715 
G01 X80.6949 Y40.8604 
G01 X80.6892 Y40.8490 
G01 X80.6818 Y40.8416 
G01 X80.6778 Y40.8319 
G01 X80.6721 Y40.8206 
G01 X80.6647 Y40.8132 
G01 X80.6606 Y40.8033 
G01 X80.6551 Y40.7921 
G01 X80.6494 Y40.7808 
G01 X80.6420 Y40.7734 
G01 X80.6380 Y40.7637 
G01 X80.6323 Y40.7523 
G01 X80.6266 Y40.7410 
G01 X80.6193 Y40.7336 
G01 X80.6153 Y40.7239 
G01 X80.6096 Y40.7125 
G01 X80.6039 Y40.7012 
G01 X80.5965 Y40.6938 
G01 X80.5925 Y40.6841 
G01 X80.5868 Y40.6727 
G01 X80.5795 Y40.6654 
G01 X80.5755 Y40.6557 
G01 X80.5698 Y40.6443 
G01 X80.5641 Y40.6330 
G01 X80.5567 Y40.6256 
G01 X80.5527 Y40.6159 
G01 X80.5469 Y40.6044 
G01 X80.5414 Y40.5932 
G01 X80.5340 Y40.5858 
G01 X80.5300 Y40.5761 
G01 X80.5243 Y40.5648 
G01 X80.5169 Y40.5573 
G01 X80.5129 Y40.5477 
G01 X80.5071 Y40.5361 
G01 X80.5016 Y40.5249 
G01 X80.4942 Y40.5175 
G01 X80.4902 Y40.5079 
G01 X80.4845 Y40.4965 
G01 X80.4788 Y40.4852 
G01 X80.4714 Y40.4778 
G01 X80.4673 Y40.4679 
G01 X80.4618 Y40.4567 
G01 X80.4561 Y40.4454 
G01 X80.4487 Y40.4380 
G01 X80.4447 Y40.4283 
G01 X80.4390 Y40.4169 
G01 X80.4317 Y40.4095 
G01 X80.4277 Y40.3999 
G01 X80.4161 Y40.3743 
G01 X80.4161 Y40.3314 
G01 X80.4260 Y40.3075 
G01 X80.4443 Y40.2892 
G01 X80.4682 Y40.2793 
G01 X80.5110 Y40.2793 
G01 X80.5248 Y40.2850 
G01 X80.5282 Y40.2850 
G01 X80.5520 Y40.2949 
G01 X80.5633 Y40.3006 
G01 X80.5680 Y40.3020 
G01 X80.5918 Y40.3119 
G01 X80.6031 Y40.3176 
G01 X80.6145 Y40.3233 
G01 X80.6191 Y40.3248 
G01 X80.6429 Y40.3347 
G01 X80.6543 Y40.3404 
G01 X80.6589 Y40.3418 
G01 X80.6827 Y40.3517 
G01 X80.6941 Y40.3574 
G01 X80.7055 Y40.3631 
G01 X80.7101 Y40.3646 
G01 X80.7339 Y40.3745 
G01 X80.7453 Y40.3801 
G01 X80.7566 Y40.3858 
G01 X80.7613 Y40.3873 
G01 X80.7851 Y40.3972 
G01 X80.7964 Y40.4029 
G01 X80.8011 Y40.4044 
G01 X80.8249 Y40.4143 
G01 X80.8362 Y40.4199 
G01 X80.8476 Y40.4256 
G01 X80.8522 Y40.4271 
G01 X80.8760 Y40.4370 
G01 X80.8874 Y40.4427 
G01 X80.8988 Y40.4484 
G01 X80.9034 Y40.4498 
G01 X80.9272 Y40.4597 
G01 X80.9386 Y40.4654 
G01 X80.9432 Y40.4669 
G01 X80.9670 Y40.4768 
G01 X80.9784 Y40.4825 
G01 X80.9897 Y40.4882 
G01 X80.9943 Y40.4896 
G01 X81.0063 Y40.4946 
G01 X81.0132 Y40.4877 
G01 X81.0172 Y40.4780 
G01 X81.0229 Y40.4667 
G01 X81.0286 Y40.4553 
G01 X81.0360 Y40.4479 
G01 X81.0400 Y40.4382 
G01 X81.0456 Y40.4269 
G01 X81.0530 Y40.4195 
G01 X81.0570 Y40.4098 
G01 X81.0627 Y40.3984 
G01 X81.0684 Y40.3871 
G01 X81.0757 Y40.3798 
G01 X81.0797 Y40.3700 
G01 X81.0854 Y40.3586 
G01 X81.0911 Y40.3473 
G01 X81.0985 Y40.3399 
G01 X81.1025 Y40.3302 
G01 X81.1082 Y40.3188 
G01 X81.1139 Y40.3075 
G01 X81.1195 Y40.3019 
G01 X81.1252 Y40.2904 
G01 X81.1309 Y40.2791 
G01 X81.1383 Y40.2717 
G01 X81.1423 Y40.2620 
G01 X81.1480 Y40.2506 
G01 X81.1537 Y40.2392 
G01 X81.1593 Y40.2337 
G01 X81.1650 Y40.2222 
G01 X81.1707 Y40.2108 
G01 X81.1764 Y40.1995 
G01 X81.1838 Y40.1921 
G01 X81.1878 Y40.1824 
G01 X81.1934 Y40.1710 
G01 X81.1991 Y40.1597 
G01 X81.2065 Y40.1523 
G01 X81.2105 Y40.1426 
G01 X81.2162 Y40.1312 
G01 X81.2219 Y40.1199 
G01 X81.2291 Y40.1126 
G01 X81.2332 Y40.1028 
G01 X81.2389 Y40.0914 
G01 X81.2463 Y40.0840 
G01 X81.2503 Y40.0744 
G01 X81.2560 Y40.0630 
G01 X81.2617 Y40.0516 
G01 X81.2690 Y40.0444 
G01 X81.2730 Y40.0346 
G01 X81.2787 Y40.0232 
G01 X81.2844 Y40.0119 
G01 X81.2918 Y40.0044 
G01 X81.2958 Y39.9948 
G01 X81.3015 Y39.9834 
G01 X81.3072 Y39.9721 
G01 X81.3128 Y39.9665 
G01 X81.3185 Y39.9550 
G01 X81.3242 Y39.9436 
G01 X81.3316 Y39.9362 
G01 X81.3356 Y39.9266 
G01 X81.3413 Y39.9152 
G01 X81.3469 Y39.9038 
G01 X81.3543 Y39.8964 
G01 X81.3583 Y39.8868 
G01 X81.3640 Y39.8754 
G01 X81.3697 Y39.8640 
G01 X81.3771 Y39.8566 
G01 X81.3811 Y39.8470 
G01 X81.3867 Y39.8356 
G01 X81.3924 Y39.8242 
G01 X81.3998 Y39.8168 
G01 X81.4038 Y39.8072 
G01 X81.4095 Y39.7958 
G01 X81.4169 Y39.7884 
G01 X81.4209 Y39.7788 
G01 X81.4265 Y39.7674 
G01 X81.4322 Y39.7560 
G01 X81.4396 Y39.7486 
G01 X81.4436 Y39.7390 
G01 X81.4493 Y39.7276 
G01 X81.4550 Y39.7162 
G01 X81.4606 Y39.7107 
G01 X81.4663 Y39.6992 
G01 X81.4720 Y39.6878 
G01 X81.4777 Y39.6764 
G01 X81.4851 Y39.6690 
G01 X81.4891 Y39.6594 
G01 X81.4948 Y39.6480 
G01 X81.5004 Y39.6425 
G01 X81.5061 Y39.6309 
G01 X81.5118 Y39.6196 
G01 X81.5056 Y39.6132 
G01 X81.4960 Y39.6092 
G01 X81.4903 Y39.6035 
G01 X81.4846 Y39.5978 
G01 X81.4733 Y39.5921 
G01 X81.4676 Y39.5864 
G01 X81.4562 Y39.5807 
G01 X81.4505 Y39.5751 
G01 X81.4448 Y39.5694 
G01 X81.4335 Y39.5637 
G01 X81.4278 Y39.5580 
G01 X81.4221 Y39.5523 
G01 X81.4107 Y39.5466 
G01 X81.4050 Y39.5410 
G01 X81.3937 Y39.5353 
G01 X81.3880 Y39.5296 
G01 X81.3823 Y39.5239 
G01 X81.3709 Y39.5182 
G01 X81.3652 Y39.5125 
G01 X81.3578 Y39.5051 
G01 X81.3482 Y39.5012 
G01 X81.3425 Y39.4955 
G01 X81.3368 Y39.4898 
G01 X81.3255 Y39.4841 
G01 X81.3198 Y39.4784 
G01 X81.3084 Y39.4727 
G01 X81.3027 Y39.4671 
G01 X81.2970 Y39.4614 
G01 X81.2857 Y39.4557 
G01 X81.2800 Y39.4500 
G01 X81.2743 Y39.4443 
G01 X81.2629 Y39.4386 
G01 X81.2572 Y39.4329 
G01 X81.2459 Y39.4273 
G01 X81.2402 Y39.4216 
G01 X81.2345 Y39.4159 
G01 X81.2231 Y39.4102 
G01 X81.2174 Y39.4045 
G01 X81.2117 Y39.3988 
G01 X81.2004 Y39.3931 
G01 X81.1947 Y39.3875 
G01 X81.1890 Y39.3818 
G01 X81.1776 Y39.3761 
G01 X81.1702 Y39.3687 
G01 X81.1606 Y39.3647 
G01 X81.1549 Y39.3590 
G01 X81.1492 Y39.3534 
G01 X81.1378 Y39.3477 
G01 X81.1247 Y39.3346 
G01 X81.1151 Y39.3306 
G01 X81.1094 Y39.3249 
G01 X81.0980 Y39.3192 
G01 X81.0797 Y39.3009 
G01 X81.0627 Y39.2839 
G01 X81.0528 Y39.2600 
G01 X81.0528 Y39.2228 
G01 X81.0585 Y39.2090 
G01 X81.0585 Y39.1944 
G01 X81.0642 Y39.1806 
G01 X81.0642 Y39.1659 
G01 X81.0698 Y39.1524 
G01 X81.0698 Y39.1318 
G01 X81.0755 Y39.1181 
G01 X81.0755 Y39.0920 
G01 X81.0812 Y39.0783 
G01 X81.0812 Y39.0522 
G01 X81.0869 Y39.0385 
G01 X81.0869 Y39.0011 
G01 X81.0926 Y38.9873 
G01 X81.0926 Y38.9272 
G01 X81.0983 Y38.9134 
G01 X81.0983 Y38.7223 
G01 X81.0926 Y38.7086 
G01 X81.0926 Y38.6484 
G01 X81.0869 Y38.6346 
G01 X81.0869 Y38.5973 
G01 X81.0812 Y38.5835 
G01 X81.0812 Y38.5575 
G01 X81.0755 Y38.5437 
G01 X81.0755 Y38.5177 
G01 X81.0698 Y38.5039 
G01 X81.0698 Y38.4890 
G01 X81.0642 Y38.4755 
G01 X81.0642 Y38.4551 
G01 X81.0585 Y38.4414 
G01 X81.0585 Y38.4267 
G01 X81.0528 Y38.4129 
G01 X81.0528 Y38.3757 
G01 X81.0627 Y38.3518 
G01 X81.0810 Y38.3335 
G01 X81.0867 Y38.3278 
G01 X81.0924 Y38.3222 
G01 X81.1020 Y38.3182 
G01 X81.1094 Y38.3108 
G01 X81.1151 Y38.3051 
G01 X81.1247 Y38.3011 
G01 X81.1378 Y38.2880 
G01 X81.1476 Y38.2840 
G01 X81.1549 Y38.2767 
G01 X81.1645 Y38.2727 
G01 X81.1776 Y38.2596 
G01 X81.1874 Y38.2556 
G01 X81.1947 Y38.2483 
G01 X81.2004 Y38.2426 
G01 X81.2100 Y38.2386 
G01 X81.2174 Y38.2312 
G01 X81.2231 Y38.2255 
G01 X81.2328 Y38.2215 
G01 X81.2402 Y38.2141 
G01 X81.2498 Y38.2102 
G01 X81.2572 Y38.2028 
G01 X81.2629 Y38.1971 
G01 X81.2727 Y38.1930 
G01 X81.2800 Y38.1857 
G01 X81.2857 Y38.1800 
G01 X81.2953 Y38.1761 
G01 X81.3027 Y38.1687 
G01 X81.3124 Y38.1646 
G01 X81.3198 Y38.1573 
G01 X81.3255 Y38.1516 
G01 X81.3351 Y38.1476 
G01 X81.3425 Y38.1402 
G01 X81.3482 Y38.1346 
G01 X81.3578 Y38.1306 
G01 X81.3652 Y38.1232 
G01 X81.3709 Y38.1175 
G01 X81.3807 Y38.1135 
G01 X81.3880 Y38.1061 
G01 X81.3976 Y38.1021 
G01 X81.4050 Y38.0948 
G01 X81.4107 Y38.0891 
G01 X81.4205 Y38.0850 
G01 X81.4278 Y38.0777 
G01 X81.4335 Y38.0720 
G01 X81.4431 Y38.0680 
G01 X81.4505 Y38.0606 
G01 X81.4603 Y38.0566 
G01 X81.4676 Y38.0493 
G01 X81.4733 Y38.0436 
G01 X81.4829 Y38.0396 
G01 X81.4903 Y38.0322 
G01 X81.4960 Y38.0265 
G01 X81.5058 Y38.0225 
G01 X81.5120 Y38.0163 
G01 X81.5078 Y38.0065 
G01 X81.5004 Y37.9991 
G01 X81.4963 Y37.9892 
G01 X81.4908 Y37.9780 
G01 X81.4851 Y37.9667 
G01 X81.4777 Y37.9593 
G01 X81.4737 Y37.9496 
G01 X81.4680 Y37.9382 
G01 X81.4623 Y37.9269 
G01 X81.4550 Y37.9195 
G01 X81.4510 Y37.9098 
G01 X81.4453 Y37.8985 
G01 X81.4379 Y37.8911 
G01 X81.4339 Y37.8814 
G01 X81.4282 Y37.8700 
G01 X81.4224 Y37.8585 
G01 X81.4152 Y37.8513 
G01 X81.4112 Y37.8416 
G01 X81.4055 Y37.8302 
G01 X81.3998 Y37.8189 
G01 X81.3924 Y37.8115 
G01 X81.3884 Y37.8018 
G01 X81.3826 Y37.7902 
G01 X81.3771 Y37.7791 
G01 X81.3697 Y37.7717 
G01 X81.3657 Y37.7620 
G01 X81.3600 Y37.7507 
G01 X81.3526 Y37.7433 
G01 X81.3486 Y37.7336 
G01 X81.3428 Y37.7220 
G01 X81.3373 Y37.7108 
G01 X81.3299 Y37.7034 
G01 X81.3259 Y37.6938 
G01 X81.3202 Y37.6824 
G01 X81.3145 Y37.6710 
G01 X81.3072 Y37.6637 
G01 X81.3032 Y37.6540 
G01 X81.2975 Y37.6426 
G01 X81.2918 Y37.6313 
G01 X81.2844 Y37.6239 
G01 X81.2804 Y37.6142 
G01 X81.2747 Y37.6028 
G01 X81.2690 Y37.5913 
G01 X81.2617 Y37.5841 
G01 X81.2577 Y37.5744 
G01 X81.2520 Y37.5630 
G01 X81.2446 Y37.5556 
G01 X81.2406 Y37.5460 
G01 X81.2349 Y37.5346 
G01 X81.2292 Y37.5231 
G01 X81.2219 Y37.5159 
G01 X81.2179 Y37.5062 
G01 X81.2122 Y37.4948 
G01 X81.2065 Y37.4834 
G01 X81.1991 Y37.4760 
G01 X81.1951 Y37.4664 
G01 X81.1893 Y37.4548 
G01 X81.1838 Y37.4437 
G01 X81.1764 Y37.4363 
G01 X81.1724 Y37.4266 
G01 X81.1667 Y37.4152 
G01 X81.1593 Y37.4078 
G01 X81.1552 Y37.3980 
G01 X81.1497 Y37.3868 
G01 X81.1440 Y37.3754 
G01 X81.1366 Y37.3680 
G01 X81.1326 Y37.3584 
G01 X81.1269 Y37.3470 
G01 X81.1212 Y37.3356 
G01 X81.1139 Y37.3282 
G01 X81.1099 Y37.3186 
G01 X81.1042 Y37.3072 
G01 X81.0985 Y37.2959 
G01 X81.0911 Y37.2885 
G01 X81.0871 Y37.2788 
G01 X81.0814 Y37.2674 
G01 X81.0741 Y37.2600 
G01 X81.0701 Y37.2503 
G01 X81.0644 Y37.2390 
G01 X81.0587 Y37.2276 
G01 X81.0513 Y37.2202 
G01 X81.0473 Y37.2105 
G01 X81.0415 Y37.1990 
G01 X81.0360 Y37.1878 
G01 X81.0286 Y37.1804 
G01 X81.0246 Y37.1708 
G01 X81.0189 Y37.1594 
G01 X81.0132 Y37.1480 
G01 X81.0069 Y37.1418 
G01 X80.9830 Y37.1518 
G01 X80.9799 Y37.1518 
G01 X80.9687 Y37.1573 
G01 X80.9573 Y37.1630 
G01 X80.9318 Y37.1745 
G01 X80.9287 Y37.1745 
G01 X80.9175 Y37.1800 
G01 X80.8920 Y37.1915 
G01 X80.8889 Y37.1915 
G01 X80.8777 Y37.1971 
G01 X80.8665 Y37.2027 
G01 X80.8409 Y37.2143 
G01 X80.8377 Y37.2143 
G01 X80.8267 Y37.2197 
G01 X80.8011 Y37.2313 
G01 X80.7979 Y37.2313 
G01 X80.7869 Y37.2368 
G01 X80.7754 Y37.2425 
G01 X80.7499 Y37.2541 
G01 X80.7468 Y37.2541 
G01 X80.7356 Y37.2596 
G01 X80.7242 Y37.2653 
G01 X80.6987 Y37.2768 
G01 X80.6956 Y37.2768 
G01 X80.6844 Y37.2823 
G01 X80.6589 Y37.2939 
G01 X80.6558 Y37.2939 
G01 X80.6446 Y37.2994 
G01 X80.6334 Y37.3050 
G01 X80.6078 Y37.3166 
G01 X80.6046 Y37.3166 
G01 X80.5935 Y37.3221 
G01 X80.5680 Y37.3337 
G01 X80.5364 Y37.3337 
G01 X80.5125 Y37.3238 
G01 X80.4942 Y37.3055 
G01 X80.4843 Y37.2816 
G01 X80.4843 Y37.2501 
G01 X80.4942 Y37.2262 
G01 X80.4999 Y37.2148 
G01 X80.5056 Y37.2034 
G01 X80.5112 Y37.1979 
G01 X80.5169 Y37.1864 
G01 X80.5226 Y37.1750 
G01 X80.5283 Y37.1636 
G01 X80.5357 Y37.1562 
G01 X80.5397 Y37.1466 
G01 X80.5454 Y37.1352 
G01 X80.5510 Y37.1238 
G01 X80.5584 Y37.1164 
G01 X80.5624 Y37.1068 
G01 X80.5681 Y37.0954 
G01 X80.5755 Y37.0880 
G01 X80.5795 Y37.0784 
G01 X80.5851 Y37.0670 
G01 X80.5908 Y37.0556 
G01 X80.5982 Y37.0482 
G01 X80.6022 Y37.0386 
G01 X80.6079 Y37.0272 
G01 X80.6136 Y37.0158 
G01 X80.6208 Y37.0086 
G01 X80.6249 Y36.9988 
G01 X80.6306 Y36.9874 
G01 X80.6363 Y36.9760 
G01 X80.6437 Y36.9686 
G01 X80.6477 Y36.9590 
G01 X80.6534 Y36.9476 
G01 X80.6606 Y36.9404 
G01 X80.6647 Y36.9306 
G01 X80.6704 Y36.9192 
G01 X80.6761 Y36.9078 
G01 X80.6835 Y36.9004 
G01 X80.6875 Y36.8908 
G01 X80.6932 Y36.8794 
G01 X80.6989 Y36.8680 
G01 X80.7045 Y36.8625 
G01 X80.7102 Y36.8510 
G01 X80.7159 Y36.8396 
G01 X80.7233 Y36.8322 
G01 X80.7273 Y36.8225 
G01 X80.7330 Y36.8112 
G01 X80.7386 Y36.7998 
G01 X80.7460 Y36.7924 
G01 X80.7500 Y36.7827 
G01 X80.7557 Y36.7714 
G01 X80.7614 Y36.7600 
G01 X80.7688 Y36.7526 
G01 X80.7728 Y36.7430 
G01 X80.7784 Y36.7316 
G01 X80.7841 Y36.7202 
G01 X80.7915 Y36.7128 
G01 X80.7955 Y36.7032 
G01 X80.8012 Y36.6918 
G01 X80.8086 Y36.6844 
G01 X80.8126 Y36.6747 
G01 X80.8182 Y36.6634 
G01 X80.8239 Y36.6520 
G01 X80.8313 Y36.6446 
G01 X80.8353 Y36.6349 
G01 X80.8410 Y36.6236 
G01 X80.8467 Y36.6122 
G01 X80.8523 Y36.6067 
G01 X80.8580 Y36.5951 
G01 X80.8637 Y36.5838 
G01 X80.8711 Y36.5764 
G01 X80.8751 Y36.5667 
G01 X80.8808 Y36.5553 
G01 X80.8865 Y36.5440 
G01 X80.8920 Y36.5384 
G01 X80.8978 Y36.5269 
G01 X80.9035 Y36.5155 
G01 X80.9092 Y36.5042 
G01 X80.9166 Y36.4968 
G01 X80.9206 Y36.4871 
G01 X80.9263 Y36.4758 
G01 X80.9319 Y36.4644 
G01 X80.9393 Y36.4570 
G01 X80.9433 Y36.4473 
G01 X80.9490 Y36.4359 
G01 X80.9564 Y36.4285 
G01 X80.9604 Y36.4189 
G01 X80.9660 Y36.4075 
G01 X80.9717 Y36.3962 
G01 X80.9791 Y36.3888 
G01 X80.9831 Y36.3791 
G01 X80.9888 Y36.3677 
G01 X80.9945 Y36.3564 
G01 X81.0018 Y36.3491 
G01 X81.0058 Y36.3393 
G01 X81.0115 Y36.3279 
G01 X81.0189 Y36.3205 
G01 X81.0229 Y36.3109 
G01 X81.0286 Y36.2995 
G01 X81.0343 Y36.2881 
G01 X81.0416 Y36.2809 
G01 X81.0456 Y36.2711 
G01 X81.0513 Y36.2597 
G01 X81.0570 Y36.2484 
G01 X81.0644 Y36.2410 
G01 X81.0684 Y36.2313 
G01 X81.0741 Y36.2199 
G01 X81.0797 Y36.2086 
G01 X81.0871 Y36.2011 
G01 X81.0911 Y36.1915 
G01 X81.0968 Y36.1801 
G01 X81.1042 Y36.1727 
G01 X81.1082 Y36.1631 
G01 X81.1139 Y36.1517 
G01 X81.1195 Y36.1403 
G01 X81.1378 Y36.1220 
G01 X81.1617 Y36.1122 
G01 X84.1609 Y36.1122 
G01 X84.1847 Y36.1220 
G01 X84.2030 Y36.1403 
G01 X84.2129 Y36.1642 
G01 X84.2129 Y39.4533 
G01 X84.2030 Y39.4772 
G01 X84.1847 Y39.4955 
G01 X84.1790 Y39.5012 
G01 X84.1670 Y39.5061 
G01 X84.1725 Y39.5061 
G01 X84.1862 Y39.5004 
G01 X84.2405 Y39.5004 
G01 X84.2236 Y39.4829 
G01 X84.2137 Y39.4590 
G01 X84.2137 Y36.1057 
G01 X81.2470 Y36.1057 
G01 X81.2231 Y36.0958 
G01 X81.2048 Y36.0775 
G01 X81.1949 Y36.0536 
G01 X81.1949 Y36.0164 
G01 X81.2048 Y35.9925 
G01 X81.2122 Y35.9851 
G01 X81.2162 Y35.9755 
G01 X81.2219 Y35.9641 
G01 X81.2276 Y35.9527 
G01 X81.2332 Y35.9472 
G01 X81.2389 Y35.9357 
G01 X81.2446 Y35.9243 
G01 X81.2520 Y35.9169 
G01 X81.2560 Y35.9072 
G01 X81.2617 Y35.8959 
G01 X81.2674 Y35.8845 
G01 X81.2730 Y35.8790 
G01 X81.2787 Y35.8675 
G01 X81.2844 Y35.8561 
G01 X81.2901 Y35.8447 
G01 X81.2975 Y35.8373 
G01 X81.3015 Y35.8276 
G01 X81.3072 Y35.8163 
G01 X81.3128 Y35.8107 
G01 X81.3185 Y35.7992 
G01 X81.3242 Y35.7879 
G01 X81.3299 Y35.7765 
G01 X81.3373 Y35.7691 
G01 X81.3413 Y35.7594 
G01 X81.3469 Y35.7481 
G01 X81.3526 Y35.7367 
G01 X81.3600 Y35.7293 
G01 X81.3640 Y35.7196 
G01 X81.3697 Y35.7083 
G01 X81.3754 Y35.6969 
G01 X81.3826 Y35.6897 
G01 X81.3867 Y35.6798 
G01 X81.3924 Y35.6685 
G01 X81.3998 Y35.6611 
G01 X81.4038 Y35.6514 
G01 X81.4095 Y35.6401 
G01 X81.4152 Y35.6287 
G01 X81.4224 Y35.6215 
G01 X81.4265 Y35.6116 
G01 X81.4322 Y35.6003 
G01 X81.4379 Y35.5889 
G01 X81.4453 Y35.5815 
G01 X81.4493 Y35.5718 
G01 X81.4550 Y35.5605 
G01 X81.4606 Y35.5549 
G01 X81.4663 Y35.5434 
G01 X81.4720 Y35.5320 
G01 X81.4777 Y35.5207 
G01 X81.4851 Y35.5133 
G01 X81.4891 Y35.5036 
G01 X81.4948 Y35.4922 
G01 X81.5004 Y35.4809 
G01 X81.5187 Y35.4626 
G01 X81.5426 Y35.4527 
G01 X83.9294 Y35.4527 
G01 X83.9294 Y35.3001 
G01 X83.9393 Y35.2762 
G01 X83.9576 Y35.2579 
G01 X83.9815 Y35.2480 
G01 X84.0245 Y35.2480 
G01 X84.0483 Y35.2579 
G01 X84.0597 Y35.2636 
G01 X84.0671 Y35.2710 
G01 X84.0767 Y35.2750 
G01 X84.0881 Y35.2807 
G01 X84.0938 Y35.2863 
G01 X84.1051 Y35.2920 
G01 X84.1165 Y35.2977 
G01 X84.1279 Y35.3034 
G01 X84.1336 Y35.3091 
G01 X84.1449 Y35.3148 
G01 X84.1563 Y35.3205 
G01 X84.1677 Y35.3261 
G01 X84.1734 Y35.3318 
G01 X84.1847 Y35.3375 
G01 X84.1961 Y35.3432 
G01 X84.2018 Y35.3489 
G01 X84.2131 Y35.3546 
G01 X84.2245 Y35.3602 
G01 X84.2359 Y35.3659 
G01 X84.2416 Y35.3716 
G01 X84.2529 Y35.3773 
G01 X84.2643 Y35.3830 
G01 X84.2757 Y35.3887 
G01 X84.2814 Y35.3944 
G01 X84.2927 Y35.4000 
G01 X84.3041 Y35.4057 
G01 X84.3155 Y35.4114 
G01 X84.3212 Y35.4171 
G01 X84.3325 Y35.4228 
G01 X84.3439 Y35.4285 
G01 X84.3496 Y35.4341 
G01 X84.3610 Y35.4398 
G01 X84.3723 Y35.4455 
G01 X84.3837 Y35.4512 
G01 X84.3894 Y35.4569 
G01 X84.4008 Y35.4626 
G01 X84.4121 Y35.4683 
G01 X84.4235 Y35.4740 
G01 X84.4292 Y35.4796 
G01 X84.4406 Y35.4853 
G01 X84.4519 Y35.4910 
G01 X84.4633 Y35.4967 
G01 X84.4690 Y35.5024 
G01 X84.4803 Y35.5081 
G01 X84.4917 Y35.5137 
G01 X84.4974 Y35.5194 
G01 X84.5088 Y35.5251 
G01 X84.5201 Y35.5308 
G01 X84.5315 Y35.5365 
G01 X84.5372 Y35.5422 
G01 X84.5486 Y35.5479 
G01 X84.5599 Y35.5535 
G01 X84.5713 Y35.5592 
G01 X84.5770 Y35.5649 
G01 X84.5884 Y35.5706 
G01 X84.5997 Y35.5763 
G01 X84.6111 Y35.5820 
G01 X84.6168 Y35.5877 
G01 X84.6282 Y35.5933 
G01 X84.6395 Y35.5990 
G01 X84.6452 Y35.6047 
G01 X84.6566 Y35.6104 
G01 X84.6680 Y35.6161 
G01 X84.6793 Y35.6218 
G01 X84.6850 Y35.6274 
G01 X84.6964 Y35.6331 
G01 X84.7077 Y35.6388 
G01 X84.7191 Y35.6445 
G01 X84.7248 Y35.6502 
G01 X84.7362 Y35.6559 
G01 X84.7475 Y35.6616 
G01 X84.7532 Y35.6672 
G01 X84.7646 Y35.6729 
G01 X84.7760 Y35.6786 
G01 X84.7873 Y35.6843 
G01 X84.7930 Y35.6900 
G01 X84.8044 Y35.6957 
G01 X84.8101 Y35.7014 
G01 X84.8214 Y35.7070 
G01 X84.8271 Y35.7127 
G01 X84.8328 Y35.7184 
G01 X84.8385 Y35.7241 
G01 X84.8442 Y35.7298 
G01 X84.8499 Y35.7355 
G01 X84.8556 Y35.7411 
G01 X84.8739 Y35.7594 
G01 X84.8909 Y35.7765 
G01 X84.8949 Y35.7861 
G01 X84.9080 Y35.7992 
G01 X84.9120 Y35.8089 
G01 X84.9178 Y35.8205 
G01 X84.9233 Y35.8317 
G01 X84.9290 Y35.8430 
G01 X84.9347 Y35.8544 
G01 X84.9463 Y35.8800 
G01 X84.9463 Y35.8833 
G01 X84.9520 Y35.8970 
G01 X84.9520 Y35.9003 
G01 X84.9577 Y35.9141 
G01 X84.9577 Y35.9231 
G01 X84.9634 Y35.9368 
G01 X84.9634 Y41.8240 
G01 X84.9577 Y41.8377 
G01 X84.9577 Y41.8467 
G01 X84.9520 Y41.8605 
G01 X84.9520 Y41.8694 
G01 X84.9421 Y41.8933 
G01 X84.9406 Y41.8979 
G01 X84.9307 Y41.9218 
G01 X84.9250 Y41.9331 
G01 X84.9193 Y41.9445 
G01 X84.9138 Y41.9500 
G01 X84.9080 Y41.9616 
G01 X84.9006 Y41.9690 
G01 X84.8966 Y41.9786 
G01 X84.8783 Y41.9969 
G01 X84.8740 Y42.0013 
G01 X84.8556 Y42.0196 
G01 X84.8499 Y42.0253 
G01 X84.8442 Y42.0310 
G01 X84.8385 Y42.0367 
